crates/agx-e2e/fixtures/looks/luts/blade_runner.cube
TITLE "blade_runner"
LUT_3D_SIZE 5
DOMAIN_MIN 0.0 0.0 0.0
DOMAIN_MAX 1.0 1.0 1.0
0.009945 0.030315 0.037455
0.127164 0.027630 0.034770
0.547932 0.017367 0.024507
0.968701 0.007105 0.014245
1.000000 0.030000 0.036800
0.007476 0.138678 0.034986
0.126725 0.138023 0.034331
0.547762 0.128029 0.024338
0.968531 0.117767 0.014075
1.000000 0.135554 0.036800
0.000000 0.525600 0.027301
0.117239 0.526955 0.024845
0.547762 0.526447 0.024338
0.968531 0.516185 0.014075
1.000000 0.515000 0.036800
0.000000 0.905046 0.026828
0.107753 0.915887 0.015359
0.538784 0.915887 0.015359
0.968531 0.914603 0.014075
1.000000 0.894446 0.036800
0.010600 1.000000 0.036800
0.124795 1.000000 0.036800
0.535300 1.000000 0.036800
0.945805 1.000000 0.036800
1.000000 1.000000 0.036800
0.007542 0.027912 0.135966
0.126961 0.027427 0.135481
0.547932 0.017367 0.125422
0.968701 0.007105 0.115159
1.000000 0.030000 0.132909
0.007476 0.138678 0.135900
0.124525 0.135823 0.133045
0.545360 0.125627 0.122849
0.966128 0.115364 0.112586
1.000000 0.135554 0.132909
0.000000 0.525600 0.127449
0.115039 0.524755 0.123559
0.545360 0.524045 0.122849
0.966128 0.513782 0.112586
1.000000 0.515000 0.132909
0.000000 0.905046 0.125242
0.105553 0.913687 0.114073
0.536381 0.913484 0.113870
0.966128 0.912200 0.112586
1.000000 0.894446 0.132909
0.010600 1.000000 0.132909
0.124794 1.000000 0.132909
0.535300 1.000000 0.132909
0.945806 1.000000 0.132909
1.000000 1.000000 0.132909
0.000000 0.020279 0.489000
0.118324 0.018790 0.489610
0.547932 0.017367 0.488188
0.968701 0.007105 0.477925
1.000000 0.030000 0.478400
0.000000 0.130617 0.489000
0.115954 0.127252 0.487240
0.545294 0.125561 0.485549
0.966062 0.115298 0.475286
1.000000 0.135554 0.478400
0.000000 0.525600 0.487462
0.115039 0.524755 0.486325
0.536722 0.515408 0.476978
0.957491 0.505145 0.466715
1.000000 0.515000 0.478400
0.000000 0.905046 0.479021
0.105553 0.913687 0.476839
0.527744 0.904847 0.467999
0.957491 0.903563 0.466715
1.000000 0.894446 0.478400
0.010600 1.000000 0.478400
0.124794 1.000000 0.478400
0.535300 1.000000 0.478400
0.945806 1.000000 0.478400
1.000000 1.000000 0.478400
0.000000 0.019906 0.834491
0.109687 0.010153 0.843738
0.540718 0.010153 0.843738
0.968701 0.007105 0.840691
1.000000 0.030000 0.823892
0.000000 0.128212 0.834491
0.107317 0.118615 0.841369
0.538079 0.118346 0.841100
0.966062 0.115298 0.838052
1.000000 0.135554 0.823892
0.000000 0.517548 0.834491
0.107317 0.517033 0.841369
0.528593 0.507278 0.831614
0.956576 0.504230 0.828566
1.000000 0.515000 0.823891
0.000000 0.905046 0.832799
0.105553 0.913687 0.839605
0.526321 0.903424 0.829342
0.948853 0.894926 0.820843
1.000000 0.894446 0.823891
0.010600 1.000000 0.823891
0.124794 1.000000 0.823891
0.535300 1.000000 0.823891
0.945805 1.000000 0.823891
1.000000 1.000000 0.823891
0.000000 0.019852 0.930600
0.107284 0.007750 0.942250
0.538315 0.007750 0.942250
0.968701 0.007105 0.941605
1.000000 0.030000 0.920000
0.000000 0.127867 0.930600
0.104914 0.116212 0.939880
0.535676 0.115943 0.939611
0.966062 0.115298 0.938966
1.000000 0.135554 0.920000
0.000000 0.516159 0.930600
0.104914 0.514630 0.939880
0.526190 0.504875 0.930125
0.956576 0.504230 0.929480
1.000000 0.515000 0.920000
0.000000 0.904450 0.930600
0.104914 0.913048 0.939880
0.525682 0.902786 0.929618
0.947090 0.893162 0.919994
1.000000 0.894446 0.920000
0.010600 1.000000 0.920000
0.124794 1.000000 0.920000
0.535300 1.000000 0.920000
0.945806 1.000000 0.920000
1.000000 1.000000 0.920000
