crates/agx-e2e/fixtures/looks/luts/blade_runner.cube
TITLE "blade_runner"
LUT_3D_SIZE 9
DOMAIN_MIN 0.0 0.0 0.0
DOMAIN_MAX 1.0 1.0 1.0
0.009945 0.030315 0.037455
0.035556 0.029830 0.036970
0.127164 0.027630 0.034770
0.295723 0.023519 0.030659
0.547932 0.017367 0.024507
0.800142 0.011216 0.018356
0.968701 0.007105 0.014245
1.000000 0.030000 0.036800
1.000000 0.030000 0.036800
0.009541 0.054032 0.037051
0.035015 0.053411 0.036429
0.126994 0.051581 0.034600
0.295553 0.047470 0.030489
0.547762 0.041319 0.024338
0.799972 0.035167 0.018186
0.968531 0.031056 0.014075
1.000000 0.052973 0.036800
1.000000 0.052973 0.036800
0.007476 0.138678 0.034986
0.032950 0.138057 0.034365
0.126725 0.138023 0.034331
0.295553 0.134181 0.030489
0.547762 0.128029 0.024338
0.799972 0.121878 0.018186
0.968531 0.117767 0.014075
1.000000 0.135554 0.036800
1.000000 0.135554 0.036800
0.003676 0.294483 0.031186
0.029150 0.293861 0.030565
0.122925 0.293828 0.030531
0.295553 0.293786 0.030489
0.547762 0.287634 0.024338
0.799972 0.281483 0.018186
0.968531 0.277372 0.014075
1.000000 0.287559 0.036800
1.000000 0.287559 0.036800
0.000000 0.525600 0.027301
0.023464 0.526989 0.024879
0.117239 0.526955 0.024845
0.289909 0.526955 0.024845
0.547762 0.526447 0.024338
0.799972 0.520296 0.018186
0.968531 0.516185 0.014075
1.000000 0.515000 0.036800
1.000000 0.515000 0.036800
0.000000 0.753041 0.026959
0.017778 0.760116 0.019193
0.111553 0.760082 0.019159
0.284223 0.760082 0.019159
0.542584 0.760082 0.019159
0.799972 0.759109 0.018186
0.968531 0.754998 0.014075
1.000000 0.742441 0.036800
1.000000 0.742441 0.036800
0.000000 0.905046 0.026828
0.013978 0.915920 0.015393
0.107753 0.915887 0.015359
0.280422 0.915887 0.015359
0.538784 0.915887 0.015359
0.797145 0.915887 0.015359
0.968531 0.914603 0.014075
1.000000 0.894446 0.036800
1.000000 0.894446 0.036800
0.000000 0.987627 0.026775
0.012480 1.000000 0.013893
0.106122 1.000000 0.013828
0.278605 1.000000 0.013828
0.536687 1.000000 0.013828
0.794769 1.000000 0.013828
0.967252 1.000000 0.013828
1.000000 0.977027 0.036800
1.000000 0.977027 0.036800
0.010600 1.000000 0.036800
0.035453 1.000000 0.036800
0.124795 1.000000 0.036800
0.289242 1.000000 0.036800
0.535300 1.000000 0.036800
0.781359 1.000000 0.036800
0.945805 1.000000 0.036800
1.000000 1.000000 0.036800
1.000000 1.000000 0.036800
0.009422 0.029792 0.058895
0.035033 0.029307 0.058410
0.127164 0.027630 0.056733
0.295723 0.023519 0.052622
0.547932 0.017367 0.046470
0.800142 0.011216 0.040319
0.968701 0.007105 0.036208
1.000000 0.030000 0.057717
1.000000 0.030000 0.057717
0.009422 0.053913 0.058895
0.034896 0.053292 0.058273
0.126590 0.051177 0.056159
0.295148 0.047066 0.052047
0.547358 0.040914 0.045896
0.799568 0.034763 0.039744
0.968126 0.030652 0.035633
1.000000 0.052973 0.057716
1.000000 0.052973 0.057716
0.007476 0.138678 0.056949
0.032950 0.138057 0.056328
0.126202 0.137500 0.055771
0.295030 0.133658 0.051929
0.547240 0.127507 0.045777
0.799449 0.121355 0.039626
0.968008 0.117244 0.035515
1.000000 0.135554 0.057717
1.000000 0.135554 0.057717
0.003676 0.294483 0.053149
0.029150 0.293861 0.052527
0.122402 0.293305 0.051971
0.295030 0.293263 0.051929
0.547240 0.287111 0.045777
0.799449 0.280960 0.039626
0.968008 0.276849 0.035515
1.000000 0.287559 0.057717
1.000000 0.287559 0.057717
0.000000 0.525600 0.049097
0.023464 0.526989 0.046841
0.116716 0.526432 0.046285
0.289386 0.526432 0.046285
0.547240 0.525925 0.045777
0.799449 0.519773 0.039626
0.968008 0.515662 0.035515
1.000000 0.515000 0.057717
1.000000 0.515000 0.057717
0.000000 0.753041 0.048482
0.017778 0.760116 0.041155
0.111030 0.759559 0.040599
0.283700 0.759559 0.040599
0.542061 0.759559 0.040599
0.799449 0.758586 0.039626
0.968008 0.754475 0.035515
1.000000 0.742441 0.057717
1.000000 0.742441 0.057717
0.000000 0.905046 0.048247
0.013978 0.915920 0.037355
0.107230 0.915364 0.036799
0.279900 0.915364 0.036799
0.538261 0.915364 0.036799
0.796622 0.915364 0.036799
0.968008 0.914080 0.035515
1.000000 0.894446 0.057717
1.000000 0.894446 0.057717
0.000000 0.987627 0.048150
0.012480 1.000000 0.035831
0.105174 1.000000 0.034744
0.277840 1.000000 0.034744
0.536196 1.000000 0.034744
0.794552 1.000000 0.034744
0.967218 1.000000 0.034744
1.000000 0.977027 0.057717
1.000000 0.977027 0.057717
0.010600 1.000000 0.057717
0.035453 1.000000 0.057717
0.124794 1.000000 0.057717
0.289241 1.000000 0.057717
0.535300 1.000000 0.057717
0.781358 1.000000 0.057717
0.945806 1.000000 0.057717
1.000000 1.000000 0.057717
1.000000 1.000000 0.057717
0.007542 0.027912 0.135966
0.033153 0.027427 0.135481
0.126961 0.027427 0.135481
0.295723 0.023519 0.131573
0.547932 0.017367 0.125422
0.800142 0.011216 0.119270
0.968701 0.007105 0.115159
1.000000 0.030000 0.132909
1.000000 0.030000 0.132909
0.007542 0.052033 0.135966
0.033017 0.051412 0.135345
0.126387 0.050974 0.134907
0.295148 0.047066 0.130999
0.547358 0.040914 0.124847
0.799568 0.034763 0.118696
0.968126 0.030652 0.114585
1.000000 0.052973 0.132909
1.000000 0.052973 0.132909
0.007476 0.138678 0.135900
0.032950 0.138057 0.135279
0.124525 0.135823 0.133045
0.293150 0.131778 0.129000
0.545360 0.125627 0.122849
0.797570 0.119475 0.116697
0.966128 0.115364 0.112586
1.000000 0.135554 0.132909
1.000000 0.135554 0.132909
0.003676 0.294483 0.132100
0.029150 0.293861 0.131479
0.120725 0.291628 0.129245
0.293150 0.291383 0.129000
0.545360 0.285232 0.122849
0.797570 0.279080 0.116697
0.966128 0.274969 0.112586
1.000000 0.287559 0.132909
1.000000 0.287559 0.132909
0.000000 0.525600 0.127449
0.023464 0.526989 0.125793
0.115039 0.524755 0.123559
0.287506 0.524552 0.123357
0.545360 0.524045 0.122849
0.797570 0.517893 0.116697
0.966128 0.513782 0.112586
1.000000 0.515000 0.132909
1.000000 0.515000 0.132909
0.000000 0.753041 0.125852
0.017778 0.760116 0.120107
0.109353 0.757882 0.117873
0.281820 0.757679 0.117671
0.540181 0.757679 0.117671
0.797570 0.756707 0.116697
0.966128 0.752595 0.112586
1.000000 0.742441 0.132909
1.000000 0.742441 0.132909
0.000000 0.905046 0.125242
0.013978 0.915920 0.116307
0.105553 0.913687 0.114073
0.278020 0.913484 0.113870
0.536381 0.913484 0.113870
0.794742 0.913484 0.113870
0.966128 0.912200 0.112586
1.000000 0.894446 0.132909
1.000000 0.894446 0.132909
0.000000 0.987627 0.124992
0.012480 1.000000 0.114692
0.103489 0.998333 0.112009
0.275955 0.998130 0.111806
0.534317 0.998130 0.111806
0.792678 0.998130 0.111806
0.965347 0.998130 0.111806
1.000000 0.977027 0.132909
1.000000 0.977027 0.132909
0.010600 1.000000 0.132909
0.035453 1.000000 0.132909
0.124794 1.000000 0.132909
0.289242 1.000000 0.132909
0.535300 1.000000 0.132909
0.781358 1.000000 0.132909
0.945806 1.000000 0.132909
1.000000 1.000000 0.132909
1.000000 1.000000 0.132909
0.004082 0.024452 0.277829
0.029693 0.023967 0.277344
0.123501 0.023967 0.277344
0.295723 0.023519 0.276896
0.547932 0.017367 0.270745
0.800142 0.011216 0.264593
0.968701 0.007105 0.260482
1.000000 0.030000 0.271312
1.000000 0.030000 0.271312
0.004082 0.048574 0.277829
0.029557 0.047952 0.277208
0.122927 0.047514 0.276770
0.295148 0.047066 0.276322
0.547358 0.040914 0.270170
0.799568 0.034763 0.264019
0.968126 0.030652 0.259908
1.000000 0.052973 0.271311
1.000000 0.052973 0.271311
0.004082 0.135284 0.277829
0.029557 0.134663 0.277208
0.121132 0.132429 0.274974
0.293084 0.131712 0.274257
0.545294 0.125561 0.268106
0.797504 0.119409 0.261955
0.966062 0.115298 0.257843
1.000000 0.135554 0.271312
1.000000 0.135554 0.271312
0.003676 0.294483 0.277423
0.029150 0.293861 0.276802
0.120725 0.291628 0.274568
0.289690 0.287923 0.270863
0.541900 0.281772 0.264712
0.794110 0.275620 0.258560
0.962668 0.271509 0.254449
1.000000 0.287559 0.271311
1.000000 0.287559 0.271311
0.000000 0.525600 0.271669
0.023464 0.526989 0.271115
0.115039 0.524755 0.268882
0.284046 0.521092 0.265219
0.541900 0.520585 0.264712
0.794110 0.514433 0.258560
0.962668 0.510322 0.254449
1.000000 0.515000 0.271311
1.000000 0.515000 0.271311
0.000000 0.753041 0.268264
0.017778 0.760116 0.265429
0.109353 0.757882 0.263196
0.278360 0.754219 0.259533
0.536721 0.754219 0.259533
0.794110 0.753246 0.258560
0.962668 0.749135 0.254449
1.000000 0.742441 0.271311
1.000000 0.742441 0.271311
0.000000 0.905046 0.266965
0.013978 0.915920 0.261629
0.105553 0.913687 0.259396
0.274560 0.910024 0.255733
0.532921 0.910024 0.255733
0.791282 0.910024 0.255733
0.962668 0.908740 0.254449
1.000000 0.894446 0.271311
1.000000 0.894446 0.271311
0.000000 0.987627 0.266430
0.012480 1.000000 0.259848
0.103489 0.998333 0.257331
0.272495 0.994670 0.253668
0.530856 0.994670 0.253668
0.789218 0.994670 0.253668
0.961887 0.994670 0.253668
1.000000 0.977027 0.271311
1.000000 0.977027 0.271311
0.010600 1.000000 0.271311
0.035453 1.000000 0.271311
0.124794 1.000000 0.271311
0.289241 1.000000 0.271311
0.535300 1.000000 0.271311
0.781358 1.000000 0.271311
0.945805 1.000000 0.271311
1.000000 1.000000 0.271311
1.000000 1.000000 0.271311
0.000000 0.020279 0.489000
0.024516 0.018790 0.489610
0.118324 0.018790 0.489610
0.290993 0.018790 0.489610
0.547932 0.017367 0.488188
0.800142 0.011216 0.482036
0.968701 0.007105 0.477925
1.000000 0.030000 0.478400
1.000000 0.030000 0.478400
0.000000 0.044293 0.489000
0.024379 0.042775 0.489474
0.117750 0.042337 0.489036
0.290419 0.042337 0.489036
0.547358 0.040914 0.487613
0.799568 0.034763 0.481462
0.968126 0.030652 0.477350
1.000000 0.052973 0.478400
1.000000 0.052973 0.478400
0.000000 0.130617 0.489000
0.024379 0.129486 0.489474
0.115954 0.127252 0.487240
0.288355 0.126983 0.486971
0.545294 0.125561 0.485549
0.797504 0.119409 0.479397
0.966062 0.115298 0.475286
1.000000 0.135554 0.478400
1.000000 0.135554 0.478400
0.000000 0.289510 0.489000
0.024379 0.289090 0.489474
0.115954 0.286857 0.487240
0.284555 0.282788 0.483171
0.541493 0.281365 0.481749
0.793703 0.275214 0.475597
0.962262 0.271103 0.471486
1.000000 0.287559 0.478400
1.000000 0.287559 0.478400
0.000000 0.525600 0.487462
0.023464 0.526989 0.488559
0.115039 0.524755 0.486325
0.283598 0.520644 0.482214
0.536722 0.515408 0.476978
0.788932 0.509256 0.470826
0.957491 0.505145 0.466715
1.000000 0.515000 0.478400
1.000000 0.515000 0.478400
0.000000 0.753041 0.481351
0.017778 0.760116 0.482873
0.109353 0.757882 0.480639
0.277911 0.753771 0.476528
0.531544 0.749042 0.471799
0.788932 0.748069 0.470826
0.957491 0.743958 0.466715
1.000000 0.742441 0.478400
1.000000 0.742441 0.478400
0.000000 0.905046 0.479021
0.013978 0.915920 0.479072
0.105553 0.913687 0.476839
0.274111 0.909576 0.472728
0.527744 0.904847 0.467999
0.786105 0.904847 0.467999
0.957491 0.903563 0.466715
1.000000 0.894446 0.478400
1.000000 0.894446 0.478400
0.000000 0.987627 0.478062
0.012480 1.000000 0.477041
0.103489 0.998333 0.474774
0.272047 0.994222 0.470663
0.525679 0.989493 0.465934
0.784041 0.989493 0.465934
0.956710 0.989493 0.465934
1.000000 0.977027 0.478400
1.000000 0.977027 0.478400
0.010600 1.000000 0.478400
0.035453 1.000000 0.478400
0.124794 1.000000 0.478400
0.289242 1.000000 0.478400
0.535300 1.000000 0.478400
0.781358 1.000000 0.478400
0.945806 1.000000 0.478400
1.000000 1.000000 0.478400
1.000000 1.000000 0.478400
0.000000 0.020010 0.696089
0.019339 0.013613 0.701876
0.113147 0.013613 0.701876
0.285816 0.013613 0.701876
0.544178 0.013613 0.701876
0.800142 0.011216 0.699479
0.968701 0.007105 0.695368
1.000000 0.030000 0.685489
1.000000 0.030000 0.685489
0.000000 0.043704 0.696089
0.019202 0.037598 0.701740
0.112573 0.037160 0.701302
0.285242 0.037160 0.701302
0.543603 0.037160 0.701302
0.799568 0.034763 0.698905
0.968126 0.030652 0.694794
1.000000 0.052973 0.685489
1.000000 0.052973 0.685489
0.000000 0.128880 0.696089
0.019202 0.124308 0.701740
0.110777 0.122075 0.699506
0.283178 0.121806 0.699237
0.541539 0.121806 0.699237
0.797504 0.119409 0.696841
0.966062 0.115298 0.692730
1.000000 0.135554 0.685489
1.000000 0.135554 0.685489
0.000000 0.285659 0.696089
0.019202 0.283914 0.701740
0.110777 0.281680 0.699506
0.279377 0.277611 0.695437
0.537739 0.277611 0.695437
0.793703 0.275214 0.693040
0.962262 0.271103 0.688929
1.000000 0.287559 0.685489
1.000000 0.287559 0.685489
0.000000 0.520245 0.696089
0.019202 0.522726 0.701740
0.110777 0.520493 0.699506
0.279335 0.516382 0.695395
0.532053 0.510738 0.689751
0.788017 0.508341 0.687354
0.956576 0.504230 0.683243
1.000000 0.515000 0.685489
1.000000 0.515000 0.685489
0.000000 0.753041 0.694439
0.017778 0.760116 0.700316
0.109353 0.757882 0.698082
0.277911 0.753771 0.693971
0.530121 0.747620 0.687820
0.783755 0.742892 0.683092
0.952313 0.738781 0.678981
1.000000 0.742441 0.685489
1.000000 0.742441 0.685489
0.000000 0.905046 0.691077
0.013978 0.915920 0.696516
0.105553 0.913687 0.694282
0.274111 0.909576 0.690171
0.526321 0.903424 0.684020
0.780928 0.899670 0.680265
0.952313 0.898386 0.678981
1.000000 0.894446 0.685489
1.000000 0.894446 0.685489
0.000000 0.987627 0.689693
0.012480 1.000000 0.694235
0.103489 0.998333 0.692218
0.272047 0.994222 0.688106
0.524257 0.988071 0.681955
0.778864 0.984316 0.678200
0.951533 0.984316 0.678200
1.000000 0.977027 0.685489
1.000000 0.977027 0.685489
0.010600 1.000000 0.685489
0.035453 1.000000 0.685489
0.124794 1.000000 0.685489
0.289242 1.000000 0.685489
0.535300 1.000000 0.685489
0.781358 1.000000 0.685489
0.945805 1.000000 0.685489
1.000000 1.000000 0.685489
1.000000 1.000000 0.685489
0.000000 0.019906 0.834491
0.015878 0.010153 0.843738
0.109687 0.010153 0.843738
0.282356 0.010153 0.843738
0.540718 0.010153 0.843738
0.799079 0.010153 0.843738
0.968701 0.007105 0.840691
1.000000 0.030000 0.823892
1.000000 0.030000 0.823892
0.000000 0.043477 0.834491
0.015742 0.034138 0.843602
0.109113 0.033700 0.843164
0.281782 0.033700 0.843164
0.540143 0.033700 0.843164
0.798505 0.033700 0.843164
0.968126 0.030652 0.840117
1.000000 0.052973 0.823892
1.000000 0.052973 0.823892
0.000000 0.128212 0.834491
0.015742 0.120848 0.843602
0.107317 0.118615 0.841369
0.279718 0.118346 0.841100
0.538079 0.118346 0.841100
0.796440 0.118346 0.841100
0.966062 0.115298 0.838052
1.000000 0.135554 0.823892
1.000000 0.135554 0.823892
0.000000 0.284178 0.834491
0.015742 0.280453 0.843602
0.107317 0.278220 0.841369
0.275917 0.274151 0.837299
0.534279 0.274151 0.837299
0.792640 0.274151 0.837299
0.962262 0.271103 0.834252
1.000000 0.287559 0.823892
1.000000 0.287559 0.823892
0.000000 0.517548 0.834491
0.015742 0.519267 0.843602
0.107317 0.517033 0.841369
0.275875 0.512922 0.837257
0.528593 0.507278 0.831614
0.786954 0.507278 0.831614
0.956576 0.504230 0.828566
1.000000 0.515000 0.823891
1.000000 0.515000 0.823891
0.000000 0.750918 0.834491
0.015742 0.758080 0.843602
0.107317 0.755846 0.841369
0.275875 0.751735 0.837257
0.528085 0.745583 0.831106
0.781268 0.740405 0.825927
0.950890 0.737357 0.822880
1.000000 0.742441 0.823891
1.000000 0.742441 0.823891
0.000000 0.905046 0.832799
0.013978 0.915920 0.841838
0.105553 0.913687 0.839605
0.274111 0.909576 0.835494
0.526321 0.903424 0.829342
0.778531 0.897273 0.823191
0.948853 0.894926 0.820843
1.000000 0.894446 0.823891
1.000000 0.894446 0.823891
0.000000 0.987627 0.831132
0.012480 1.000000 0.839391
0.103489 0.998333 0.837540
0.272047 0.994222 0.833429
0.524257 0.988071 0.827278
0.776467 0.981919 0.821126
0.948073 0.980856 0.820063
1.000000 0.977027 0.823891
1.000000 0.977027 0.823891
0.010600 1.000000 0.823891
0.035453 1.000000 0.823891
0.124794 1.000000 0.823891
0.289242 1.000000 0.823891
0.535300 1.000000 0.823891
0.781358 1.000000 0.823891
0.945805 1.000000 0.823891
1.000000 1.000000 0.823891
1.000000 1.000000 0.823891
0.000000 0.019863 0.909683
0.013998 0.008273 0.920810
0.107807 0.008273 0.920810
0.280476 0.008273 0.920810
0.538838 0.008273 0.920810
0.797199 0.008273 0.920810
0.968701 0.007105 0.919642
1.000000 0.030000 0.899083
1.000000 0.030000 0.899083
0.000000 0.043384 0.909683
0.013862 0.032258 0.920674
0.107232 0.031820 0.920236
0.279902 0.031820 0.920236
0.538263 0.031820 0.920236
0.796625 0.031820 0.920236
0.968126 0.030652 0.919068
1.000000 0.052973 0.899083
1.000000 0.052973 0.899083
0.000000 0.127936 0.909683
0.013862 0.118969 0.920674
0.105437 0.116735 0.918440
0.277837 0.116466 0.918171
0.536199 0.116466 0.918171
0.794560 0.116466 0.918171
0.966062 0.115298 0.917003
1.000000 0.135554 0.899084
1.000000 0.135554 0.899084
0.000000 0.283568 0.909683
0.013862 0.278573 0.920674
0.105437 0.276340 0.918440
0.274037 0.272271 0.914371
0.532399 0.272271 0.914371
0.790761 0.272271 0.914371
0.962262 0.271103 0.913203
1.000000 0.287559 0.899083
1.000000 0.287559 0.899083
0.000000 0.516435 0.909683
0.013862 0.517387 0.920674
0.105437 0.515153 0.918440
0.273995 0.511042 0.914329
0.526713 0.505398 0.908685
0.785074 0.505398 0.908685
0.956576 0.504230 0.907517
1.000000 0.515000 0.899083
1.000000 0.515000 0.899083
0.000000 0.749304 0.909683
0.013862 0.756200 0.920674
0.105437 0.753966 0.918440
0.273995 0.749855 0.914329
0.526205 0.743704 0.908178
0.779388 0.738525 0.902999
0.950890 0.737357 0.901831
1.000000 0.742441 0.899083
1.000000 0.742441 0.899083
0.000000 0.904935 0.909683
0.013862 0.915805 0.920674
0.105437 0.913571 0.918440
0.273995 0.909460 0.914329
0.526205 0.903309 0.908178
0.778415 0.897157 0.902026
0.947090 0.893162 0.898031
1.000000 0.894446 0.899083
1.000000 0.894446 0.899083
0.000000 0.987627 0.907973
0.012480 1.000000 0.918252
0.103489 0.998333 0.916492
0.272047 0.994222 0.912380
0.524257 0.988071 0.906229
0.776467 0.981919 0.900078
0.946193 0.978976 0.897135
1.000000 0.977027 0.899083
1.000000 0.977027 0.899083
0.010600 1.000000 0.899083
0.035453 1.000000 0.899083
0.124794 1.000000 0.899083
0.289242 1.000000 0.899083
0.535300 1.000000 0.899083
0.781358 1.000000 0.899083
0.945806 1.000000 0.899083
1.000000 1.000000 0.899083
1.000000 1.000000 0.899083
0.000000 0.019852 0.930600
0.013476 0.007750 0.942250
0.107284 0.007750 0.942250
0.279954 0.007750 0.942250
0.538315 0.007750 0.942250
0.796676 0.007750 0.942250
0.968701 0.007105 0.941605
1.000000 0.030000 0.920000
1.000000 0.030000 0.920000
0.000000 0.043361 0.930600
0.013339 0.031735 0.942114
0.106710 0.031297 0.941676
0.279379 0.031297 0.941676
0.537741 0.031297 0.941676
0.796102 0.031297 0.941676
0.968126 0.030652 0.941030
1.000000 0.052973 0.920000
1.000000 0.052973 0.920000
0.000000 0.127867 0.930600
0.013339 0.118446 0.942114
0.104914 0.116212 0.939880
0.277314 0.115943 0.939611
0.535676 0.115943 0.939611
0.794037 0.115943 0.939611
0.966062 0.115298 0.938966
1.000000 0.135554 0.920000
1.000000 0.135554 0.920000
0.000000 0.283415 0.930600
0.013339 0.278051 0.942114
0.104914 0.275817 0.939880
0.273515 0.271748 0.935811
0.531876 0.271748 0.935811
0.790238 0.271748 0.935811
0.962262 0.271103 0.935166
1.000000 0.287559 0.920000
1.000000 0.287559 0.920000
0.000000 0.516159 0.930600
0.013339 0.516864 0.942114
0.104914 0.514630 0.939880
0.273473 0.510519 0.935769
0.526190 0.504875 0.930125
0.784552 0.504875 0.930125
0.956576 0.504230 0.929480
1.000000 0.515000 0.920000
1.000000 0.515000 0.920000
0.000000 0.748902 0.930600
0.013339 0.755677 0.942114
0.104914 0.753443 0.939880
0.273473 0.749332 0.935769
0.525682 0.743181 0.929618
0.778865 0.738002 0.924439
0.950890 0.737357 0.923794
1.000000 0.742441 0.920000
1.000000 0.742441 0.920000
0.000000 0.904450 0.930600
0.013339 0.915282 0.942114
0.104914 0.913048 0.939880
0.273473 0.908937 0.935769
0.525682 0.902786 0.929618
0.777892 0.896634 0.923466
0.947090 0.893162 0.919994
1.000000 0.894446 0.920000
1.000000 0.894446 0.920000
0.000000 0.987627 0.929349
0.012480 1.000000 0.940190
0.103489 0.998333 0.938454
0.272047 0.994222 0.934343
0.524257 0.988071 0.928192
0.776467 0.981919 0.922040
0.945670 0.978453 0.918574
1.000000 0.977027 0.920000
1.000000 0.977027 0.920000
0.010600 1.000000 0.920000
0.035453 1.000000 0.920000
0.124794 1.000000 0.920000
0.289242 1.000000 0.920000
0.535300 1.000000 0.920000
0.781358 1.000000 0.920000
0.945806 1.000000 0.920000
1.000000 1.000000 0.920000
1.000000 1.000000 0.920000
