crates/agx-e2e/fixtures/looks/luts/blade_runner.cube
TITLE "blade_runner"
LUT_3D_SIZE 33
DOMAIN_MIN 0.0 0.0 0.0
DOMAIN_MAX 1.0 1.0 1.0
0.009945 0.030315 0.037455
0.011152 0.030286 0.037426
0.015489 0.030180 0.037320
0.023473 0.029985 0.037125
0.035556 0.029830 0.036970
0.051735 0.029470 0.036610
0.072274 0.028969 0.036109
0.097369 0.028357 0.035497
0.127164 0.027630 0.034770
0.161787 0.026786 0.033926
0.201352 0.025821 0.032961
0.245964 0.024733 0.031873
0.295723 0.023519 0.030659
0.350716 0.022178 0.029318
0.411030 0.020707 0.027847
0.476744 0.019104 0.026244
0.547932 0.017367 0.024507
0.619121 0.015631 0.022771
0.684835 0.014028 0.021169
0.745149 0.012557 0.019697
0.800142 0.011216 0.018356
0.849900 0.010002 0.017143
0.894513 0.008914 0.016055
0.934078 0.007949 0.015090
0.968701 0.007105 0.014245
0.998496 0.006378 0.013519
1.000000 0.029357 0.036166
1.000000 0.030000 0.036800
1.000000 0.030000 0.036800
1.000000 0.030000 0.036800
1.000000 0.030000 0.036800
1.000000 0.030000 0.036800
1.000000 0.030000 0.036800
0.009945 0.031458 0.037455
0.011152 0.031428 0.037426
0.015489 0.031322 0.037320
0.023473 0.031128 0.037125
0.035528 0.030945 0.036943
0.051708 0.030585 0.036583
0.072247 0.030084 0.036082
0.097342 0.029472 0.035470
0.127137 0.028745 0.034743
0.161759 0.027901 0.033899
0.201324 0.026936 0.032933
0.245937 0.025848 0.031845
0.295695 0.024634 0.030632
0.350689 0.023293 0.029290
0.411003 0.021822 0.027819
0.476717 0.020219 0.026217
0.547905 0.018483 0.024480
0.619094 0.016747 0.022744
0.684807 0.015144 0.021141
0.745121 0.013673 0.019670
0.800115 0.012331 0.018329
0.849873 0.011118 0.017116
0.894486 0.010030 0.016027
0.934051 0.009065 0.015062
0.968673 0.008220 0.014218
0.998468 0.007494 0.013491
1.000000 0.030445 0.036165
1.000000 0.031088 0.036800
1.000000 0.031088 0.036800
1.000000 0.031088 0.036800
1.000000 0.031088 0.036800
1.000000 0.031088 0.036800
1.000000 0.031088 0.036800
0.009945 0.035565 0.037455
0.011152 0.035535 0.037426
0.015489 0.035429 0.037320
0.023473 0.035235 0.037125
0.035431 0.034955 0.036845
0.051610 0.034595 0.036485
0.072149 0.034094 0.035984
0.097244 0.033482 0.035372
0.127039 0.032755 0.034645
0.161662 0.031910 0.033801
0.201227 0.030945 0.032836
0.245839 0.029857 0.031748
0.295598 0.028644 0.030534
0.350591 0.027302 0.029193
0.410905 0.025831 0.027722
0.476619 0.024229 0.026119
0.547807 0.022492 0.024382
0.618996 0.020756 0.022647
0.684710 0.019153 0.021044
0.745024 0.017682 0.019572
0.800017 0.016341 0.018232
0.849775 0.015127 0.017017
0.894388 0.014039 0.015930
0.933953 0.013074 0.014965
0.968576 0.012230 0.014120
0.998371 0.011503 0.013394
1.000000 0.034357 0.036160
1.000000 0.035000 0.036800
1.000000 0.035000 0.036800
1.000000 0.035000 0.036800
1.000000 0.035000 0.036800
1.000000 0.035000 0.036800
1.000000 0.035000 0.036800
0.009810 0.042990 0.037320
0.011017 0.042960 0.037291
0.015354 0.042854 0.037185
0.023338 0.042660 0.036990
0.035284 0.042368 0.036699
0.051565 0.042109 0.036440
0.072104 0.041608 0.035939
0.097199 0.040996 0.035327
0.126994 0.040270 0.034600
0.161617 0.039425 0.033756
0.201182 0.038460 0.032791
0.245794 0.037372 0.031703
0.295553 0.036159 0.030489
0.350546 0.034817 0.029148
0.410860 0.033346 0.027677
0.476574 0.031743 0.026074
0.547762 0.030007 0.024338
0.618951 0.028271 0.022601
0.684665 0.026668 0.020998
0.744979 0.025197 0.019527
0.799972 0.023856 0.018186
0.849730 0.022642 0.016972
0.894343 0.021554 0.015884
0.933908 0.020589 0.014919
0.968531 0.019744 0.014075
0.998326 0.019018 0.013348
1.000000 0.041564 0.036157
1.000000 0.042200 0.036800
1.000000 0.042200 0.036800
1.000000 0.042200 0.036800
1.000000 0.042200 0.036800
1.000000 0.042200 0.036800
1.000000 0.042200 0.036800
0.009541 0.054032 0.037051
0.010747 0.054002 0.037021
0.015085 0.053897 0.036915
0.023069 0.053702 0.036721
0.035015 0.053411 0.036429
0.051521 0.053377 0.036396
0.072104 0.052920 0.035939
0.097199 0.052308 0.035327
0.126994 0.051581 0.034600
0.161617 0.050737 0.033756
0.201182 0.049772 0.032791
0.245794 0.048684 0.031703
0.295553 0.047470 0.030489
0.350546 0.046129 0.029148
0.410860 0.044658 0.027677
0.476574 0.043055 0.026074
0.547762 0.041319 0.024338
0.618951 0.039582 0.022601
0.684665 0.037980 0.020998
0.744979 0.036509 0.019527
0.799972 0.035167 0.018186
0.849730 0.033954 0.016972
0.894343 0.032866 0.015884
0.933908 0.031901 0.014919
0.968531 0.031056 0.014075
0.998326 0.030329 0.013348
1.000000 0.052351 0.036157
1.000000 0.052973 0.036800
1.000000 0.052973 0.036800
1.000000 0.052973 0.036800
1.000000 0.052973 0.036800
1.000000 0.052973 0.036800
1.000000 0.052973 0.036800
0.009177 0.068956 0.036687
0.010383 0.068927 0.036657
0.014721 0.068821 0.036551
0.022705 0.068626 0.036357
0.034651 0.068335 0.036065
0.051157 0.068301 0.036032
0.072104 0.068208 0.035939
0.097199 0.067596 0.035327
0.126994 0.066870 0.034600
0.161617 0.066025 0.033756
0.201182 0.065060 0.032791
0.245794 0.063972 0.031703
0.295553 0.062758 0.030489
0.350546 0.061417 0.029148
0.410860 0.059946 0.027677
0.476574 0.058343 0.026074
0.547762 0.056607 0.024338
0.618951 0.054871 0.022601
0.684665 0.053268 0.020998
0.744979 0.051797 0.019527
0.799972 0.050456 0.018186
0.849730 0.049242 0.016972
0.894343 0.048154 0.015884
0.933908 0.047189 0.014919
0.968531 0.046344 0.014075
0.998326 0.045618 0.013348
1.000000 0.066931 0.036157
1.000000 0.067533 0.036800
1.000000 0.067533 0.036800
1.000000 0.067533 0.036800
1.000000 0.067533 0.036800
1.000000 0.067533 0.036800
1.000000 0.067533 0.036800
0.008714 0.087941 0.036224
0.009920 0.087911 0.036194
0.014258 0.087806 0.036088
0.022242 0.087611 0.035894
0.034188 0.087320 0.035602
0.050694 0.087286 0.035569
0.071734 0.087286 0.035569
0.097199 0.087044 0.035327
0.126994 0.086317 0.034600
0.161617 0.085473 0.033756
0.201182 0.084508 0.032791
0.245794 0.083420 0.031703
0.295553 0.082206 0.030489
0.350546 0.080865 0.029148
0.410860 0.079394 0.027677
0.476574 0.077791 0.026074
0.547762 0.076055 0.024338
0.618951 0.074318 0.022601
0.684665 0.072716 0.020998
0.744979 0.071245 0.019527
0.799972 0.069903 0.018186
0.849730 0.068690 0.016972
0.894343 0.067602 0.015884
0.933908 0.066637 0.014919
0.968531 0.065792 0.014075
0.998326 0.065065 0.013348
1.000000 0.085477 0.036157
1.000000 0.086055 0.036800
1.000000 0.086055 0.036800
1.000000 0.086055 0.036800
1.000000 0.086055 0.036800
1.000000 0.086055 0.036800
1.000000 0.086055 0.036800
0.008148 0.111137 0.035658
0.009354 0.111108 0.035628
0.013692 0.111002 0.035523
0.021676 0.110807 0.035328
0.033622 0.110516 0.035037
0.050128 0.110482 0.035003
0.071168 0.110482 0.035003
0.096875 0.110482 0.035003
0.126994 0.110080 0.034600
0.161617 0.109235 0.033756
0.201182 0.108270 0.032791
0.245794 0.107182 0.031703
0.295553 0.105968 0.030489
0.350546 0.104627 0.029148
0.410860 0.103156 0.027677
0.476574 0.101553 0.026074
0.547762 0.099817 0.024338
0.618951 0.098081 0.022601
0.684665 0.096478 0.020998
0.744979 0.095007 0.019527
0.799972 0.093666 0.018186
0.849730 0.092452 0.016972
0.894343 0.091364 0.015884
0.933908 0.090399 0.014919
0.968531 0.089554 0.014075
0.998326 0.088828 0.013348
1.000000 0.108138 0.036157
1.000000 0.108685 0.036800
1.000000 0.108685 0.036800
1.000000 0.108685 0.036800
1.000000 0.108685 0.036800
1.000000 0.108685 0.036800
1.000000 0.108685 0.036800
0.007476 0.138678 0.034986
0.008683 0.138649 0.034957
0.013020 0.138543 0.034851
0.021004 0.138348 0.034656
0.032950 0.138057 0.034365
0.049457 0.138023 0.034331
0.070496 0.138023 0.034331
0.096204 0.138023 0.034331
0.126725 0.138023 0.034331
0.161617 0.137448 0.033756
0.201182 0.136483 0.032791
0.245794 0.135395 0.031703
0.295553 0.134181 0.030489
0.350546 0.132840 0.029148
0.410860 0.131369 0.027677
0.476574 0.129766 0.026074
0.547762 0.128029 0.024338
0.618951 0.126293 0.022601
0.684665 0.124690 0.020998
0.744979 0.123219 0.019527
0.799972 0.121878 0.018186
0.849730 0.120664 0.016972
0.894343 0.119576 0.015884
0.933908 0.118611 0.014919
0.968531 0.117767 0.014075
0.998326 0.117040 0.013348
1.000000 0.135043 0.036157
1.000000 0.135554 0.036800
1.000000 0.135554 0.036800
1.000000 0.135554 0.036800
1.000000 0.135554 0.036800
1.000000 0.135554 0.036800
1.000000 0.135554 0.036800
0.006696 0.170681 0.034206
0.007902 0.170651 0.034176
0.012240 0.170546 0.034070
0.020224 0.170351 0.033876
0.032170 0.170060 0.033584
0.048676 0.170026 0.033551
0.069716 0.170026 0.033551
0.095423 0.170026 0.033551
0.125945 0.170026 0.033551
0.161412 0.170026 0.033551
0.201182 0.169266 0.032791
0.245794 0.168178 0.031703
0.295553 0.166964 0.030489
0.350546 0.165623 0.029148
0.410860 0.164152 0.027677
0.476574 0.162549 0.026074
0.547762 0.160813 0.024338
0.618951 0.159076 0.022601
0.684665 0.157474 0.020998
0.744979 0.156003 0.019527
0.799972 0.154661 0.018186
0.849730 0.153448 0.016972
0.894343 0.152360 0.015884
0.933908 0.151395 0.014919
0.968531 0.150550 0.014075
0.998326 0.149823 0.013348
1.000000 0.166307 0.036157
1.000000 0.166777 0.036800
1.000000 0.166777 0.036800
1.000000 0.166777 0.036800
1.000000 0.166777 0.036800
1.000000 0.166777 0.036800
1.000000 0.166777 0.036800
0.005804 0.207252 0.033314
0.007010 0.207223 0.033284
0.011348 0.207117 0.033178
0.019332 0.206922 0.032984
0.031278 0.206631 0.032692
0.047784 0.206597 0.032659
0.068824 0.206597 0.032659
0.094531 0.206597 0.032659
0.125053 0.206597 0.032659
0.160520 0.206597 0.032659
0.201049 0.206597 0.032659
0.245794 0.205641 0.031703
0.295553 0.204428 0.030489
0.350546 0.203086 0.029148
0.410860 0.201615 0.027677
0.476574 0.200012 0.026074
0.547762 0.198276 0.024338
0.618951 0.196540 0.022601
0.684665 0.194937 0.020998
0.744979 0.193466 0.019527
0.799972 0.192125 0.018186
0.849730 0.190911 0.016972
0.894343 0.189823 0.015884
0.933908 0.188858 0.014919
0.968531 0.188013 0.014075
0.998326 0.187287 0.013348
1.000000 0.202034 0.036157
1.000000 0.202456 0.036800
1.000000 0.202456 0.036800
1.000000 0.202456 0.036800
1.000000 0.202456 0.036800
1.000000 0.202456 0.036800
1.000000 0.202456 0.036800
0.004798 0.248490 0.032308
0.006004 0.248460 0.032278
0.010342 0.248354 0.032173
0.018326 0.248160 0.031978
0.030272 0.247868 0.031686
0.046778 0.247835 0.031653
0.067818 0.247835 0.031653
0.093525 0.247835 0.031653
0.124047 0.247835 0.031653
0.159514 0.247835 0.031653
0.200044 0.247835 0.031653
0.245745 0.247835 0.031653
0.295553 0.246671 0.030489
0.350546 0.245329 0.029148
0.410860 0.243858 0.027677
0.476574 0.242256 0.026074
0.547762 0.240519 0.024338
0.618951 0.238783 0.022601
0.684665 0.237180 0.020998
0.744979 0.235709 0.019527
0.799972 0.234368 0.018186
0.849730 0.233154 0.016972
0.894343 0.232066 0.015884
0.933908 0.231101 0.014919
0.968531 0.230257 0.014075
0.998326 0.229530 0.013348
1.000000 0.242319 0.036157
1.000000 0.242687 0.036800
1.000000 0.242687 0.036800
1.000000 0.242687 0.036800
1.000000 0.242687 0.036800
1.000000 0.242687 0.036800
1.000000 0.242687 0.036800
0.003676 0.294483 0.031186
0.004883 0.294453 0.031157
0.009220 0.294348 0.031051
0.017204 0.294153 0.030856
0.029150 0.293861 0.030565
0.045656 0.293828 0.030531
0.066696 0.293828 0.030531
0.092403 0.293828 0.030531
0.122925 0.293828 0.030531
0.158392 0.293828 0.030531
0.198922 0.293828 0.030531
0.244623 0.293828 0.030531
0.295553 0.293786 0.030489
0.350546 0.292444 0.029148
0.410860 0.290973 0.027677
0.476574 0.289371 0.026074
0.547762 0.287634 0.024338
0.618951 0.285898 0.022601
0.684665 0.284295 0.020998
0.744979 0.282824 0.019527
0.799972 0.281483 0.018186
0.849730 0.280269 0.016972
0.894343 0.279181 0.015884
0.933908 0.278216 0.014919
0.968531 0.277372 0.014075
0.998326 0.276645 0.013348
1.000000 0.287251 0.036157
1.000000 0.287559 0.036800
1.000000 0.287559 0.036800
1.000000 0.287559 0.036800
1.000000 0.287559 0.036800
1.000000 0.287559 0.036800
1.000000 0.287559 0.036800
0.002436 0.345316 0.029946
0.003643 0.345286 0.029917
0.007980 0.345180 0.029811
0.015964 0.344986 0.029616
0.027911 0.344694 0.029325
0.044417 0.344661 0.029291
0.065456 0.344661 0.029291
0.091164 0.344661 0.029291
0.121685 0.344661 0.029291
0.157152 0.344661 0.029291
0.197682 0.344661 0.029291
0.243383 0.344661 0.029291
0.294355 0.344661 0.029291
0.350546 0.344517 0.029148
0.410860 0.343046 0.027677
0.476574 0.341443 0.026074
0.547762 0.339707 0.024338
0.618951 0.337971 0.022601
0.684665 0.336368 0.020998
0.744979 0.334897 0.019527
0.799972 0.333556 0.018186
0.849730 0.332342 0.016972
0.894343 0.331254 0.015884
0.933908 0.330289 0.014919
0.968531 0.329444 0.014075
0.998326 0.328718 0.013348
1.000000 0.336910 0.036157
1.000000 0.337152 0.036800
1.000000 0.337152 0.036800
1.000000 0.337152 0.036800
1.000000 0.337152 0.036800
1.000000 0.337152 0.036800
1.000000 0.337152 0.036800
0.001076 0.401066 0.028586
0.002283 0.401037 0.028557
0.006621 0.400931 0.028451
0.014605 0.400736 0.028256
0.026551 0.400445 0.027965
0.043057 0.400411 0.027931
0.064097 0.400411 0.027931
0.089804 0.400411 0.027931
0.120326 0.400411 0.027931
0.155792 0.400411 0.027931
0.196322 0.400411 0.027931
0.242023 0.400411 0.027931
0.292995 0.400411 0.027931
0.349330 0.400411 0.027931
0.410860 0.400156 0.027677
0.476574 0.398553 0.026074
0.547762 0.396817 0.024338
0.618951 0.395081 0.022601
0.684665 0.393478 0.020998
0.744979 0.392007 0.019527
0.799972 0.390666 0.018186
0.849730 0.389452 0.016972
0.894343 0.388364 0.015884
0.933908 0.387399 0.014919
0.968531 0.386555 0.014075
0.998326 0.385828 0.013348
1.000000 0.391374 0.036157
1.000000 0.391543 0.036800
1.000000 0.391543 0.036800
1.000000 0.391543 0.036800
1.000000 0.391543 0.036800
1.000000 0.391543 0.036800
1.000000 0.391543 0.036800
0.000000 0.461403 0.027462
0.000802 0.461778 0.027076
0.005139 0.461673 0.026970
0.013123 0.461478 0.026775
0.025069 0.461186 0.026484
0.041575 0.461153 0.026450
0.062615 0.461153 0.026450
0.088322 0.461153 0.026450
0.118844 0.461153 0.026450
0.154311 0.461153 0.026450
0.194841 0.461153 0.026450
0.240542 0.461153 0.026450
0.291513 0.461153 0.026450
0.347849 0.461153 0.026450
0.409634 0.461153 0.026450
0.476574 0.460777 0.026074
0.547762 0.459040 0.024338
0.618951 0.457304 0.022601
0.684665 0.455701 0.020998
0.744979 0.454230 0.019527
0.799972 0.452889 0.018186
0.849730 0.451675 0.016972
0.894343 0.450587 0.015884
0.933908 0.449622 0.014919
0.968531 0.448778 0.014075
0.998326 0.448051 0.013348
1.000000 0.450713 0.036157
1.000000 0.450803 0.036800
1.000000 0.450803 0.036800
1.000000 0.450803 0.036800
1.000000 0.450803 0.036800
1.000000 0.450803 0.036800
1.000000 0.450803 0.036800
0.000000 0.525600 0.027301
0.000000 0.526777 0.026194
0.003534 0.527475 0.025365
0.011518 0.527280 0.025170
0.023464 0.526989 0.024879
0.039970 0.526955 0.024845
0.061010 0.526955 0.024845
0.086718 0.526955 0.024845
0.117239 0.526955 0.024845
0.152706 0.526955 0.024845
0.193236 0.526955 0.024845
0.238937 0.526955 0.024845
0.289909 0.526955 0.024845
0.346244 0.526955 0.024845
0.408029 0.526955 0.024845
0.475345 0.526955 0.024845
0.547762 0.526447 0.024338
0.618951 0.524711 0.022601
0.684665 0.523108 0.020998
0.744979 0.521637 0.019527
0.799972 0.520296 0.018186
0.849730 0.519082 0.016972
0.894343 0.517994 0.015884
0.933908 0.517029 0.014919
0.968531 0.516185 0.014075
0.998326 0.515458 0.013348
1.000000 0.514996 0.036157
1.000000 0.515000 0.036800
1.000000 0.515000 0.036800
1.000000 0.515000 0.036800
1.000000 0.515000 0.036800
1.000000 0.515000 0.036800
1.000000 0.515000 0.036800
0.000000 0.589797 0.027177
0.000000 0.590974 0.026062
0.001929 0.593277 0.023760
0.009913 0.593082 0.023565
0.021859 0.592791 0.023274
0.038366 0.592757 0.023240
0.059405 0.592757 0.023240
0.085112 0.592757 0.023240
0.115634 0.592757 0.023240
0.151101 0.592757 0.023240
0.191631 0.592757 0.023240
0.237332 0.592757 0.023240
0.288304 0.592757 0.023240
0.344639 0.592757 0.023240
0.406424 0.592757 0.023240
0.473740 0.592757 0.023240
0.546665 0.592757 0.023240
0.618951 0.592118 0.022601
0.684665 0.590516 0.020998
0.744979 0.589044 0.019527
0.799972 0.587703 0.018186
0.849730 0.586490 0.016972
0.894343 0.585401 0.015884
0.933908 0.584436 0.014919
0.968531 0.583592 0.014075
0.998326 0.582865 0.013348
1.000000 0.579279 0.036157
1.000000 0.579197 0.036800
1.000000 0.579197 0.036800
1.000000 0.579197 0.036800
1.000000 0.579197 0.036800
1.000000 0.579197 0.036800
1.000000 0.579197 0.036800
0.000000 0.649057 0.027085
0.000000 0.650235 0.025963
0.000448 0.654019 0.022278
0.008432 0.653824 0.022084
0.020378 0.653533 0.021792
0.036884 0.653499 0.021759
0.057924 0.653499 0.021759
0.083631 0.653499 0.021759
0.114153 0.653499 0.021759
0.149620 0.653499 0.021759
0.190150 0.653499 0.021759
0.235850 0.653499 0.021759
0.286822 0.653499 0.021759
0.343157 0.653499 0.021759
0.404942 0.653499 0.021759
0.472259 0.653499 0.021759
0.545184 0.653499 0.021759
0.618108 0.653499 0.021759
0.684665 0.652739 0.020998
0.744979 0.651268 0.019527
0.799972 0.649926 0.018186
0.849730 0.648713 0.016972
0.894343 0.647625 0.015884
0.933908 0.646660 0.014919
0.968531 0.645815 0.014075
0.998326 0.645088 0.013348
1.000000 0.638618 0.036157
1.000000 0.638457 0.036800
1.000000 0.638457 0.036800
1.000000 0.638457 0.036800
1.000000 0.638457 0.036800
1.000000 0.638457 0.036800
1.000000 0.638457 0.036800
0.000000 0.703448 0.027014
0.000000 0.704625 0.025888
0.000000 0.708857 0.021774
0.007072 0.709574 0.020724
0.019018 0.709283 0.020433
0.035524 0.709249 0.020399
0.056564 0.709249 0.020399
0.082271 0.709249 0.020399
0.112793 0.709249 0.020399
0.148260 0.709249 0.020399
0.188790 0.709249 0.020399
0.234491 0.709249 0.020399
0.285463 0.709249 0.020399
0.341797 0.709249 0.020399
0.403583 0.709249 0.020399
0.470899 0.709249 0.020399
0.543824 0.709249 0.020399
0.616749 0.709249 0.020399
0.684065 0.709249 0.020399
0.744979 0.708378 0.019527
0.799972 0.707037 0.018186
0.849730 0.705823 0.016972
0.894343 0.704735 0.015884
0.933908 0.703770 0.014919
0.968531 0.702925 0.014075
0.998326 0.702199 0.013348
1.000000 0.693082 0.036157
1.000000 0.692848 0.036800
1.000000 0.692848 0.036800
1.000000 0.692848 0.036800
1.000000 0.692848 0.036800
1.000000 0.692848 0.036800
1.000000 0.692848 0.036800
0.000000 0.753041 0.026959
0.000000 0.754218 0.025829
0.000000 0.758450 0.021707
0.005832 0.760407 0.019484
0.017778 0.760116 0.019193
0.034285 0.760082 0.019159
0.055324 0.760082 0.019159
0.081031 0.760082 0.019159
0.111553 0.760082 0.019159
0.147020 0.760082 0.019159
0.187550 0.760082 0.019159
0.233251 0.760082 0.019159
0.284223 0.760082 0.019159
0.340558 0.760082 0.019159
0.402343 0.760082 0.019159
0.469659 0.760082 0.019159
0.542584 0.760082 0.019159
0.615509 0.760082 0.019159
0.682825 0.760082 0.019159
0.744610 0.760082 0.019159
0.799972 0.759109 0.018186
0.849730 0.757896 0.016972
0.894343 0.756807 0.015884
0.933908 0.755842 0.014919
0.968531 0.754998 0.014075
0.998326 0.754271 0.013348
1.000000 0.742741 0.036157
1.000000 0.742441 0.036800
1.000000 0.742441 0.036800
1.000000 0.742441 0.036800
1.000000 0.742441 0.036800
1.000000 0.742441 0.036800
1.000000 0.742441 0.036800
0.000000 0.797913 0.026915
0.000000 0.799090 0.025783
0.000000 0.803322 0.021654
0.004710 0.806400 0.018362
0.016657 0.806109 0.018071
0.033163 0.806075 0.018037
0.054202 0.806075 0.018037
0.079910 0.806075 0.018037
0.110431 0.806075 0.018037
0.145898 0.806075 0.018037
0.186428 0.806075 0.018037
0.232129 0.806075 0.018037
0.283101 0.806075 0.018037
0.339436 0.806075 0.018037
0.401221 0.806075 0.018037
0.468537 0.806075 0.018037
0.541462 0.806075 0.018037
0.614387 0.806075 0.018037
0.681704 0.806075 0.018037
0.743489 0.806075 0.018037
0.799824 0.806075 0.018037
0.849730 0.805011 0.016972
0.894343 0.803923 0.015884
0.933908 0.802958 0.014919
0.968531 0.802113 0.014075
0.998326 0.801386 0.013348
1.000000 0.787672 0.036157
1.000000 0.787313 0.036800
1.000000 0.787313 0.036800
1.000000 0.787313 0.036800
1.000000 0.787313 0.036800
1.000000 0.787313 0.036800
1.000000 0.787313 0.036800
0.000000 0.838144 0.026880
0.000000 0.839321 0.025745
0.000000 0.843553 0.021611
0.003704 0.847638 0.017356
0.015651 0.847346 0.017065
0.032157 0.847313 0.017031
0.053196 0.847313 0.017031
0.078904 0.847313 0.017031
0.109426 0.847313 0.017031
0.144892 0.847313 0.017031
0.185422 0.847313 0.017031
0.231123 0.847313 0.017031
0.282095 0.847313 0.017031
0.338430 0.847313 0.017031
0.400215 0.847313 0.017031
0.467532 0.847313 0.017031
0.540457 0.847313 0.017031
0.613381 0.847313 0.017031
0.680698 0.847313 0.017031
0.742483 0.847313 0.017031
0.798818 0.847313 0.017031
0.849730 0.847254 0.016972
0.894343 0.846166 0.015884
0.933908 0.845201 0.014919
0.968531 0.844356 0.014075
0.998326 0.843630 0.013348
1.000000 0.827958 0.036157
1.000000 0.827544 0.036800
1.000000 0.827544 0.036800
1.000000 0.827544 0.036800
1.000000 0.827544 0.036800
1.000000 0.827544 0.036800
1.000000 0.827544 0.036800
0.000000 0.873824 0.026851
0.000000 0.875001 0.025715
0.000000 0.879233 0.021577
0.002813 0.884209 0.016464
0.014759 0.883918 0.016173
0.031265 0.883884 0.016139
0.052304 0.883884 0.016139
0.078012 0.883884 0.016139
0.108534 0.883884 0.016139
0.144001 0.883884 0.016139
0.184530 0.883884 0.016139
0.230231 0.883884 0.016139
0.281203 0.883884 0.016139
0.337538 0.883884 0.016139
0.399323 0.883884 0.016139
0.466640 0.883884 0.016139
0.539564 0.883884 0.016139
0.612489 0.883884 0.016139
0.679806 0.883884 0.016139
0.741591 0.883884 0.016139
0.797926 0.883884 0.016139
0.848898 0.883884 0.016139
0.894343 0.883629 0.015884
0.933908 0.882664 0.014919
0.968531 0.881820 0.014075
0.998326 0.881093 0.013348
1.000000 0.863685 0.036157
1.000000 0.863224 0.036800
1.000000 0.863224 0.036800
1.000000 0.863224 0.036800
1.000000 0.863224 0.036800
1.000000 0.863224 0.036800
1.000000 0.863224 0.036800
0.000000 0.905046 0.026828
0.000000 0.906223 0.025691
0.000000 0.910455 0.021549
0.002032 0.916212 0.015684
0.013978 0.915920 0.015393
0.030484 0.915887 0.015359
0.051524 0.915887 0.015359
0.077231 0.915887 0.015359
0.107753 0.915887 0.015359
0.143220 0.915887 0.015359
0.183750 0.915887 0.015359
0.229451 0.915887 0.015359
0.280422 0.915887 0.015359
0.336757 0.915887 0.015359
0.398543 0.915887 0.015359
0.465859 0.915887 0.015359
0.538784 0.915887 0.015359
0.611709 0.915887 0.015359
0.679025 0.915887 0.015359
0.740810 0.915887 0.015359
0.797145 0.915887 0.015359
0.848117 0.915887 0.015359
0.893818 0.915887 0.015359
0.933908 0.915447 0.014919
0.968531 0.914603 0.014075
0.998326 0.913876 0.013348
1.000000 0.894949 0.036157
1.000000 0.894446 0.036800
1.000000 0.894446 0.036800
1.000000 0.894446 0.036800
1.000000 0.894446 0.036800
1.000000 0.894446 0.036800
1.000000 0.894446 0.036800
0.000000 0.931915 0.026810
0.000000 0.933092 0.025671
0.000000 0.937324 0.021526
0.001360 0.943753 0.015012
0.013306 0.943461 0.014721
0.029813 0.943428 0.014687
0.050852 0.943428 0.014687
0.076560 0.943428 0.014687
0.107082 0.943428 0.014687
0.142548 0.943428 0.014687
0.183078 0.943428 0.014687
0.228779 0.943428 0.014687
0.279751 0.943428 0.014687
0.336086 0.943428 0.014687
0.397871 0.943428 0.014687
0.465187 0.943428 0.014687
0.538112 0.943428 0.014687
0.611037 0.943428 0.014687
0.678353 0.943428 0.014687
0.740139 0.943428 0.014687
0.796474 0.943428 0.014687
0.847445 0.943428 0.014687
0.893146 0.943428 0.014687
0.933676 0.943428 0.014687
0.968531 0.942815 0.014075
0.998326 0.942089 0.013348
1.000000 0.921854 0.036157
1.000000 0.921315 0.036800
1.000000 0.921315 0.036800
1.000000 0.921315 0.036800
1.000000 0.921315 0.036800
1.000000 0.921315 0.036800
1.000000 0.921315 0.036800
0.000000 0.954545 0.026795
0.000000 0.955723 0.025655
0.000000 0.959955 0.021508
0.000795 0.966949 0.014446
0.012741 0.966658 0.014155
0.029247 0.966624 0.014121
0.050286 0.966624 0.014121
0.075994 0.966624 0.014121
0.106515 0.966624 0.014121
0.141982 0.966624 0.014121
0.182512 0.966624 0.014121
0.228213 0.966624 0.014121
0.279185 0.966624 0.014121
0.335520 0.966624 0.014121
0.397305 0.966624 0.014121
0.464622 0.966624 0.014121
0.537546 0.966624 0.014121
0.610471 0.966624 0.014121
0.677787 0.966624 0.014121
0.739573 0.966624 0.014121
0.795908 0.966624 0.014121
0.846880 0.966624 0.014121
0.892580 0.966624 0.014121
0.933110 0.966624 0.014121
0.968531 0.966578 0.014075
0.998326 0.965851 0.013348
1.000000 0.944514 0.036157
