crates/agx-e2e/fixtures/looks/luts/bw_high_contrast.cube
TITLE "bw_high_contrast"
LUT_3D_SIZE 5
DOMAIN_MIN 0.0 0.0 0.0
DOMAIN_MAX 1.0 1.0 1.0
0.000000 0.000000 0.000000
0.018400 0.018400 0.018400
0.119723 0.119723 0.119723
0.198100 0.198100 0.198100
0.212600 0.212600 0.212600
0.061898 0.061898 0.061898
0.080298 0.080298 0.080298
0.181621 0.181621 0.181621
0.259998 0.259998 0.259998
0.274498 0.274498 0.274498
0.402755 0.402755 0.402755
0.421155 0.421155 0.421155
0.522478 0.522478 0.522478
0.600855 0.600855 0.600855
0.615355 0.615355 0.615355
0.666421 0.666421 0.666421
0.684821 0.684821 0.684821
0.786144 0.786144 0.786144
0.864521 0.864521 0.864521
0.879021 0.879021 0.879021
0.715200 0.715200 0.715200
0.733600 0.733600 0.733600
0.834923 0.834923 0.834923
0.913300 0.913300 0.913300
0.927800 0.927800 0.927800
0.006249 0.006249 0.006249
0.024648 0.024648 0.024648
0.125971 0.125971 0.125971
0.204349 0.204349 0.204349
0.218849 0.218849 0.218849
0.068147 0.068147 0.068147
0.086547 0.086547 0.086547
0.187870 0.187870 0.187870
0.266247 0.266247 0.266247
0.280747 0.280747 0.280747
0.409004 0.409004 0.409004
0.427404 0.427404 0.427404
0.528727 0.528727 0.528727
0.607104 0.607104 0.607104
0.621604 0.621604 0.621604
0.672669 0.672669 0.672669
0.691069 0.691069 0.691069
0.792392 0.792392 0.792392
0.870769 0.870769 0.870769
0.885269 0.885269 0.885269
0.721449 0.721449 0.721449
0.739848 0.739848 0.739848
0.841171 0.841171 0.841171
0.919549 0.919549 0.919549
0.934049 0.934049 0.934049
0.040658 0.040658 0.040658
0.059058 0.059058 0.059058
0.160381 0.160381 0.160381
0.238758 0.238758 0.238758
0.253258 0.253258 0.253258
0.102557 0.102557 0.102557
0.120956 0.120956 0.120956
0.222279 0.222279 0.222279
0.300656 0.300656 0.300656
0.315157 0.315157 0.315157
0.443414 0.443414 0.443414
0.461813 0.461813 0.461813
0.563136 0.563136 0.563136
0.641513 0.641513 0.641513
0.656013 0.656013 0.656013
0.707079 0.707079 0.707079
0.725479 0.725479 0.725479
0.826802 0.826802 0.826802
0.905179 0.905179 0.905179
0.919679 0.919679 0.919679
0.755858 0.755858 0.755858
0.774258 0.774258 0.774258
0.875581 0.875581 0.875581
0.953958 0.953958 0.953958
0.968458 0.968458 0.968458
0.067276 0.067276 0.067276
0.085676 0.085676 0.085676
0.186998 0.186998 0.186998
0.265376 0.265376 0.265376
0.279876 0.279876 0.279876
0.129174 0.129174 0.129174
0.147574 0.147574 0.147574
0.248897 0.248897 0.248897
0.327274 0.327274 0.327274
0.341774 0.341774 0.341774
0.470031 0.470031 0.470031
0.488431 0.488431 0.488431
0.589754 0.589754 0.589754
0.668131 0.668131 0.668131
0.682631 0.682631 0.682631
0.733696 0.733696 0.733696
0.752096 0.752096 0.752096
0.853419 0.853419 0.853419
0.931796 0.931796 0.931796
0.946296 0.946296 0.946296
0.782476 0.782476 0.782476
0.800876 0.800876 0.800876
0.902198 0.902198 0.902198
0.980576 0.980576 0.980576
0.995076 0.995076 0.995076
0.072200 0.072200 0.072200
0.090600 0.090600 0.090600
0.191923 0.191923 0.191923
0.270300 0.270300 0.270300
0.284800 0.284800 0.284800
0.134098 0.134098 0.134098
0.152498 0.152498 0.152498
0.253821 0.253821 0.253821
0.332198 0.332198 0.332198
0.346698 0.346698 0.346698
0.474955 0.474955 0.474955
0.493355 0.493355 0.493355
0.594678 0.594678 0.594678
0.673055 0.673055 0.673055
0.687555 0.687555 0.687555
0.738621 0.738621 0.738621
0.757021 0.757021 0.757021
0.858344 0.858344 0.858344
0.936721 0.936721 0.936721
0.951221 0.951221 0.951221
0.787400 0.787400 0.787400
0.805800 0.805800 0.805800
0.907123 0.907123 0.907123
0.985500 0.985500 0.985500
1.000000 1.000000 1.000000
