crates/agx-e2e/fixtures/looks/luts/bw_high_contrast.cube
TITLE "bw_high_contrast"
LUT_3D_SIZE 9
DOMAIN_MIN 0.0 0.0 0.0
DOMAIN_MAX 1.0 1.0 1.0
0.000000 0.000000 0.000000
0.002649 0.002649 0.002649
0.018400 0.018400 0.018400
0.056604 0.056604 0.056604
0.119723 0.119723 0.119723
0.169066 0.169066 0.169066
0.198100 0.198100 0.198100
0.210483 0.210483 0.210483
0.212600 0.212600 0.212600
0.008911 0.008911 0.008911
0.011560 0.011560 0.011560
0.027311 0.027311 0.027311
0.065516 0.065516 0.065516
0.128634 0.128634 0.128634
0.177978 0.177978 0.177978
0.207011 0.207011 0.207011
0.219395 0.219395 0.219395
0.221511 0.221511 0.221511
0.061898 0.061898 0.061898
0.064547 0.064547 0.064547
0.080298 0.080298 0.080298
0.118502 0.118502 0.118502
0.181621 0.181621 0.181621
0.230965 0.230965 0.230965
0.259998 0.259998 0.259998
0.272381 0.272381 0.272381
0.274498 0.274498 0.274498
0.190420 0.190420 0.190420
0.193069 0.193069 0.193069
0.208820 0.208820 0.208820
0.247024 0.247024 0.247024
0.310143 0.310143 0.310143
0.359486 0.359486 0.359486
0.388520 0.388520 0.388520
0.400903 0.400903 0.400903
0.403020 0.403020 0.403020
0.402755 0.402755 0.402755
0.405404 0.405404 0.405404
0.421155 0.421155 0.421155
0.459359 0.459359 0.459359
0.522478 0.522478 0.522478
0.571822 0.571822 0.571822
0.600855 0.600855 0.600855
0.613238 0.613238 0.613238
0.615355 0.615355 0.615355
0.568750 0.568750 0.568750
0.571399 0.571399 0.571399
0.587150 0.587150 0.587150
0.625354 0.625354 0.625354
0.688473 0.688473 0.688473
0.737817 0.737817 0.737817
0.766850 0.766850 0.766850
0.779233 0.779233 0.779233
0.781350 0.781350 0.781350
0.666421 0.666421 0.666421
0.669070 0.669070 0.669070
0.684821 0.684821 0.684821
0.723025 0.723025 0.723025
0.786144 0.786144 0.786144
0.835487 0.835487 0.835487
0.864521 0.864521 0.864521
0.876904 0.876904 0.876904
0.879021 0.879021 0.879021
0.708079 0.708079 0.708079
0.710728 0.710728 0.710728
0.726479 0.726479 0.726479
0.764683 0.764683 0.764683
0.827801 0.827801 0.827801
0.877145 0.877145 0.877145
0.906179 0.906179 0.906179
0.918562 0.918562 0.918562
0.920679 0.920679 0.920679
0.715200 0.715200 0.715200
0.717849 0.717849 0.717849
0.733600 0.733600 0.733600
0.771804 0.771804 0.771804
0.834923 0.834923 0.834923
0.884266 0.884266 0.884266
0.913300 0.913300 0.913300
0.925683 0.925683 0.925683
0.927800 0.927800 0.927800
0.000900 0.000900 0.000900
0.003549 0.003549 0.003549
0.019299 0.019299 0.019299
0.057504 0.057504 0.057504
0.120622 0.120622 0.120622
0.169966 0.169966 0.169966
0.199000 0.199000 0.199000
0.211383 0.211383 0.211383
0.213500 0.213500 0.213500
0.009811 0.009811 0.009811
0.012460 0.012460 0.012460
0.028211 0.028211 0.028211
0.066415 0.066415 0.066415
0.129534 0.129534 0.129534
0.178878 0.178878 0.178878
0.207911 0.207911 0.207911
0.220294 0.220294 0.220294
0.222411 0.222411 0.222411
0.062798 0.062798 0.062798
0.065447 0.065447 0.065447
0.081198 0.081198 0.081198
0.119402 0.119402 0.119402
0.182521 0.182521 0.182521
0.231864 0.231864 0.231864
0.260898 0.260898 0.260898
0.273281 0.273281 0.273281
0.275398 0.275398 0.275398
0.191319 0.191319 0.191319
0.193968 0.193968 0.193968
0.209719 0.209719 0.209719
0.247923 0.247923 0.247923
0.311042 0.311042 0.311042
0.360386 0.360386 0.360386
0.389419 0.389419 0.389419
0.401802 0.401802 0.401802
0.403919 0.403919 0.403919
0.403655 0.403655 0.403655
0.406304 0.406304 0.406304
0.422054 0.422054 0.422054
0.460259 0.460259 0.460259
0.523377 0.523377 0.523377
0.572721 0.572721 0.572721
0.601755 0.601755 0.601755
0.614138 0.614138 0.614138
0.616255 0.616255 0.616255
0.569650 0.569650 0.569650
0.572299 0.572299 0.572299
0.588050 0.588050 0.588050
0.626254 0.626254 0.626254
0.689373 0.689373 0.689373
0.738716 0.738716 0.738716
0.767750 0.767750 0.767750
0.780133 0.780133 0.780133
0.782250 0.782250 0.782250
0.667320 0.667320 0.667320
0.669969 0.669969 0.669969
0.685720 0.685720 0.685720
0.723924 0.723924 0.723924
0.787043 0.787043 0.787043
0.836387 0.836387 0.836387
0.865420 0.865420 0.865420
0.877804 0.877804 0.877804
0.879920 0.879920 0.879920
0.708978 0.708978 0.708978
0.711627 0.711627 0.711627
0.727378 0.727378 0.727378
0.765582 0.765582 0.765582
0.828701 0.828701 0.828701
0.878045 0.878045 0.878045
0.907078 0.907078 0.907078
0.919461 0.919461 0.919461
0.921578 0.921578 0.921578
0.716100 0.716100 0.716100
0.718749 0.718749 0.718749
0.734499 0.734499 0.734499
0.772704 0.772704 0.772704
0.835822 0.835822 0.835822
0.885166 0.885166 0.885166
0.914200 0.914200 0.914200
0.926583 0.926583 0.926583
0.928700 0.928700 0.928700
0.006249 0.006249 0.006249
0.008898 0.008898 0.008898
0.024648 0.024648 0.024648
0.062853 0.062853 0.062853
0.125971 0.125971 0.125971
0.175315 0.175315 0.175315
0.204349 0.204349 0.204349
0.216732 0.216732 0.216732
0.218849 0.218849 0.218849
0.015160 0.015160 0.015160
0.017809 0.017809 0.017809
0.033560 0.033560 0.033560
0.071764 0.071764 0.071764
0.134883 0.134883 0.134883
0.184227 0.184227 0.184227
0.213260 0.213260 0.213260
0.225643 0.225643 0.225643
0.227760 0.227760 0.227760
0.068147 0.068147 0.068147
0.070796 0.070796 0.070796
0.086547 0.086547 0.086547
0.124751 0.124751 0.124751
0.187870 0.187870 0.187870
0.237213 0.237213 0.237213
0.266247 0.266247 0.266247
0.278630 0.278630 0.278630
0.280747 0.280747 0.280747
0.196668 0.196668 0.196668
0.199317 0.199317 0.199317
0.215068 0.215068 0.215068
0.253272 0.253272 0.253272
0.316391 0.316391 0.316391
0.365735 0.365735 0.365735
0.394768 0.394768 0.394768
0.407152 0.407152 0.407152
0.409268 0.409268 0.409268
0.409004 0.409004 0.409004
0.411653 0.411653 0.411653
0.427404 0.427404 0.427404
0.465608 0.465608 0.465608
0.528727 0.528727 0.528727
0.578070 0.578070 0.578070
0.607104 0.607104 0.607104
0.619487 0.619487 0.619487
0.621604 0.621604 0.621604
0.574999 0.574999 0.574999
0.577648 0.577648 0.577648
0.593399 0.593399 0.593399
0.631603 0.631603 0.631603
0.694722 0.694722 0.694722
0.744065 0.744065 0.744065
0.773099 0.773099 0.773099
0.785482 0.785482 0.785482
0.787599 0.787599 0.787599
0.672669 0.672669 0.672669
0.675318 0.675318 0.675318
0.691069 0.691069 0.691069
0.729273 0.729273 0.729273
0.792392 0.792392 0.792392
0.841736 0.841736 0.841736
0.870769 0.870769 0.870769
0.883153 0.883153 0.883153
0.885269 0.885269 0.885269
0.714327 0.714327 0.714327
0.716976 0.716976 0.716976
0.732727 0.732727 0.732727
0.770931 0.770931 0.770931
0.834050 0.834050 0.834050
0.883394 0.883394 0.883394
0.912427 0.912427 0.912427
0.924810 0.924810 0.924810
0.926927 0.926927 0.926927
0.721449 0.721449 0.721449
0.724098 0.724098 0.724098
0.739848 0.739848 0.739848
0.778053 0.778053 0.778053
0.841171 0.841171 0.841171
0.890515 0.890515 0.890515
0.919549 0.919549 0.919549
0.931932 0.931932 0.931932
0.934049 0.934049 0.934049
0.019223 0.019223 0.019223
0.021872 0.021872 0.021872
0.037623 0.037623 0.037623
0.075827 0.075827 0.075827
0.138946 0.138946 0.138946
0.188289 0.188289 0.188289
0.217323 0.217323 0.217323
0.229706 0.229706 0.229706
0.231823 0.231823 0.231823
0.028134 0.028134 0.028134
0.030783 0.030783 0.030783
0.046534 0.046534 0.046534
0.084739 0.084739 0.084739
0.147857 0.147857 0.147857
0.197201 0.197201 0.197201
0.226234 0.226234 0.226234
0.238618 0.238618 0.238618
0.240734 0.240734 0.240734
0.081121 0.081121 0.081121
0.083770 0.083770 0.083770
0.099521 0.099521 0.099521
0.137725 0.137725 0.137725
0.200844 0.200844 0.200844
0.250188 0.250188 0.250188
0.279221 0.279221 0.279221
0.291604 0.291604 0.291604
0.293721 0.293721 0.293721
0.209643 0.209643 0.209643
0.212292 0.212292 0.212292
0.228043 0.228043 0.228043
0.266247 0.266247 0.266247
0.329366 0.329366 0.329366
0.378709 0.378709 0.378709
0.407743 0.407743 0.407743
0.420126 0.420126 0.420126
0.422243 0.422243 0.422243
0.421978 0.421978 0.421978
0.424627 0.424627 0.424627
0.440378 0.440378 0.440378
0.478582 0.478582 0.478582
0.541701 0.541701 0.541701
0.591045 0.591045 0.591045
0.620078 0.620078 0.620078
0.632461 0.632461 0.632461
0.634578 0.634578 0.634578
0.587973 0.587973 0.587973
0.590622 0.590622 0.590622
0.606373 0.606373 0.606373
0.644577 0.644577 0.644577
0.707696 0.707696 0.707696
0.757040 0.757040 0.757040
0.786073 0.786073 0.786073
0.798456 0.798456 0.798456
0.800573 0.800573 0.800573
0.685644 0.685644 0.685644
0.688293 0.688293 0.688293
0.704044 0.704044 0.704044
0.742248 0.742248 0.742248
0.805367 0.805367 0.805367
0.854710 0.854710 0.854710
0.883744 0.883744 0.883744
0.896127 0.896127 0.896127
0.898244 0.898244 0.898244
0.727302 0.727302 0.727302
0.729951 0.729951 0.729951
0.745702 0.745702 0.745702
0.783906 0.783906 0.783906
0.847025 0.847025 0.847025
0.896368 0.896368 0.896368
0.925402 0.925402 0.925402
0.937785 0.937785 0.937785
0.939902 0.939902 0.939902
0.734423 0.734423 0.734423
0.737072 0.737072 0.737072
0.752823 0.752823 0.752823
0.791027 0.791027 0.791027
0.854146 0.854146 0.854146
0.903489 0.903489 0.903489
0.932523 0.932523 0.932523
0.944906 0.944906 0.944906
0.947023 0.947023 0.947023
0.040658 0.040658 0.040658
0.043307 0.043307 0.043307
0.059058 0.059058 0.059058
0.097263 0.097263 0.097263
0.160381 0.160381 0.160381
0.209725 0.209725 0.209725
0.238758 0.238758 0.238758
0.251142 0.251142 0.251142
0.253258 0.253258 0.253258
0.049570 0.049570 0.049570
0.052219 0.052219 0.052219
0.067970 0.067970 0.067970
0.106174 0.106174 0.106174
0.169293 0.169293 0.169293
0.218636 0.218636 0.218636
0.247670 0.247670 0.247670
0.260053 0.260053 0.260053
0.262170 0.262170 0.262170
0.102557 0.102557 0.102557
0.105206 0.105206 0.105206
0.120956 0.120956 0.120956
0.159161 0.159161 0.159161
0.222279 0.222279 0.222279
0.271623 0.271623 0.271623
0.300656 0.300656 0.300656
0.313040 0.313040 0.313040
0.315157 0.315157 0.315157
0.231078 0.231078 0.231078
0.233727 0.233727 0.233727
0.249478 0.249478 0.249478
0.287682 0.287682 0.287682
0.350801 0.350801 0.350801
0.400145 0.400145 0.400145
0.429178 0.429178 0.429178
0.441561 0.441561 0.441561
0.443678 0.443678 0.443678
0.443414 0.443414 0.443414
0.446063 0.446063 0.446063
0.461813 0.461813 0.461813
0.500018 0.500018 0.500018
0.563136 0.563136 0.563136
0.612480 0.612480 0.612480
0.641513 0.641513 0.641513
0.653897 0.653897 0.653897
0.656013 0.656013 0.656013
0.609409 0.609409 0.609409
0.612058 0.612058 0.612058
0.627809 0.627809 0.627809
0.666013 0.666013 0.666013
0.729132 0.729132 0.729132
0.778475 0.778475 0.778475
0.807509 0.807509 0.807509
0.819892 0.819892 0.819892
0.822009 0.822009 0.822009
0.707079 0.707079 0.707079
0.709728 0.709728 0.709728
0.725479 0.725479 0.725479
0.763683 0.763683 0.763683
0.826802 0.826802 0.826802
0.876146 0.876146 0.876146
0.905179 0.905179 0.905179
0.917562 0.917562 0.917562
0.919679 0.919679 0.919679
0.748737 0.748737 0.748737
0.751386 0.751386 0.751386
0.767137 0.767137 0.767137
0.805341 0.805341 0.805341
0.868460 0.868460 0.868460
0.917804 0.917804 0.917804
0.946837 0.946837 0.946837
0.959220 0.959220 0.959220
0.961337 0.961337 0.961337
0.755858 0.755858 0.755858
0.758507 0.758507 0.758507
0.774258 0.774258 0.774258
0.812463 0.812463 0.812463
0.875581 0.875581 0.875581
0.924925 0.924925 0.924925
0.953958 0.953958 0.953958
0.966342 0.966342 0.966342
0.968458 0.968458 0.968458
0.057416 0.057416 0.057416
0.060065 0.060065 0.060065
0.075816 0.075816 0.075816
0.114020 0.114020 0.114020
0.177139 0.177139 0.177139
0.226482 0.226482 0.226482
0.255516 0.255516 0.255516
0.267899 0.267899 0.267899
0.270016 0.270016 0.270016
0.066327 0.066327 0.066327
0.068976 0.068976 0.068976
0.084727 0.084727 0.084727
0.122931 0.122931 0.122931
0.186050 0.186050 0.186050
0.235394 0.235394 0.235394
0.264427 0.264427 0.264427
0.276810 0.276810 0.276810
0.278927 0.278927 0.278927
0.119314 0.119314 0.119314
0.121963 0.121963 0.121963
0.137714 0.137714 0.137714
0.175918 0.175918 0.175918
0.239037 0.239037 0.239037
0.288380 0.288380 0.288380
0.317414 0.317414 0.317414
0.329797 0.329797 0.329797
0.331914 0.331914 0.331914
0.247836 0.247836 0.247836
0.250485 0.250485 0.250485
0.266235 0.266235 0.266235
0.304440 0.304440 0.304440
0.367558 0.367558 0.367558
0.416902 0.416902 0.416902
0.445935 0.445935 0.445935
0.458319 0.458319 0.458319
0.460436 0.460436 0.460436
0.460171 0.460171 0.460171
0.462820 0.462820 0.462820
0.478571 0.478571 0.478571
0.516775 0.516775 0.516775
0.579894 0.579894 0.579894
0.629237 0.629237 0.629237
0.658271 0.658271 0.658271
0.670654 0.670654 0.670654
0.672771 0.672771 0.672771
0.626166 0.626166 0.626166
0.628815 0.628815 0.628815
0.644566 0.644566 0.644566
0.682770 0.682770 0.682770
0.745889 0.745889 0.745889
0.795233 0.795233 0.795233
0.824266 0.824266 0.824266
0.836649 0.836649 0.836649
0.838766 0.838766 0.838766
0.723837 0.723837 0.723837
0.726486 0.726486 0.726486
0.742236 0.742236 0.742236
0.780441 0.780441 0.780441
0.843559 0.843559 0.843559
0.892903 0.892903 0.892903
0.921936 0.921936 0.921936
0.934320 0.934320 0.934320
0.936437 0.936437 0.936437
0.765494 0.765494 0.765494
0.768143 0.768143 0.768143
0.783894 0.783894 0.783894
0.822099 0.822099 0.822099
0.885217 0.885217 0.885217
0.934561 0.934561 0.934561
0.963594 0.963594 0.963594
0.975978 0.975978 0.975978
0.978094 0.978094 0.978094
0.772616 0.772616 0.772616
0.775265 0.775265 0.775265
0.791016 0.791016 0.791016
0.829220 0.829220 0.829220
0.892339 0.892339 0.892339
0.941682 0.941682 0.941682
0.970716 0.970716 0.970716
0.983099 0.983099 0.983099
0.985216 0.985216 0.985216
0.067276 0.067276 0.067276
0.069925 0.069925 0.069925
0.085676 0.085676 0.085676
0.123880 0.123880 0.123880
0.186998 0.186998 0.186998
0.236342 0.236342 0.236342
0.265376 0.265376 0.265376
0.277759 0.277759 0.277759
0.279876 0.279876 0.279876
0.076187 0.076187 0.076187
0.078836 0.078836 0.078836
0.094587 0.094587 0.094587
0.132791 0.132791 0.132791
0.195910 0.195910 0.195910
0.245254 0.245254 0.245254
0.274287 0.274287 0.274287
0.286670 0.286670 0.286670
0.288787 0.288787 0.288787
0.129174 0.129174 0.129174
0.131823 0.131823 0.131823
0.147574 0.147574 0.147574
0.185778 0.185778 0.185778
0.248897 0.248897 0.248897
0.298240 0.298240 0.298240
0.327274 0.327274 0.327274
0.339657 0.339657 0.339657
0.341774 0.341774 0.341774
0.257695 0.257695 0.257695
0.260344 0.260344 0.260344
0.276095 0.276095 0.276095
0.314300 0.314300 0.314300
0.377418 0.377418 0.377418
0.426762 0.426762 0.426762
0.455795 0.455795 0.455795
0.468179 0.468179 0.468179
0.470295 0.470295 0.470295
0.470031 0.470031 0.470031
0.472680 0.472680 0.472680
0.488431 0.488431 0.488431
0.526635 0.526635 0.526635
0.589754 0.589754 0.589754
0.639097 0.639097 0.639097
0.668131 0.668131 0.668131
0.680514 0.680514 0.680514
0.682631 0.682631 0.682631
0.636026 0.636026 0.636026
0.638675 0.638675 0.638675
0.654426 0.654426 0.654426
0.692630 0.692630 0.692630
0.755749 0.755749 0.755749
0.805092 0.805092 0.805092
0.834126 0.834126 0.834126
0.846509 0.846509 0.846509
0.848626 0.848626 0.848626
0.733696 0.733696 0.733696
0.736345 0.736345 0.736345
0.752096 0.752096 0.752096
0.790301 0.790301 0.790301
0.853419 0.853419 0.853419
0.902763 0.902763 0.902763
0.931796 0.931796 0.931796
0.944180 0.944180 0.944180
0.946296 0.946296 0.946296
0.775354 0.775354 0.775354
0.778003 0.778003 0.778003
0.793754 0.793754 0.793754
0.831958 0.831958 0.831958
0.895077 0.895077 0.895077
0.944421 0.944421 0.944421
0.973454 0.973454 0.973454
0.985838 0.985838 0.985838
0.987954 0.987954 0.987954
0.782476 0.782476 0.782476
0.785125 0.785125 0.785125
0.800876 0.800876 0.800876
0.839080 0.839080 0.839080
0.902198 0.902198 0.902198
0.951542 0.951542 0.951542
0.980576 0.980576 0.980576
0.992959 0.992959 0.992959
0.995076 0.995076 0.995076
0.071481 0.071481 0.071481
0.074130 0.074130 0.074130
0.089881 0.089881 0.089881
0.128085 0.128085 0.128085
0.191204 0.191204 0.191204
0.240548 0.240548 0.240548
0.269581 0.269581 0.269581
0.281964 0.281964 0.281964
0.284081 0.284081 0.284081
0.080393 0.080393 0.080393
0.083042 0.083042 0.083042
0.098792 0.098792 0.098792
0.136997 0.136997 0.136997
0.200115 0.200115 0.200115
0.249459 0.249459 0.249459
0.278492 0.278492 0.278492
0.290876 0.290876 0.290876
0.292993 0.292993 0.292993
0.133379 0.133379 0.133379
0.136028 0.136028 0.136028
0.151779 0.151779 0.151779
0.189983 0.189983 0.189983
0.253102 0.253102 0.253102
0.302446 0.302446 0.302446
0.331479 0.331479 0.331479
0.343862 0.343862 0.343862
0.345979 0.345979 0.345979
0.261901 0.261901 0.261901
0.264550 0.264550 0.264550
0.280301 0.280301 0.280301
0.318505 0.318505 0.318505
0.381624 0.381624 0.381624
0.430967 0.430967 0.430967
0.460001 0.460001 0.460001
0.472384 0.472384 0.472384
0.474501 0.474501 0.474501
0.474236 0.474236 0.474236
0.476885 0.476885 0.476885
0.492636 0.492636 0.492636
0.530840 0.530840 0.530840
0.593959 0.593959 0.593959
0.643303 0.643303 0.643303
0.672336 0.672336 0.672336
0.684719 0.684719 0.684719
0.686836 0.686836 0.686836
0.640231 0.640231 0.640231
0.642880 0.642880 0.642880
0.658631 0.658631 0.658631
0.696836 0.696836 0.696836
0.759954 0.759954 0.759954
0.809298 0.809298 0.809298
0.838331 0.838331 0.838331
0.850715 0.850715 0.850715
0.852831 0.852831 0.852831
0.737902 0.737902 0.737902
0.740551 0.740551 0.740551
0.756302 0.756302 0.756302
0.794506 0.794506 0.794506
0.857625 0.857625 0.857625
0.906968 0.906968 0.906968
0.936002 0.936002 0.936002
0.948385 0.948385 0.948385
0.950502 0.950502 0.950502
0.779560 0.779560 0.779560
0.782209 0.782209 0.782209
0.797960 0.797960 0.797960
0.836164 0.836164 0.836164
0.899283 0.899283 0.899283
0.948626 0.948626 0.948626
0.977660 0.977660 0.977660
0.990043 0.990043 0.990043
0.992160 0.992160 0.992160
0.786681 0.786681 0.786681
0.789330 0.789330 0.789330
0.805081 0.805081 0.805081
0.843285 0.843285 0.843285
0.906404 0.906404 0.906404
0.955748 0.955748 0.955748
0.984781 0.984781 0.984781
0.997164 0.997164 0.997164
0.999281 0.999281 0.999281
0.072200 0.072200 0.072200
0.074849 0.074849 0.074849
0.090600 0.090600 0.090600
0.128804 0.128804 0.128804
0.191923 0.191923 0.191923
0.241266 0.241266 0.241266
0.270300 0.270300 0.270300
0.282683 0.282683 0.282683
0.284800 0.284800 0.284800
0.081111 0.081111 0.081111
0.083760 0.083760 0.083760
0.099511 0.099511 0.099511
0.137716 0.137716 0.137716
0.200834 0.200834 0.200834
0.250178 0.250178 0.250178
0.279211 0.279211 0.279211
0.291595 0.291595 0.291595
0.293711 0.293711 0.293711
0.134098 0.134098 0.134098
0.136747 0.136747 0.136747
0.152498 0.152498 0.152498
0.190702 0.190702 0.190702
0.253821 0.253821 0.253821
0.303165 0.303165 0.303165
0.332198 0.332198 0.332198
0.344581 0.344581 0.344581
0.346698 0.346698 0.346698
0.262620 0.262620 0.262620
0.265269 0.265269 0.265269
0.281020 0.281020 0.281020
0.319224 0.319224 0.319224
0.382343 0.382343 0.382343
0.431686 0.431686 0.431686
0.460720 0.460720 0.460720
0.473103 0.473103 0.473103
0.475220 0.475220 0.475220
0.474955 0.474955 0.474955
0.477604 0.477604 0.477604
0.493355 0.493355 0.493355
0.531559 0.531559 0.531559
0.594678 0.594678 0.594678
0.644022 0.644022 0.644022
0.673055 0.673055 0.673055
0.685438 0.685438 0.685438
0.687555 0.687555 0.687555
0.640950 0.640950 0.640950
0.643599 0.643599 0.643599
0.659350 0.659350 0.659350
0.697554 0.697554 0.697554
0.760673 0.760673 0.760673
0.810017 0.810017 0.810017
0.839050 0.839050 0.839050
0.851433 0.851433 0.851433
0.853550 0.853550 0.853550
0.738621 0.738621 0.738621
0.741270 0.741270 0.741270
0.757021 0.757021 0.757021
0.795225 0.795225 0.795225
0.858344 0.858344 0.858344
0.907687 0.907687 0.907687
0.936721 0.936721 0.936721
0.949104 0.949104 0.949104
0.951221 0.951221 0.951221
0.780279 0.780279 0.780279
0.782928 0.782928 0.782928
0.798679 0.798679 0.798679
0.836883 0.836883 0.836883
0.900001 0.900001 0.900001
0.949345 0.949345 0.949345
0.978379 0.978379 0.978379
0.990762 0.990762 0.990762
0.992879 0.992879 0.992879
0.787400 0.787400 0.787400
0.790049 0.790049 0.790049
0.805800 0.805800 0.805800
0.844004 0.844004 0.844004
0.907123 0.907123 0.907123
0.956466 0.956466 0.956466
0.985500 0.985500 0.985500
0.997883 0.997883 0.997883
1.000000 1.000000 1.000000
