crates/agx-e2e/fixtures/looks/luts/bw_high_contrast.cube
TITLE "bw_high_contrast"
LUT_3D_SIZE 33
DOMAIN_MIN 0.0 0.0 0.0
DOMAIN_MAX 1.0 1.0 1.0
0.000000 0.000000 0.000000
0.000055 0.000055 0.000055
0.000380 0.000380 0.000380
0.001184 0.001184 0.001184
0.002649 0.002649 0.002649
0.004947 0.004947 0.004947
0.008239 0.008239 0.008239
0.012676 0.012676 0.012676
0.018400 0.018400 0.018400
0.025541 0.025541 0.025541
0.034217 0.034217 0.034217
0.044538 0.044538 0.044538
0.056604 0.056604 0.056604
0.070523 0.070523 0.070523
0.086424 0.086424 0.086424
0.103757 0.103757 0.103757
0.119723 0.119723 0.119723
0.134146 0.134146 0.134146
0.147131 0.147131 0.147131
0.158754 0.158754 0.158754
0.169066 0.169066 0.169066
0.178113 0.178113 0.178113
0.185935 0.185935 0.185935
0.192579 0.192579 0.192579
0.198100 0.198100 0.198100
0.202564 0.202564 0.202564
0.206052 0.206052 0.206052
0.208656 0.208656 0.208656
0.210483 0.210483 0.210483
0.211653 0.211653 0.211653
0.212295 0.212295 0.212295
0.212556 0.212556 0.212556
0.212600 0.212600 0.212600
0.000184 0.000184 0.000184
0.000238 0.000238 0.000238
0.000564 0.000564 0.000564
0.001368 0.001368 0.001368
0.002833 0.002833 0.002833
0.005131 0.005131 0.005131
0.008423 0.008423 0.008423
0.012860 0.012860 0.012860
0.018584 0.018584 0.018584
0.025724 0.025724 0.025724
0.034401 0.034401 0.034401
0.044721 0.044721 0.044721
0.056788 0.056788 0.056788
0.070707 0.070707 0.070707
0.086608 0.086608 0.086608
0.103941 0.103941 0.103941
0.119907 0.119907 0.119907
0.134329 0.134329 0.134329
0.147315 0.147315 0.147315
0.158937 0.158937 0.158937
0.169250 0.169250 0.169250
0.178297 0.178297 0.178297
0.186119 0.186119 0.186119
0.192763 0.192763 0.192763
0.198284 0.198284 0.198284
0.202748 0.202748 0.202748
0.206235 0.206235 0.206235
0.208840 0.208840 0.208840
0.210667 0.210667 0.210667
0.211836 0.211836 0.211836
0.212479 0.212479 0.212479
0.212740 0.212740 0.212740
0.212784 0.212784 0.212784
0.001280 0.001280 0.001280
0.001334 0.001334 0.001334
0.001660 0.001660 0.001660
0.002464 0.002464 0.002464
0.003929 0.003929 0.003929
0.006227 0.006227 0.006227
0.009519 0.009519 0.009519
0.013956 0.013956 0.013956
0.019680 0.019680 0.019680
0.026820 0.026820 0.026820
0.035497 0.035497 0.035497
0.045817 0.045817 0.045817
0.057884 0.057884 0.057884
0.071803 0.071803 0.071803
0.087704 0.087704 0.087704
0.105037 0.105037 0.105037
0.121002 0.121002 0.121002
0.135425 0.135425 0.135425
0.148411 0.148411 0.148411
0.160033 0.160033 0.160033
0.170346 0.170346 0.170346
0.179393 0.179393 0.179393
0.187215 0.187215 0.187215
0.193859 0.193859 0.193859
0.199380 0.199380 0.199380
0.203844 0.203844 0.203844
0.207331 0.207331 0.207331
0.209935 0.209935 0.209935
0.211763 0.211763 0.211763
0.212932 0.212932 0.212932
0.213575 0.213575 0.213575
0.213836 0.213836 0.213836
0.213880 0.213880 0.213880
0.003982 0.003982 0.003982
0.004037 0.004037 0.004037
0.004363 0.004363 0.004363
0.005166 0.005166 0.005166
0.006631 0.006631 0.006631
0.008930 0.008930 0.008930
0.012221 0.012221 0.012221
0.016658 0.016658 0.016658
0.022382 0.022382 0.022382
0.029523 0.029523 0.029523
0.038200 0.038200 0.038200
0.048520 0.048520 0.048520
0.060587 0.060587 0.060587
0.074506 0.074506 0.074506
0.090406 0.090406 0.090406
0.107740 0.107740 0.107740
0.123705 0.123705 0.123705
0.138128 0.138128 0.138128
0.151114 0.151114 0.151114
0.162736 0.162736 0.162736
0.173049 0.173049 0.173049
0.182096 0.182096 0.182096
0.189918 0.189918 0.189918
0.196562 0.196562 0.196562
0.202082 0.202082 0.202082
0.206547 0.206547 0.206547
0.210034 0.210034 0.210034
0.212638 0.212638 0.212638
0.214466 0.214466 0.214466
0.215635 0.215635 0.215635
0.216278 0.216278 0.216278
0.216539 0.216539 0.216539
0.216582 0.216582 0.216582
0.008911 0.008911 0.008911
0.008966 0.008966 0.008966
0.009292 0.009292 0.009292
0.010095 0.010095 0.010095
0.011560 0.011560 0.011560
0.013858 0.013858 0.013858
0.017150 0.017150 0.017150
0.021587 0.021587 0.021587
0.027311 0.027311 0.027311
0.034452 0.034452 0.034452
0.043129 0.043129 0.043129
0.053449 0.053449 0.053449
0.065516 0.065516 0.065516
0.079434 0.079434 0.079434
0.095335 0.095335 0.095335
0.112669 0.112669 0.112669
0.128634 0.128634 0.128634
0.143057 0.143057 0.143057
0.156043 0.156043 0.156043
0.167665 0.167665 0.167665
0.177978 0.177978 0.177978
0.187025 0.187025 0.187025
0.194847 0.194847 0.194847
0.201491 0.201491 0.201491
0.207011 0.207011 0.207011
0.211475 0.211475 0.211475
0.214963 0.214963 0.214963
0.217567 0.217567 0.217567
0.219395 0.219395 0.219395
0.220564 0.220564 0.220564
0.221207 0.221207 0.221207
0.221468 0.221468 0.221468
0.221511 0.221511 0.221511
0.016642 0.016642 0.016642
0.016697 0.016697 0.016697
0.017023 0.017023 0.017023
0.017826 0.017826 0.017826
0.019291 0.019291 0.019291
0.021589 0.021589 0.021589
0.024881 0.024881 0.024881
0.029318 0.029318 0.029318
0.035042 0.035042 0.035042
0.042183 0.042183 0.042183
0.050859 0.050859 0.050859
0.061180 0.061180 0.061180
0.073246 0.073246 0.073246
0.087165 0.087165 0.087165
0.103066 0.103066 0.103066
0.120399 0.120399 0.120399
0.136365 0.136365 0.136365
0.150788 0.150788 0.150788
0.163773 0.163773 0.163773
0.175396 0.175396 0.175396
0.185709 0.185709 0.185709
0.194755 0.194755 0.194755
0.202577 0.202577 0.202577
0.209221 0.209221 0.209221
0.214742 0.214742 0.214742
0.219206 0.219206 0.219206
0.222694 0.222694 0.222694
0.225298 0.225298 0.225298
0.227125 0.227125 0.227125
0.228295 0.228295 0.228295
0.228937 0.228937 0.228937
0.229198 0.229198 0.229198
0.229242 0.229242 0.229242
0.027716 0.027716 0.027716
0.027771 0.027771 0.027771
0.028096 0.028096 0.028096
0.028900 0.028900 0.028900
0.030365 0.030365 0.030365
0.032663 0.032663 0.032663
0.035955 0.035955 0.035955
0.040392 0.040392 0.040392
0.046116 0.046116 0.046116
0.053257 0.053257 0.053257
0.061933 0.061933 0.061933
0.072254 0.072254 0.072254
0.084320 0.084320 0.084320
0.098239 0.098239 0.098239
0.114140 0.114140 0.114140
0.131473 0.131473 0.131473
0.147439 0.147439 0.147439
0.161862 0.161862 0.161862
0.174847 0.174847 0.174847
0.186470 0.186470 0.186470
0.196782 0.196782 0.196782
0.205829 0.205829 0.205829
0.213651 0.213651 0.213651
0.220295 0.220295 0.220295
0.225816 0.225816 0.225816
0.230280 0.230280 0.230280
0.233767 0.233767 0.233767
0.236372 0.236372 0.236372
0.238199 0.238199 0.238199
0.239368 0.239368 0.239368
0.240011 0.240011 0.240011
0.240272 0.240272 0.240272
0.240316 0.240316 0.240316
0.042643 0.042643 0.042643
0.042697 0.042697 0.042697
0.043023 0.043023 0.043023
0.043827 0.043827 0.043827
0.045292 0.045292 0.045292
0.047590 0.047590 0.047590
0.050882 0.050882 0.050882
0.055319 0.055319 0.055319
0.061043 0.061043 0.061043
0.068183 0.068183 0.068183
0.076860 0.076860 0.076860
0.087180 0.087180 0.087180
0.099247 0.099247 0.099247
0.113166 0.113166 0.113166
0.129067 0.129067 0.129067
0.146400 0.146400 0.146400
0.162365 0.162365 0.162365
0.176788 0.176788 0.176788
0.189774 0.189774 0.189774
0.201396 0.201396 0.201396
0.211709 0.211709 0.211709
0.220756 0.220756 0.220756
0.228578 0.228578 0.228578
0.235222 0.235222 0.235222
0.240743 0.240743 0.240743
0.245207 0.245207 0.245207
0.248694 0.248694 0.248694
0.251298 0.251298 0.251298
0.253126 0.253126 0.253126
0.254295 0.254295 0.254295
0.254938 0.254938 0.254938
0.255199 0.255199 0.255199
0.255243 0.255243 0.255243
0.061898 0.061898 0.061898
0.061953 0.061953 0.061953
0.062279 0.062279 0.062279
0.063082 0.063082 0.063082
0.064547 0.064547 0.064547
0.066845 0.066845 0.066845
0.070137 0.070137 0.070137
0.074574 0.074574 0.074574
0.080298 0.080298 0.080298
0.087439 0.087439 0.087439
0.096115 0.096115 0.096115
0.106436 0.106436 0.106436
0.118502 0.118502 0.118502
0.132421 0.132421 0.132421
0.148322 0.148322 0.148322
0.165655 0.165655 0.165655
0.181621 0.181621 0.181621
0.196044 0.196044 0.196044
0.209029 0.209029 0.209029
0.220652 0.220652 0.220652
0.230965 0.230965 0.230965
0.240011 0.240011 0.240011
0.247834 0.247834 0.247834
0.254477 0.254477 0.254477
0.259998 0.259998 0.259998
0.264462 0.264462 0.264462
0.267950 0.267950 0.267950
0.270554 0.270554 0.270554
0.272381 0.272381 0.272381
0.273551 0.273551 0.273551
0.274193 0.274193 0.274193
0.274454 0.274454 0.274454
0.274498 0.274498 0.274498
0.085921 0.085921 0.085921
0.085975 0.085975 0.085975
0.086301 0.086301 0.086301
0.087104 0.087104 0.087104
0.088570 0.088570 0.088570
0.090868 0.090868 0.090868
0.094159 0.094159 0.094159
0.098597 0.098597 0.098597
0.104320 0.104320 0.104320
0.111461 0.111461 0.111461
0.120138 0.120138 0.120138
0.130458 0.130458 0.130458
0.142525 0.142525 0.142525
0.156444 0.156444 0.156444
0.172345 0.172345 0.172345
0.189678 0.189678 0.189678
0.205643 0.205643 0.205643
0.220066 0.220066 0.220066
0.233052 0.233052 0.233052
0.244674 0.244674 0.244674
0.254987 0.254987 0.254987
0.264034 0.264034 0.264034
0.271856 0.271856 0.271856
0.278500 0.278500 0.278500
0.284021 0.284021 0.284021
0.288485 0.288485 0.288485
0.291972 0.291972 0.291972
0.294576 0.294576 0.294576
0.296404 0.296404 0.296404
0.297573 0.297573 0.297573
0.298216 0.298216 0.298216
0.298477 0.298477 0.298477
0.298521 0.298521 0.298521
0.115109 0.115109 0.115109
0.115164 0.115164 0.115164
0.115490 0.115490 0.115490
0.116293 0.116293 0.116293
0.117758 0.117758 0.117758
0.120056 0.120056 0.120056
0.123348 0.123348 0.123348
0.127785 0.127785 0.127785
0.133509 0.133509 0.133509
0.140650 0.140650 0.140650
0.149327 0.149327 0.149327
0.159647 0.159647 0.159647
0.171713 0.171713 0.171713
0.185632 0.185632 0.185632
0.201533 0.201533 0.201533
0.218866 0.218866 0.218866
0.234832 0.234832 0.234832
0.249255 0.249255 0.249255
0.262241 0.262241 0.262241
0.273863 0.273863 0.273863
0.284176 0.284176 0.284176
0.293222 0.293222 0.293222
0.301045 0.301045 0.301045
0.307689 0.307689 0.307689
0.313209 0.313209 0.313209
0.317673 0.317673 0.317673
0.321161 0.321161 0.321161
0.323765 0.323765 0.323765
0.325592 0.325592 0.325592
0.326762 0.326762 0.326762
0.327405 0.327405 0.327405
0.327665 0.327665 0.327665
0.327709 0.327709 0.327709
0.149828 0.149828 0.149828
0.149882 0.149882 0.149882
0.150208 0.150208 0.150208
0.151011 0.151011 0.151011
0.152477 0.152477 0.152477
0.154775 0.154775 0.154775
0.158066 0.158066 0.158066
0.162504 0.162504 0.162504
0.168227 0.168227 0.168227
0.175368 0.175368 0.175368
0.184045 0.184045 0.184045
0.194365 0.194365 0.194365
0.206432 0.206432 0.206432
0.220351 0.220351 0.220351
0.236252 0.236252 0.236252
0.253585 0.253585 0.253585
0.269550 0.269550 0.269550
0.283973 0.283973 0.283973
0.296959 0.296959 0.296959
0.308581 0.308581 0.308581
0.318894 0.318894 0.318894
0.327941 0.327941 0.327941
0.335763 0.335763 0.335763
0.342407 0.342407 0.342407
0.347928 0.347928 0.347928
0.352392 0.352392 0.352392
0.355879 0.355879 0.355879
0.358483 0.358483 0.358483
0.360311 0.360311 0.360311
0.361480 0.361480 0.361480
0.362123 0.362123 0.362123
0.362384 0.362384 0.362384
0.362428 0.362428 0.362428
0.190420 0.190420 0.190420
0.190474 0.190474 0.190474
0.190800 0.190800 0.190800
0.191604 0.191604 0.191604
0.193069 0.193069 0.193069
0.195367 0.195367 0.195367
0.198659 0.198659 0.198659
0.203096 0.203096 0.203096
0.208820 0.208820 0.208820
0.215960 0.215960 0.215960
0.224637 0.224637 0.224637
0.234957 0.234957 0.234957
0.247024 0.247024 0.247024
0.260943 0.260943 0.260943
0.276844 0.276844 0.276844
0.294177 0.294177 0.294177
0.310143 0.310143 0.310143
0.324565 0.324565 0.324565
0.337551 0.337551 0.337551
0.349173 0.349173 0.349173
0.359486 0.359486 0.359486
0.368533 0.368533 0.368533
0.376355 0.376355 0.376355
0.382999 0.382999 0.382999
0.388520 0.388520 0.388520
0.392984 0.392984 0.392984
0.396471 0.396471 0.396471
0.399076 0.399076 0.399076
0.400903 0.400903 0.400903
0.402072 0.402072 0.402072
0.402715 0.402715 0.402715
0.402976 0.402976 0.402976
0.403020 0.403020 0.403020
0.237244 0.237244 0.237244
0.237299 0.237299 0.237299
0.237624 0.237624 0.237624
0.238428 0.238428 0.238428
0.239893 0.239893 0.239893
0.242191 0.242191 0.242191
0.245483 0.245483 0.245483
0.249920 0.249920 0.249920
0.255644 0.255644 0.255644
0.262785 0.262785 0.262785
0.271461 0.271461 0.271461
0.281782 0.281782 0.281782
0.293848 0.293848 0.293848
0.307767 0.307767 0.307767
0.323668 0.323668 0.323668
0.341001 0.341001 0.341001
0.356967 0.356967 0.356967
0.371390 0.371390 0.371390
0.384375 0.384375 0.384375
0.395998 0.395998 0.395998
0.406310 0.406310 0.406310
0.415357 0.415357 0.415357
0.423179 0.423179 0.423179
0.429823 0.429823 0.429823
0.435344 0.435344 0.435344
0.439808 0.439808 0.439808
0.443296 0.443296 0.443296
0.445900 0.445900 0.445900
0.447727 0.447727 0.447727
0.448897 0.448897 0.448897
0.449539 0.449539 0.449539
0.449800 0.449800 0.449800
0.449844 0.449844 0.449844
0.290736 0.290736 0.290736
0.290790 0.290790 0.290790
0.291116 0.291116 0.291116
0.291920 0.291920 0.291920
0.293385 0.293385 0.293385
0.295683 0.295683 0.295683
0.298975 0.298975 0.298975
0.303412 0.303412 0.303412
0.309136 0.309136 0.309136
0.316277 0.316277 0.316277
0.324953 0.324953 0.324953
0.335274 0.335274 0.335274
0.347340 0.347340 0.347340
0.361259 0.361259 0.361259
0.377160 0.377160 0.377160
0.394493 0.394493 0.394493
0.410459 0.410459 0.410459
0.424881 0.424881 0.424881
0.437867 0.437867 0.437867
0.449489 0.449489 0.449489
0.459802 0.459802 0.459802
0.468849 0.468849 0.468849
0.476671 0.476671 0.476671
0.483315 0.483315 0.483315
0.488836 0.488836 0.488836
0.493300 0.493300 0.493300
0.496787 0.496787 0.496787
0.499392 0.499392 0.499392
0.501219 0.501219 0.501219
0.502388 0.502388 0.502388
0.503031 0.503031 0.503031
0.503292 0.503292 0.503292
0.503336 0.503336 0.503336
0.349045 0.349045 0.349045
0.349100 0.349100 0.349100
0.349426 0.349426 0.349426
0.350229 0.350229 0.350229
0.351694 0.351694 0.351694
0.353992 0.353992 0.353992
0.357284 0.357284 0.357284
0.361721 0.361721 0.361721
0.367445 0.367445 0.367445
0.374586 0.374586 0.374586
0.383263 0.383263 0.383263
0.393583 0.393583 0.393583
0.405650 0.405650 0.405650
0.419568 0.419568 0.419568
0.435469 0.435469 0.435469
0.452803 0.452803 0.452803
0.468768 0.468768 0.468768
0.483191 0.483191 0.483191
0.496177 0.496177 0.496177
0.507799 0.507799 0.507799
0.518112 0.518112 0.518112
0.527159 0.527159 0.527159
0.534981 0.534981 0.534981
0.541625 0.541625 0.541625
0.547145 0.547145 0.547145
0.551609 0.551609 0.551609
0.555097 0.555097 0.555097
0.557701 0.557701 0.557701
0.559529 0.559529 0.559529
0.560698 0.560698 0.560698
0.561341 0.561341 0.561341
0.561602 0.561602 0.561602
0.561645 0.561645 0.561645
0.402755 0.402755 0.402755
0.402810 0.402810 0.402810
0.403135 0.403135 0.403135
0.403939 0.403939 0.403939
0.405404 0.405404 0.405404
0.407702 0.407702 0.407702
0.410994 0.410994 0.410994
0.415431 0.415431 0.415431
0.421155 0.421155 0.421155
0.428296 0.428296 0.428296
0.436972 0.436972 0.436972
0.447293 0.447293 0.447293
0.459359 0.459359 0.459359
0.473278 0.473278 0.473278
0.489179 0.489179 0.489179
0.506512 0.506512 0.506512
0.522478 0.522478 0.522478
0.536901 0.536901 0.536901
0.549886 0.549886 0.549886
0.561509 0.561509 0.561509
0.571822 0.571822 0.571822
0.580868 0.580868 0.580868
0.588690 0.588690 0.588690
0.595334 0.595334 0.595334
0.600855 0.600855 0.600855
0.605319 0.605319 0.605319
0.608807 0.608807 0.608807
0.611411 0.611411 0.611411
0.613238 0.613238 0.613238
0.614408 0.614408 0.614408
0.615050 0.615050 0.615050
0.615311 0.615311 0.615311
0.615355 0.615355 0.615355
0.451275 0.451275 0.451275
0.451329 0.451329 0.451329
0.451655 0.451655 0.451655
0.452458 0.452458 0.452458
0.453924 0.453924 0.453924
0.456222 0.456222 0.456222
0.459513 0.459513 0.459513
0.463951 0.463951 0.463951
0.469674 0.469674 0.469674
0.476815 0.476815 0.476815
0.485492 0.485492 0.485492
0.495812 0.495812 0.495812
0.507879 0.507879 0.507879
0.521798 0.521798 0.521798
0.537699 0.537699 0.537699
0.555032 0.555032 0.555032
0.570997 0.570997 0.570997
0.585420 0.585420 0.585420
0.598406 0.598406 0.598406
0.610028 0.610028 0.610028
0.620341 0.620341 0.620341
0.629388 0.629388 0.629388
0.637210 0.637210 0.637210
0.643854 0.643854 0.643854
0.649374 0.649374 0.649374
0.653839 0.653839 0.653839
0.657326 0.657326 0.657326
0.659930 0.659930 0.659930
0.661758 0.661758 0.661758
0.662927 0.662927 0.662927
0.663570 0.663570 0.663570
0.663831 0.663831 0.663831
0.663875 0.663875 0.663875
0.494959 0.494959 0.494959
0.495014 0.495014 0.495014
0.495340 0.495340 0.495340
0.496143 0.496143 0.496143
0.497608 0.497608 0.497608
0.499906 0.499906 0.499906
0.503198 0.503198 0.503198
0.507635 0.507635 0.507635
0.513359 0.513359 0.513359
0.520500 0.520500 0.520500
0.529176 0.529176 0.529176
0.539497 0.539497 0.539497
0.551563 0.551563 0.551563
0.565482 0.565482 0.565482
0.581383 0.581383 0.581383
0.598716 0.598716 0.598716
0.614682 0.614682 0.614682
0.629105 0.629105 0.629105
0.642090 0.642090 0.642090
0.653713 0.653713 0.653713
0.664026 0.664026 0.664026
0.673072 0.673072 0.673072
0.680894 0.680894 0.680894
0.687538 0.687538 0.687538
0.693059 0.693059 0.693059
0.697523 0.697523 0.697523
0.701011 0.701011 0.701011
0.703615 0.703615 0.703615
0.705442 0.705442 0.705442
0.706612 0.706612 0.706612
0.707254 0.707254 0.707254
0.707515 0.707515 0.707515
0.707559 0.707559 0.707559
0.534057 0.534057 0.534057
0.534112 0.534112 0.534112
0.534438 0.534438 0.534438
0.535241 0.535241 0.535241
0.536706 0.536706 0.536706
0.539004 0.539004 0.539004
0.542296 0.542296 0.542296
0.546733 0.546733 0.546733
0.552457 0.552457 0.552457
0.559598 0.559598 0.559598
0.568275 0.568275 0.568275
0.578595 0.578595 0.578595
0.590661 0.590661 0.590661
0.604580 0.604580 0.604580
0.620481 0.620481 0.620481
0.637814 0.637814 0.637814
0.653780 0.653780 0.653780
0.668203 0.668203 0.668203
0.681189 0.681189 0.681189
0.692811 0.692811 0.692811
0.703124 0.703124 0.703124
0.712170 0.712170 0.712170
0.719993 0.719993 0.719993
0.726637 0.726637 0.726637
0.732157 0.732157 0.732157
0.736621 0.736621 0.736621
0.740109 0.740109 0.740109
0.742713 0.742713 0.742713
0.744540 0.744540 0.744540
0.745710 0.745710 0.745710
0.746353 0.746353 0.746353
0.746614 0.746614 0.746614
0.746657 0.746657 0.746657
0.568750 0.568750 0.568750
0.568805 0.568805 0.568805
0.569131 0.569131 0.569131
0.569934 0.569934 0.569934
0.571399 0.571399 0.571399
0.573697 0.573697 0.573697
0.576989 0.576989 0.576989
0.581426 0.581426 0.581426
0.587150 0.587150 0.587150
0.594291 0.594291 0.594291
0.602968 0.602968 0.602968
0.613288 0.613288 0.613288
0.625354 0.625354 0.625354
0.639273 0.639273 0.639273
0.655174 0.655174 0.655174
0.672507 0.672507 0.672507
0.688473 0.688473 0.688473
0.702896 0.702896 0.702896
0.715882 0.715882 0.715882
0.727504 0.727504 0.727504
0.737817 0.737817 0.737817
0.746863 0.746863 0.746863
0.754686 0.754686 0.754686
0.761330 0.761330 0.761330
0.766850 0.766850 0.766850
0.771314 0.771314 0.771314
0.774802 0.774802 0.774802
0.777406 0.777406 0.777406
0.779233 0.779233 0.779233
0.780403 0.780403 0.780403
0.781046 0.781046 0.781046
0.781307 0.781307 0.781307
0.781350 0.781350 0.781350
0.599184 0.599184 0.599184
0.599239 0.599239 0.599239
0.599564 0.599564 0.599564
0.600368 0.600368 0.600368
0.601833 0.601833 0.601833
0.604131 0.604131 0.604131
0.607423 0.607423 0.607423
0.611860 0.611860 0.611860
0.617584 0.617584 0.617584
0.624725 0.624725 0.624725
0.633401 0.633401 0.633401
0.643722 0.643722 0.643722
0.655788 0.655788 0.655788
0.669707 0.669707 0.669707
0.685608 0.685608 0.685608
0.702941 0.702941 0.702941
0.718907 0.718907 0.718907
0.733330 0.733330 0.733330
0.746315 0.746315 0.746315
0.757938 0.757938 0.757938
0.768250 0.768250 0.768250
0.777297 0.777297 0.777297
0.785119 0.785119 0.785119
0.791763 0.791763 0.791763
0.797284 0.797284 0.797284
0.801748 0.801748 0.801748
0.805236 0.805236 0.805236
0.807840 0.807840 0.807840
0.809667 0.809667 0.809667
0.810836 0.810836 0.810836
0.811479 0.811479 0.811479
0.811740 0.811740 0.811740
0.811784 0.811784 0.811784
0.625499 0.625499 0.625499
0.625553 0.625553 0.625553
0.625879 0.625879 0.625879
0.626682 0.626682 0.626682
0.628148 0.628148 0.628148
0.630446 0.630446 0.630446
0.633737 0.633737 0.633737
0.638174 0.638174 0.638174
0.643898 0.643898 0.643898
0.651039 0.651039 0.651039
0.659716 0.659716 0.659716
0.670036 0.670036 0.670036
0.682103 0.682103 0.682103
0.696022 0.696022 0.696022
0.711923 0.711923 0.711923
0.729256 0.729256 0.729256
0.745221 0.745221 0.745221
0.759644 0.759644 0.759644
0.772630 0.772630 0.772630
0.784252 0.784252 0.784252
0.794565 0.794565 0.794565
0.803612 0.803612 0.803612
0.811434 0.811434 0.811434
0.818078 0.818078 0.818078
0.823598 0.823598 0.823598
0.828063 0.828063 0.828063
0.831550 0.831550 0.831550
0.834154 0.834154 0.834154
0.835982 0.835982 0.835982
0.837151 0.837151 0.837151
0.837794 0.837794 0.837794
0.838055 0.838055 0.838055
0.838099 0.838099 0.838099
0.647849 0.647849 0.647849
0.647904 0.647904 0.647904
0.648229 0.648229 0.648229
0.649033 0.649033 0.649033
0.650498 0.650498 0.650498
0.652796 0.652796 0.652796
0.656088 0.656088 0.656088
0.660525 0.660525 0.660525
0.666249 0.666249 0.666249
0.673390 0.673390 0.673390
0.682066 0.682066 0.682066
0.692387 0.692387 0.692387
0.704453 0.704453 0.704453
0.718372 0.718372 0.718372
0.734273 0.734273 0.734273
0.751606 0.751606 0.751606
0.767572 0.767572 0.767572
0.781995 0.781995 0.781995
0.794980 0.794980 0.794980
0.806603 0.806603 0.806603
0.816916 0.816916 0.816916
0.825962 0.825962 0.825962
0.833784 0.833784 0.833784
0.840428 0.840428 0.840428
0.845949 0.845949 0.845949
0.850413 0.850413 0.850413
0.853901 0.853901 0.853901
0.856505 0.856505 0.856505
0.858332 0.858332 0.858332
0.859502 0.859502 0.859502
0.860144 0.860144 0.860144
0.860405 0.860405 0.860405
0.860449 0.860449 0.860449
0.666421 0.666421 0.666421
0.666475 0.666475 0.666475
0.666801 0.666801 0.666801
0.667605 0.667605 0.667605
0.669070 0.669070 0.669070
0.671368 0.671368 0.671368
0.674660 0.674660 0.674660
0.679097 0.679097 0.679097
0.684821 0.684821 0.684821
0.691961 0.691961 0.691961
0.700638 0.700638 0.700638
0.710958 0.710958 0.710958
0.723025 0.723025 0.723025
0.736944 0.736944 0.736944
0.752845 0.752845 0.752845
0.770178 0.770178 0.770178
0.786144 0.786144 0.786144
0.800566 0.800566 0.800566
0.813552 0.813552 0.813552
0.825174 0.825174 0.825174
0.835487 0.835487 0.835487
0.844534 0.844534 0.844534
0.852356 0.852356 0.852356
0.859000 0.859000 0.859000
0.864521 0.864521 0.864521
0.868985 0.868985 0.868985
0.872472 0.872472 0.872472
0.875077 0.875077 0.875077
0.876904 0.876904 0.876904
0.878073 0.878073 0.878073
0.878716 0.878716 0.878716
0.878977 0.878977 0.878977
0.879021 0.879021 0.879021
0.681438 0.681438 0.681438
0.681493 0.681493 0.681493
0.681819 0.681819 0.681819
0.682622 0.682622 0.682622
0.684087 0.684087 0.684087
0.686385 0.686385 0.686385
0.689677 0.689677 0.689677
0.694114 0.694114 0.694114
0.699838 0.699838 0.699838
0.706979 0.706979 0.706979
0.715656 0.715656 0.715656
0.725976 0.725976 0.725976
0.738042 0.738042 0.738042
0.751961 0.751961 0.751961
0.767862 0.767862 0.767862
0.785195 0.785195 0.785195
0.801161 0.801161 0.801161
0.815584 0.815584 0.815584
0.828570 0.828570 0.828570
0.840192 0.840192 0.840192
0.850505 0.850505 0.850505
0.859551 0.859551 0.859551
0.867374 0.867374 0.867374
0.874018 0.874018 0.874018
0.879538 0.879538 0.879538
0.884002 0.884002 0.884002
0.887490 0.887490 0.887490
0.890094 0.890094 0.890094
0.891921 0.891921 0.891921
0.893091 0.893091 0.893091
0.893734 0.893734 0.893734
0.893995 0.893995 0.893995
0.894038 0.894038 0.894038
0.693170 0.693170 0.693170
0.693225 0.693225 0.693225
0.693551 0.693551 0.693551
0.694354 0.694354 0.694354
0.695819 0.695819 0.695819
0.698117 0.698117 0.698117
0.701409 0.701409 0.701409
0.705846 0.705846 0.705846
0.711570 0.711570 0.711570
0.718711 0.718711 0.718711
0.727388 0.727388 0.727388
0.737708 0.737708 0.737708
0.749775 0.749775 0.749775
0.763694 0.763694 0.763694
0.779594 0.779594 0.779594
0.796928 0.796928 0.796928
0.812893 0.812893 0.812893
0.827316 0.827316 0.827316
0.840302 0.840302 0.840302
0.851924 0.851924 0.851924
0.862237 0.862237 0.862237
0.871284 0.871284 0.871284
0.879106 0.879106 0.879106
0.885750 0.885750 0.885750
0.891270 0.891270 0.891270
0.895734 0.895734 0.895734
0.899222 0.899222 0.899222
