crates/agx-e2e/fixtures/looks/luts/bw_lofi.cube
TITLE "bw_lofi"
LUT_3D_SIZE 33
DOMAIN_MIN 0.0 0.0 0.0
DOMAIN_MAX 1.0 1.0 1.0
0.070690 0.074690 0.086266
0.073902 0.077902 0.089451
0.077418 0.081418 0.092938
0.081222 0.085222 0.096710
0.085300 0.089300 0.100754
0.089640 0.093640 0.105057
0.094231 0.098231 0.109610
0.099066 0.103066 0.114404
0.104135 0.108135 0.119431
0.109433 0.113433 0.124684
0.114952 0.118952 0.130157
0.120687 0.124687 0.135844
0.126632 0.130632 0.141740
0.132783 0.136783 0.147840
0.139136 0.143136 0.154139
0.145685 0.149685 0.160634
0.152428 0.156428 0.167320
0.159360 0.163360 0.174194
0.166390 0.170390 0.181165
0.173250 0.177250 0.187968
0.179919 0.183919 0.194581
0.186394 0.190394 0.201001
0.192670 0.196670 0.207225
0.198743 0.202743 0.213247
0.204608 0.208608 0.219063
0.210261 0.214261 0.224669
0.215696 0.219696 0.230058
0.220907 0.224907 0.235226
0.225887 0.229887 0.240164
0.230629 0.234629 0.244867
0.235126 0.239126 0.249325
0.239366 0.243366 0.253530
0.243340 0.247340 0.257471
0.081496 0.085496 0.096981
0.084708 0.088708 0.100166
0.088224 0.092224 0.103653
0.092028 0.096028 0.107425
0.096105 0.100105 0.111469
0.100445 0.104445 0.115772
0.105037 0.109037 0.120325
0.109871 0.113871 0.125119
0.114940 0.118940 0.130146
0.120238 0.124238 0.135399
0.125757 0.129757 0.140872
0.131492 0.135492 0.146559
0.137438 0.141438 0.152455
0.143589 0.147589 0.158555
0.149941 0.153941 0.164854
0.156491 0.160491 0.171349
0.163233 0.167233 0.178035
0.170166 0.174166 0.184909
0.177195 0.181195 0.191880
0.184055 0.188055 0.198683
0.190725 0.194725 0.205296
0.197199 0.201199 0.211716
0.203475 0.207475 0.217940
0.209548 0.213548 0.223962
0.215413 0.219413 0.229778
0.221066 0.225066 0.235384
0.226501 0.230501 0.240773
0.231712 0.235712 0.245941
0.236693 0.240692 0.250879
0.241435 0.245435 0.255582
0.245931 0.249931 0.260040
0.250172 0.254172 0.264245
0.254146 0.258146 0.268186
0.093325 0.097325 0.108711
0.096537 0.100537 0.111896
0.100053 0.104053 0.115383
0.103857 0.107857 0.119155
0.107934 0.111934 0.123199
0.112274 0.116274 0.127502
0.116866 0.120866 0.132055
0.121700 0.125700 0.136849
0.126769 0.130769 0.141876
0.132067 0.136067 0.147129
0.137586 0.141586 0.152602
0.143321 0.147321 0.158289
0.149267 0.153267 0.164185
0.155418 0.159418 0.170285
0.161770 0.165770 0.176584
0.168320 0.172320 0.183079
0.175062 0.179062 0.189765
0.181995 0.185995 0.196639
0.189024 0.193024 0.203610
0.195884 0.199884 0.210413
0.202554 0.206554 0.217026
0.209028 0.213028 0.223446
0.215304 0.219304 0.229670
0.221377 0.225377 0.235692
0.227242 0.231242 0.241508
0.232895 0.236895 0.247114
0.238330 0.242330 0.252503
0.243541 0.247541 0.257671
0.248521 0.252521 0.262609
0.253264 0.257264 0.267312
0.257760 0.261760 0.271770
0.262001 0.266001 0.275975
0.265975 0.269975 0.279916
0.106121 0.110121 0.121400
0.109333 0.113333 0.124586
0.112849 0.116849 0.128072
0.116653 0.120653 0.131844
0.120731 0.124731 0.135888
0.125071 0.129071 0.140191
0.129662 0.133662 0.144744
0.134496 0.138496 0.149538
0.139566 0.143566 0.154565
0.144863 0.148863 0.159819
0.150383 0.154383 0.165291
0.156117 0.160117 0.170978
0.162063 0.166063 0.176874
0.168214 0.172214 0.182974
0.174567 0.178567 0.189273
0.181116 0.185116 0.195768
0.187859 0.191859 0.202454
0.194791 0.198791 0.209328
0.201821 0.205821 0.216299
0.208681 0.212681 0.223102
0.215350 0.219350 0.229715
0.221825 0.225825 0.236136
0.228100 0.232100 0.242359
0.234173 0.238173 0.248381
0.240039 0.244039 0.254198
0.245692 0.249692 0.259803
0.251127 0.255127 0.265193
0.256338 0.260338 0.270360
0.261318 0.265318 0.275299
0.266060 0.270060 0.280001
0.270556 0.274556 0.284460
0.274797 0.278797 0.288665
0.278771 0.282771 0.292606
0.119839 0.123839 0.135003
0.123051 0.127051 0.138188
0.126567 0.130567 0.141675
0.130371 0.134371 0.145447
0.134448 0.138448 0.149491
0.138788 0.142788 0.153794
0.143379 0.147379 0.158347
0.148214 0.152214 0.163141
0.153283 0.157283 0.168168
0.158581 0.162581 0.173421
0.164100 0.168100 0.178894
0.169835 0.173835 0.184581
0.175780 0.179780 0.190477
0.181932 0.185932 0.196577
0.188284 0.192284 0.202876
0.194834 0.198834 0.209371
0.201576 0.205576 0.216057
0.208509 0.212509 0.222931
0.215538 0.219538 0.229902
0.222398 0.226398 0.236705
0.229067 0.233067 0.243318
0.235542 0.239542 0.249738
0.241818 0.245818 0.255962
0.247891 0.251891 0.261984
0.253756 0.257756 0.267800
0.259409 0.263409 0.273406
0.264844 0.268844 0.278795
0.270055 0.274055 0.283963
0.275035 0.279035 0.288901
0.279778 0.283778 0.293604
0.284274 0.288274 0.298062
0.288514 0.292514 0.302267
0.292489 0.296489 0.306208
0.134437 0.138437 0.149480
0.137649 0.141649 0.152665
0.141166 0.145166 0.156152
0.144969 0.148970 0.159924
0.149047 0.153047 0.163967
0.153387 0.157387 0.168271
0.157978 0.161978 0.172824
0.162813 0.166813 0.177618
0.167882 0.171882 0.182645
0.173180 0.177180 0.187898
0.178699 0.182699 0.193371
0.184434 0.188434 0.199058
0.190379 0.194379 0.204954
0.196530 0.200530 0.211053
0.202883 0.206883 0.217353
0.209432 0.213432 0.223847
0.216175 0.220175 0.230533
0.223107 0.227107 0.237408
0.230137 0.234137 0.244379
0.236997 0.240997 0.251181
0.243666 0.247666 0.257795
0.250141 0.254141 0.264215
0.256417 0.260417 0.270438
0.262490 0.266490 0.276460
0.268355 0.272355 0.282277
0.274008 0.278008 0.287882
0.279443 0.283443 0.293272
0.284654 0.288654 0.298439
0.289634 0.293634 0.303378
0.294377 0.298377 0.308081
0.298873 0.302873 0.312539
0.303113 0.307113 0.316744
0.307087 0.311087 0.320685
0.149883 0.153883 0.164796
0.153095 0.157095 0.167982
0.156612 0.160612 0.171468
0.160416 0.164416 0.175241
0.164493 0.168493 0.179284
0.168833 0.172833 0.183587
0.173424 0.177424 0.188140
0.178259 0.182259 0.192934
0.183328 0.187328 0.197961
0.188626 0.192626 0.203215
0.194145 0.198145 0.208688
0.199880 0.203880 0.214375
0.205825 0.209825 0.220270
0.211977 0.215977 0.226370
0.218329 0.222329 0.232669
0.224878 0.228878 0.239164
0.231621 0.235621 0.245850
0.238553 0.242553 0.252724
0.245583 0.249583 0.259695
0.252443 0.256443 0.266498
0.259112 0.263112 0.273111
0.265587 0.269587 0.279532
0.271863 0.275863 0.285755
0.277936 0.281936 0.291777
0.283801 0.287801 0.297594
0.289454 0.293454 0.303199
0.294889 0.298889 0.308589
0.300100 0.304100 0.313756
0.305080 0.309080 0.318695
0.309823 0.313823 0.323397
0.314319 0.318319 0.327856
0.318559 0.322559 0.332061
0.322534 0.326534 0.336002
0.166147 0.170147 0.180924
0.169359 0.173359 0.184109
0.172875 0.176875 0.187596
0.176679 0.180679 0.191368
0.180756 0.184756 0.195411
0.185096 0.189096 0.199715
0.189688 0.193688 0.204268
0.194522 0.198522 0.209062
0.199591 0.203591 0.214089
0.204889 0.208889 0.219342
0.210408 0.214408 0.224815
0.216143 0.220143 0.230502
0.222089 0.226089 0.236397
0.228240 0.232240 0.242497
0.234592 0.238592 0.248797
0.241142 0.245142 0.255291
0.247884 0.251884 0.261977
0.254817 0.258817 0.268852
0.261847 0.265846 0.275823
0.268707 0.272707 0.282625
0.275376 0.279376 0.289239
0.281850 0.285850 0.295659
0.288126 0.292126 0.301882
0.294199 0.298199 0.307904
0.300064 0.304064 0.313721
0.305717 0.309717 0.319326
0.311152 0.315152 0.324716
0.316363 0.320363 0.329883
0.321344 0.325344 0.334822
0.326086 0.330086 0.339525
0.330582 0.334582 0.343983
0.334823 0.338823 0.348188
0.338797 0.342797 0.352129
0.183201 0.187201 0.197835
0.186413 0.190413 0.201020
0.189929 0.193929 0.204507
0.193733 0.197733 0.208279
0.197811 0.201811 0.212323
0.202150 0.206150 0.216626
0.206742 0.210742 0.221179
0.211576 0.215576 0.225973
0.216646 0.220646 0.231000
0.221943 0.225943 0.236253
0.227462 0.231462 0.241726
0.233197 0.237197 0.247413
0.239143 0.243143 0.253309
0.245294 0.249294 0.259409
0.251646 0.255646 0.265708
0.258196 0.262196 0.272203
0.264939 0.268939 0.278889
0.271871 0.275871 0.285763
0.278901 0.282901 0.292734
0.285761 0.289761 0.299537
0.292430 0.296430 0.306150
0.298904 0.302904 0.312570
0.305180 0.309180 0.318794
0.311253 0.315253 0.324816
0.317119 0.321119 0.330632
0.322771 0.326771 0.336238
0.328206 0.332206 0.341627
0.333417 0.337417 0.346795
0.338398 0.342398 0.351733
0.343140 0.347140 0.356436
0.347636 0.351636 0.360894
0.351877 0.355877 0.365099
0.355851 0.359851 0.369040
0.201022 0.205022 0.215507
0.204234 0.208234 0.218692
0.207750 0.211750 0.222179
0.211554 0.215554 0.225951
0.215632 0.219632 0.229995
0.219971 0.223971 0.234298
0.224563 0.228563 0.238851
0.229397 0.233397 0.243645
0.234467 0.238467 0.248672
0.239764 0.243764 0.253925
0.245283 0.249283 0.259398
0.251018 0.255018 0.265085
0.256964 0.260964 0.270981
0.263115 0.267115 0.277081
0.269467 0.273467 0.283380
0.276017 0.280017 0.289875
0.282760 0.286760 0.296561
0.289692 0.293692 0.303435
0.296722 0.300722 0.310406
0.303582 0.307582 0.317209
0.310251 0.314251 0.323822
0.316725 0.320725 0.330242
0.323001 0.327001 0.336466
0.329074 0.333074 0.342488
0.334940 0.338940 0.348304
0.340593 0.344593 0.353910
0.346027 0.350028 0.359299
0.351238 0.355238 0.364467
0.356219 0.360219 0.369405
0.360961 0.364961 0.374108
0.365457 0.369457 0.378566
0.369698 0.373698 0.382771
0.373672 0.377672 0.386712
0.219588 0.223588 0.233918
0.222800 0.226800 0.237103
0.226317 0.230317 0.240590
0.230121 0.234121 0.244362
0.234198 0.238198 0.248406
0.238538 0.242538 0.252709
0.243129 0.247129 0.257262
0.247964 0.251964 0.262056
0.253033 0.257033 0.267083
0.258331 0.262331 0.272336
0.263850 0.267850 0.277809
0.269585 0.273585 0.283496
0.275530 0.279530 0.289392
0.281682 0.285682 0.295492
0.288034 0.292034 0.301791
0.294584 0.298584 0.308286
0.301326 0.305326 0.314972
0.308258 0.312258 0.321846
0.315288 0.319288 0.328817
0.322148 0.326148 0.335620
0.328817 0.332817 0.342233
0.335292 0.339292 0.348654
0.341568 0.345568 0.354877
0.347641 0.351641 0.360899
0.353506 0.357506 0.366715
0.359159 0.363159 0.372321
0.364594 0.368594 0.377711
0.369805 0.373805 0.382878
0.374785 0.378785 0.387816
0.379528 0.383528 0.392519
0.384024 0.388024 0.396978
0.388264 0.392264 0.401183
0.392239 0.396239 0.405124
0.238881 0.242881 0.253050
0.242093 0.246093 0.256235
0.245610 0.249610 0.259722
0.249413 0.253413 0.263494
0.253491 0.257491 0.267537
0.257831 0.261831 0.271841
0.262422 0.266422 0.276394
0.267257 0.271257 0.281188
0.272326 0.276326 0.286215
0.277624 0.281624 0.291468
0.283143 0.287143 0.296941
0.288878 0.292878 0.302628
0.294823 0.298823 0.308523
0.300974 0.304974 0.314623
0.307327 0.311327 0.320923
0.313876 0.317876 0.327417
0.320619 0.324619 0.334103
0.327551 0.331551 0.340978
0.334581 0.338581 0.347949
0.341441 0.345441 0.354751
0.348110 0.352110 0.361365
0.354585 0.358585 0.367785
0.360861 0.364861 0.374008
0.366934 0.370934 0.380030
0.372799 0.376799 0.385847
0.378452 0.382452 0.391452
0.383887 0.387887 0.396842
0.389098 0.393098 0.402009
0.394078 0.398078 0.406948
0.398821 0.402821 0.411651
0.403317 0.407317 0.416109
0.407557 0.411557 0.420314
0.411531 0.415531 0.424255
0.258882 0.262882 0.272883
0.262094 0.266095 0.276069
0.265611 0.269611 0.279555
0.269415 0.273415 0.283328
0.273492 0.277492 0.287371
0.277832 0.281832 0.291674
0.282423 0.286423 0.296227
0.287258 0.291258 0.301021
0.292327 0.296327 0.306048
0.297625 0.301625 0.311302
0.303144 0.307144 0.316774
0.308879 0.312879 0.322461
0.314824 0.318824 0.328357
0.320976 0.324976 0.334457
0.327328 0.331328 0.340756
0.333878 0.337878 0.347251
0.340620 0.344620 0.353937
0.347553 0.351552 0.360811
0.354582 0.358582 0.367782
0.361442 0.365442 0.374585
0.368111 0.372111 0.381198
0.374586 0.378586 0.387619
0.380862 0.384862 0.393842
0.386935 0.390935 0.399864
0.392800 0.396800 0.405681
0.398453 0.402453 0.411286
0.403888 0.407888 0.416676
0.409099 0.413099 0.421843
0.414079 0.418079 0.426782
0.418822 0.422822 0.431484
0.423318 0.427318 0.435943
0.427558 0.431558 0.440148
0.431533 0.435533 0.444089
0.279576 0.283576 0.293403
0.282788 0.286788 0.296589
0.286304 0.290304 0.300075
0.290108 0.294108 0.303847
0.294185 0.298185 0.307891
0.298525 0.302525 0.312194
0.303117 0.307117 0.316747
0.307951 0.311951 0.321541
0.313020 0.317020 0.326568
0.318318 0.322318 0.331822
0.323837 0.327837 0.337294
0.329572 0.333572 0.342981
0.335517 0.339518 0.348877
0.341669 0.345669 0.354977
0.348021 0.352021 0.361276
0.354571 0.358571 0.367771
0.361313 0.365313 0.374457
0.368246 0.372246 0.381331
0.375275 0.379275 0.388302
0.382135 0.386135 0.395105
0.388805 0.392805 0.401718
0.395279 0.399279 0.408139
0.401555 0.405555 0.414362
0.407628 0.411628 0.420384
0.413493 0.417493 0.426201
0.419146 0.423146 0.431806
0.424581 0.428581 0.437196
0.429792 0.433792 0.442363
0.434772 0.438772 0.447302
0.439515 0.443515 0.452004
0.444011 0.448011 0.456463
0.448251 0.452251 0.460668
0.452226 0.456226 0.464609
0.300946 0.304946 0.314595
0.304158 0.308158 0.317780
0.307674 0.311674 0.321267
0.311478 0.315478 0.325039
0.315555 0.319555 0.329082
0.319895 0.323895 0.333385
0.324487 0.328487 0.337939
0.329321 0.333321 0.342733
0.334390 0.338390 0.347760
0.339688 0.343688 0.353013
0.345207 0.349207 0.358486
0.350942 0.354942 0.364173
0.356888 0.360888 0.370068
0.363039 0.367039 0.376168
0.369391 0.373391 0.382467
0.375941 0.379941 0.388962
0.382683 0.386683 0.395648
0.389616 0.393616 0.402523
0.396645 0.400645 0.409494
0.403505 0.407505 0.416296
0.410175 0.414175 0.422910
0.416649 0.420649 0.429330
0.422925 0.426925 0.435553
0.428998 0.432998 0.441575
0.434863 0.438863 0.447392
0.440516 0.444516 0.452997
0.445951 0.449951 0.458387
0.451162 0.455162 0.463554
0.456143 0.460143 0.468493
0.460885 0.464885 0.473195
0.465381 0.469381 0.477654
0.469622 0.473622 0.481859
0.473596 0.477596 0.485800
0.322979 0.326979 0.336443
0.326191 0.330191 0.339628
0.329707 0.333707 0.343115
0.333511 0.337511 0.346887
0.337588 0.341588 0.350931
0.341928 0.345928 0.355234
0.346519 0.350519 0.359787
0.351354 0.355354 0.364581
0.356423 0.360423 0.369608
0.361721 0.365721 0.374861
0.367240 0.371240 0.380334
0.372975 0.376975 0.386021
0.378920 0.382920 0.391917
0.385072 0.389072 0.398017
0.391424 0.395424 0.404316
0.397974 0.401974 0.410811
0.404716 0.408716 0.417497
0.411649 0.415648 0.424371
0.418678 0.422678 0.431342
0.425538 0.429538 0.438145
0.432207 0.436207 0.444758
0.438682 0.442682 0.451178
0.444958 0.448958 0.457402
0.451031 0.455031 0.463424
0.456896 0.460896 0.469240
0.462549 0.466549 0.474846
0.467984 0.471984 0.480235
0.473195 0.477195 0.485403
0.478175 0.482175 0.490341
0.482918 0.486918 0.495044
0.487414 0.491414 0.499502
0.491654 0.495654 0.503708
0.495629 0.499629 0.507649
0.345661 0.349661 0.358936
0.348873 0.352873 0.362121
0.352390 0.356390 0.365608
0.356194 0.360194 0.369380
0.360271 0.364271 0.373424
0.364611 0.368611 0.377727
0.369202 0.373202 0.382280
0.374037 0.378037 0.387074
0.379106 0.383106 0.392101
0.384404 0.388404 0.397354
0.389923 0.393923 0.402827
0.395658 0.399658 0.408514
0.401603 0.405603 0.414410
0.407754 0.411754 0.420510
0.414107 0.418107 0.426809
0.420656 0.424656 0.433304
0.427399 0.431399 0.439990
0.434331 0.438331 0.446864
0.441361 0.445361 0.453835
0.448221 0.452221 0.460638
0.454890 0.458890 0.467251
0.461365 0.465365 0.473671
0.467641 0.471641 0.479895
0.473714 0.477714 0.485917
0.479579 0.483579 0.491733
0.485232 0.489232 0.497339
0.490667 0.494667 0.502728
0.495878 0.499878 0.507896
0.500858 0.504858 0.512834
0.505601 0.509601 0.517537
0.510097 0.514097 0.521995
0.514337 0.518337 0.526201
0.518312 0.522311 0.530141
0.368982 0.372982 0.382061
0.372194 0.376194 0.385247
0.375710 0.379710 0.388733
0.379514 0.383514 0.392505
0.383592 0.387592 0.396549
0.387931 0.391931 0.400852
0.392523 0.396523 0.405405
0.397357 0.401357 0.410199
0.402427 0.406427 0.415226
0.407724 0.411724 0.420480
0.413243 0.417243 0.425952
0.418978 0.422978 0.431639
0.424924 0.428924 0.437535
0.431075 0.435075 0.443635
0.437427 0.441427 0.449934
0.443977 0.447977 0.456429
0.450720 0.454720 0.463115
0.457652 0.461652 0.469989
0.464682 0.468682 0.476960
0.471542 0.475542 0.483763
0.478211 0.482211 0.490376
0.484685 0.488685 0.496797
0.490961 0.494961 0.503020
0.497034 0.501034 0.509042
0.502900 0.506900 0.514859
0.508552 0.512552 0.520464
0.513987 0.517987 0.525854
0.519198 0.523198 0.531021
0.524179 0.528179 0.535960
0.528921 0.532921 0.540662
0.533417 0.537417 0.545121
0.537658 0.541658 0.549326
0.541632 0.545632 0.553267
0.392631 0.396631 0.405512
0.395843 0.399843 0.408697
0.399359 0.403359 0.412184
0.403163 0.407163 0.415956
0.407240 0.411240 0.420000
0.411580 0.415580 0.424303
0.416172 0.420172 0.428856
0.421006 0.425006 0.433650
0.426075 0.430075 0.438677
0.431373 0.435373 0.443930
0.436892 0.440892 0.449403
0.442627 0.446627 0.455090
0.448573 0.452573 0.460986
0.454724 0.458724 0.467086
0.461076 0.465076 0.473385
0.467626 0.471626 0.479880
0.474368 0.478368 0.486566
0.481301 0.485301 0.493440
0.488330 0.492330 0.500411
0.495190 0.499190 0.507214
0.501859 0.505859 0.513827
0.508334 0.512334 0.520248
0.514610 0.518610 0.526471
0.520683 0.524683 0.532493
0.526548 0.530548 0.538309
0.532201 0.536201 0.543915
0.537636 0.541636 0.549305
0.542847 0.546847 0.554472
0.547827 0.551827 0.559411
0.552570 0.556570 0.564113
0.557066 0.561066 0.568572
0.561306 0.565306 0.572777
0.565281 0.569281 0.576718
0.415708 0.419708 0.428397
0.418920 0.422920 0.431582
0.422436 0.426436 0.435069
0.426240 0.430240 0.438841
0.430318 0.434318 0.442884
0.434658 0.438658 0.447188
0.439249 0.443249 0.451741
0.444084 0.448084 0.456535
0.449153 0.453153 0.461562
0.454450 0.458450 0.466815
0.459970 0.463970 0.472288
0.465705 0.469705 0.477975
0.471650 0.475650 0.483871
0.477801 0.481801 0.489970
0.484154 0.488154 0.496270
0.490703 0.494703 0.502764
0.497446 0.501446 0.509451
0.504378 0.508378 0.516325
0.511408 0.515408 0.523296
0.518268 0.522268 0.530098
0.524937 0.528937 0.536712
0.531412 0.535412 0.543132
0.537687 0.541687 0.549355
0.543760 0.547760 0.555378
0.549626 0.553626 0.561194
0.555279 0.559279 0.566800
0.560714 0.564714 0.572189
0.565925 0.569925 0.577356
0.570905 0.574905 0.582295
0.575647 0.579647 0.586998
0.580144 0.584144 0.591456
0.584384 0.588384 0.595661
0.588358 0.592358 0.599602
0.438143 0.442143 0.450644
0.441355 0.445355 0.453829
0.444872 0.448872 0.457316
0.448676 0.452676 0.461088
0.452753 0.456753 0.465132
0.457093 0.461093 0.469435
0.461684 0.465684 0.473988
0.466519 0.470519 0.478782
0.471588 0.475588 0.483809
0.476886 0.480886 0.489062
0.482405 0.486405 0.494535
0.488140 0.492140 0.500222
0.494085 0.498085 0.506118
0.500237 0.504237 0.512218
0.506589 0.510589 0.518517
0.513139 0.517139 0.525012
0.519881 0.523881 0.531698
0.526813 0.530813 0.538572
0.533843 0.537843 0.545543
0.540703 0.544703 0.552346
0.547372 0.551372 0.558959
0.553847 0.557847 0.565380
0.560123 0.564123 0.571603
0.566196 0.570196 0.577625
0.572061 0.576061 0.583441
0.577714 0.581714 0.589047
0.583149 0.587149 0.594437
0.588360 0.592360 0.599604
0.593340 0.597340 0.604542
0.598083 0.602083 0.609245
0.602579 0.606579 0.613704
0.606819 0.610819 0.617909
0.610794 0.614794 0.621850
0.459924 0.463924 0.472243
0.463136 0.467136 0.475428
0.466652 0.470652 0.478915
0.470456 0.474456 0.482687
0.474534 0.478534 0.486730
0.478873 0.482873 0.491034
0.483465 0.487465 0.495587
0.488299 0.492299 0.500381
0.493369 0.497369 0.505408
0.498666 0.502666 0.510661
0.504185 0.508186 0.516134
0.509920 0.513920 0.521821
0.515866 0.519866 0.527717
0.522017 0.526017 0.533816
0.528370 0.532370 0.540116
0.534919 0.538919 0.546610
0.541662 0.545662 0.553297
0.548594 0.552594 0.560171
0.555624 0.559624 0.567142
0.562484 0.566484 0.573944
0.569153 0.573153 0.580558
0.575628 0.579628 0.586978
0.581903 0.585903 0.593201
0.587976 0.591976 0.599223
0.593842 0.597842 0.605040
0.599495 0.603495 0.610645
0.604930 0.608930 0.616035
0.610141 0.614141 0.621202
0.615121 0.619121 0.626141
0.619863 0.623863 0.630844
0.624359 0.628359 0.635302
0.628600 0.632600 0.639507
0.632574 0.636574 0.643448
0.481037 0.485037 0.493178
0.484249 0.488249 0.496364
0.487765 0.491765 0.499850
0.491569 0.495569 0.503622
0.495646 0.499646 0.507666
0.499986 0.503986 0.511969
0.504577 0.508577 0.516522
0.509412 0.513412 0.521316
0.514481 0.518481 0.526343
0.519779 0.523779 0.531597
0.525298 0.529298 0.537069
0.531033 0.535033 0.542757
0.536978 0.540978 0.548652
0.543130 0.547130 0.554752
0.549482 0.553482 0.561051
0.556032 0.560032 0.567546
0.562774 0.566774 0.574232
0.569706 0.573707 0.581106
0.576736 0.580736 0.588077
0.583596 0.587596 0.594880
0.590265 0.594265 0.601493
0.596740 0.600740 0.607914
0.603016 0.607016 0.614137
0.609089 0.613089 0.620159
0.614954 0.618954 0.625976
0.620607 0.624607 0.631581
0.626042 0.630042 0.636971
0.631253 0.635253 0.642138
0.636233 0.640233 0.647077
0.640976 0.644976 0.651779
0.645472 0.649472 0.656238
0.649712 0.653712 0.660443
0.653687 0.657687 0.664384
0.501466 0.505466 0.513437
0.504678 0.508678 0.516623
0.508195 0.512195 0.520109
0.511999 0.515999 0.523881
0.516076 0.520076 0.527925
0.520416 0.524416 0.532228
0.525007 0.529007 0.536781
0.529842 0.533842 0.541575
0.534911 0.538911 0.546602
0.540209 0.544209 0.551856
0.545728 0.549728 0.557328
0.551463 0.555463 0.563015
0.557408 0.561408 0.568911
0.563560 0.567560 0.575011
0.569912 0.573912 0.581310
0.576462 0.580462 0.587805
0.583204 0.587204 0.594491
0.590136 0.594136 0.601365
0.597166 0.601166 0.608336
0.604026 0.608026 0.615139
0.610695 0.614695 0.621752
0.617170 0.621170 0.628173
0.623446 0.627446 0.634396
0.629519 0.633519 0.640418
0.635384 0.639384 0.646235
0.641037 0.645037 0.651840
0.646472 0.650472 0.657230
0.651683 0.655683 0.662397
0.656663 0.660663 0.667336
0.661406 0.665406 0.672038
0.665902 0.669902 0.676497
0.670142 0.674142 0.680702
0.674117 0.678117 0.684643
0.521198 0.525198 0.533004
0.524410 0.528410 0.536189
0.527926 0.531926 0.539676
0.531730 0.535730 0.543448
0.535808 0.539808 0.547492
0.540148 0.544148 0.551795
0.544739 0.548739 0.556348
0.549574 0.553573 0.561142
0.554643 0.558643 0.566169
0.559941 0.563941 0.571422
0.565460 0.569460 0.576895
0.571195 0.575195 0.582582
0.577140 0.581140 0.588478
0.583291 0.587291 0.594578
0.589644 0.593644 0.600877
0.596193 0.600193 0.607372
0.602936 0.606936 0.614058
0.609868 0.613868 0.620932
0.616898 0.620898 0.627903
0.623758 0.627758 0.634706
0.630427 0.634427 0.641319
0.636902 0.640902 0.647739
0.643178 0.647178 0.653963
0.649251 0.653251 0.659985
0.655116 0.659116 0.665801
0.660769 0.664769 0.671407
0.666204 0.670204 0.676796
0.671415 0.675415 0.681964
0.676395 0.680395 0.686902
0.681137 0.685137 0.691605
0.685634 0.689634 0.696063
0.689874 0.693874 0.700268
0.693848 0.697848 0.704210
0.540215 0.544215 0.551862
0.543427 0.547427 0.555047
0.546943 0.550943 0.558534
0.550747 0.554747 0.562306
0.554825 0.558825 0.566349
0.559164 0.563164 0.570653
0.563756 0.567756 0.575206
0.568590 0.572590 0.580000
0.573660 0.577660 0.585027
0.578957 0.582957 0.590280
0.584476 0.588476 0.595753
0.590211 0.594211 0.601440
0.596157 0.600157 0.607336
0.602308 0.606308 0.613435
0.608661 0.612661 0.619735
0.615210 0.619210 0.626229
0.621953 0.625953 0.632916
0.628885 0.632885 0.639790
0.635915 0.639915 0.646761
0.642775 0.646775 0.653563
0.649444 0.653444 0.660177
0.655918 0.659918 0.666597
0.662194 0.666194 0.672820
0.668267 0.672267 0.678843
0.674133 0.678133 0.684659
0.679786 0.683786 0.690265
0.685221 0.689221 0.695654
0.690432 0.694432 0.700821
0.695412 0.699412 0.705760
0.700154 0.704154 0.710463
0.704650 0.708650 0.714921
0.708891 0.712891 0.719126
0.712865 0.716865 0.723067
0.558499 0.562498 0.569992
0.561710 0.565710 0.573177
0.565227 0.569227 0.576664
0.569031 0.573031 0.580436
0.573108 0.577108 0.584480
0.577448 0.581448 0.588783
0.582039 0.586039 0.593336
0.586874 0.590874 0.598130
0.591943 0.595943 0.603157
0.597241 0.601241 0.608410
0.602760 0.606760 0.613883
0.608495 0.612495 0.619570
0.614440 0.618440 0.625466
0.620592 0.624592 0.631566
0.626944 0.630944 0.637865
0.633494 0.637494 0.644360
0.640236 0.644236 0.651046
0.647168 0.651168 0.657920
0.654198 0.658198 0.664891
0.661058 0.665058 0.671694
0.667727 0.671727 0.678307
0.674202 0.678202 0.684727
0.680478 0.684478 0.690951
0.686551 0.690551 0.696973
0.692416 0.696416 0.702789
0.698069 0.702069 0.708395
0.703504 0.707504 0.713784
0.708715 0.712715 0.718952
