crates/agx-e2e/fixtures/looks/luts/bw_lofi.cube
TITLE "bw_lofi"
LUT_3D_SIZE 9
DOMAIN_MIN 0.0 0.0 0.0
DOMAIN_MAX 1.0 1.0 1.0
0.070690 0.074690 0.086266
0.085300 0.089300 0.100754
0.104135 0.108135 0.119431
0.126632 0.130632 0.141740
0.152428 0.156428 0.167320
0.179919 0.183919 0.194581
0.204608 0.208608 0.219063
0.225887 0.229887 0.240164
0.243340 0.247340 0.257471
0.119839 0.123839 0.135003
0.134448 0.138448 0.149491
0.153283 0.157283 0.168168
0.175780 0.179780 0.190477
0.201576 0.205576 0.216057
0.229067 0.233067 0.243318
0.253756 0.257756 0.267800
0.275035 0.279035 0.288901
0.292489 0.296489 0.306208
0.183201 0.187201 0.197835
0.197811 0.201811 0.212323
0.216646 0.220646 0.231000
0.239143 0.243143 0.253309
0.264939 0.268939 0.278889
0.292430 0.296430 0.306150
0.317119 0.321119 0.330632
0.338398 0.342398 0.351733
0.355851 0.359851 0.369040
0.258882 0.262882 0.272883
0.273492 0.277492 0.287371
0.292327 0.296327 0.306048
0.314824 0.318824 0.328357
0.340620 0.344620 0.353937
0.368111 0.372111 0.381198
0.392800 0.396800 0.405681
0.414079 0.418079 0.426782
0.431533 0.435533 0.444089
0.345661 0.349661 0.358936
0.360271 0.364271 0.373424
0.379106 0.383106 0.392101
0.401603 0.405603 0.414410
0.427399 0.431399 0.439990
0.454890 0.458890 0.467251
0.479579 0.483579 0.491733
0.500858 0.504858 0.512834
0.518312 0.522311 0.530141
0.438143 0.442143 0.450644
0.452753 0.456753 0.465132
0.471588 0.475588 0.483809
0.494085 0.498085 0.506118
0.519881 0.523881 0.531698
0.547372 0.551372 0.558959
0.572061 0.576061 0.583441
0.593340 0.597340 0.604542
0.610794 0.614794 0.621850
0.521198 0.525198 0.533004
0.535808 0.539808 0.547492
0.554643 0.558643 0.566169
0.577140 0.581140 0.588478
0.602936 0.606936 0.614058
0.630427 0.634427 0.641319
0.655116 0.659116 0.665801
0.676395 0.680395 0.686902
0.693848 0.697848 0.704210
0.592782 0.596783 0.603989
0.607392 0.611392 0.618477
0.626227 0.630227 0.637154
0.648724 0.652724 0.659463
0.674520 0.678520 0.685043
0.702011 0.706011 0.712304
0.726700 0.730700 0.736786
0.747979 0.751979 0.757888
0.765433 0.769433 0.775195
0.651496 0.655496 0.662212
0.666106 0.670106 0.676700
0.684941 0.688941 0.695377
0.707438 0.711438 0.717686
0.733234 0.737234 0.743266
0.760725 0.764725 0.770527
0.785414 0.789414 0.795009
0.806693 0.810693 0.816110
0.824147 0.828147 0.833417
0.075652 0.079652 0.091186
0.090262 0.094262 0.105674
0.109097 0.113097 0.124351
0.131594 0.135594 0.146660
0.157390 0.161390 0.172240
0.184881 0.188881 0.199501
0.209570 0.213570 0.223983
0.230849 0.234849 0.245084
0.248302 0.252302 0.262391
0.124800 0.128800 0.139923
0.139410 0.143410 0.154411
0.158245 0.162245 0.173088
0.180742 0.184742 0.195397
0.206538 0.210538 0.220977
0.234029 0.238029 0.248238
0.258718 0.262718 0.272720
0.279997 0.283997 0.293821
0.297450 0.301450 0.311128
0.188162 0.192162 0.202755
0.202772 0.206772 0.217243
0.221607 0.225607 0.235920
0.244104 0.248104 0.258229
0.269900 0.273900 0.283809
0.297391 0.301391 0.311070
0.322080 0.326080 0.335552
0.343359 0.347359 0.356653
0.360812 0.364812 0.373960
0.263844 0.267844 0.277804
0.278454 0.282454 0.292291
0.297289 0.301289 0.310968
0.319786 0.323786 0.333277
0.345582 0.349582 0.358857
0.373073 0.377073 0.386118
0.397762 0.401762 0.410601
0.419041 0.423041 0.431702
0.436494 0.440494 0.449009
0.350623 0.354623 0.363856
0.365233 0.369233 0.378344
0.384068 0.388068 0.397021
0.406565 0.410565 0.419330
0.432361 0.436361 0.444910
0.459852 0.463852 0.472171
0.484541 0.488541 0.496653
0.505820 0.509820 0.517754
0.523273 0.527273 0.535062
0.443105 0.447105 0.455564
0.457715 0.461715 0.470052
0.476550 0.480550 0.488729
0.499047 0.503047 0.511038
0.524843 0.528843 0.536618
0.552334 0.556334 0.563879
0.577023 0.581023 0.588362
0.598302 0.602302 0.609462
0.615755 0.619755 0.626770
0.526160 0.530160 0.537924
0.540770 0.544770 0.552412
0.559605 0.563605 0.571089
0.582102 0.586102 0.593398
0.607898 0.611897 0.618978
0.635389 0.639389 0.646239
0.660078 0.664078 0.670721
0.681357 0.685357 0.691822
0.698810 0.702810 0.709129
0.597744 0.601744 0.608909
0.612354 0.616354 0.623397
0.631189 0.635189 0.642074
0.653686 0.657686 0.664383
0.679482 0.683482 0.689963
0.706973 0.710973 0.717224
0.731662 0.735662 0.741706
0.752941 0.756941 0.762808
0.770394 0.774394 0.780115
0.656458 0.660458 0.667132
0.671068 0.675068 0.681620
0.689903 0.693903 0.700297
0.712400 0.716400 0.722606
0.738196 0.742196 0.748186
0.765687 0.769687 0.775447
0.790376 0.794376 0.799929
0.811655 0.815655 0.821030
0.829108 0.833108 0.838337
0.082048 0.086048 0.097529
0.096658 0.100658 0.112017
0.115493 0.119493 0.130694
0.137990 0.141990 0.153003
0.163786 0.167786 0.178583
0.191277 0.195277 0.205844
0.215966 0.219966 0.230326
0.237245 0.241245 0.251427
0.254698 0.258698 0.268734
0.131197 0.135197 0.146266
0.145806 0.149806 0.160754
0.164641 0.168641 0.179431
0.187138 0.191138 0.201740
0.212934 0.216934 0.227320
0.240425 0.244425 0.254581
0.265114 0.269114 0.279063
0.286393 0.290393 0.300164
0.303847 0.307847 0.317471
0.194559 0.198559 0.209098
0.209169 0.213169 0.223586
0.228004 0.232004 0.242263
0.250501 0.254501 0.264572
0.276297 0.280297 0.290152
0.303788 0.307788 0.317413
0.328477 0.332477 0.341895
0.349756 0.353756 0.362996
0.367209 0.371209 0.380303
0.270241 0.274241 0.284146
0.284850 0.288850 0.298634
0.303685 0.307685 0.317311
0.326182 0.330182 0.339620
0.351978 0.355978 0.365200
0.379469 0.383469 0.392461
0.404158 0.408158 0.416944
0.425437 0.429437 0.438045
0.442891 0.446891 0.455352
0.357019 0.361019 0.370199
0.371629 0.375629 0.384687
0.390464 0.394464 0.403364
0.412961 0.416961 0.425673
0.438757 0.442757 0.451253
0.466248 0.470248 0.478514
0.490937 0.494937 0.502996
0.512216 0.516216 0.524097
0.529669 0.533669 0.541404
0.449501 0.453501 0.461907
0.464111 0.468111 0.476395
0.482946 0.486946 0.495072
0.505443 0.509443 0.517381
0.531239 0.535239 0.542961
0.558730 0.562730 0.570222
0.583419 0.587419 0.594704
0.604698 0.608698 0.615805
0.622152 0.626152 0.633113
0.532556 0.536556 0.544267
0.547166 0.551166 0.558755
0.566001 0.570001 0.577432
0.588498 0.592498 0.599741
0.614294 0.618294 0.625321
0.641785 0.645785 0.652582
0.666474 0.670474 0.677064
0.687753 0.691753 0.698165
0.705206 0.709206 0.715472
0.604141 0.608141 0.615252
0.618750 0.622750 0.629740
0.637585 0.641585 0.648417
0.660082 0.664082 0.670726
0.685878 0.689878 0.696306
0.713369 0.717369 0.723567
0.738058 0.742058 0.748049
0.759337 0.763337 0.769150
0.776791 0.780791 0.786458
0.662854 0.666855 0.673475
0.677464 0.681464 0.687962
0.696299 0.700299 0.706640
0.718796 0.722796 0.728949
0.744592 0.748592 0.754529
0.772083 0.776083 0.781790
0.796772 0.800772 0.806272
0.818051 0.822051 0.827373
0.835505 0.839505 0.844680
0.089688 0.093688 0.105105
0.104298 0.108298 0.119593
0.123133 0.127133 0.138270
0.145630 0.149630 0.160579
0.171426 0.175426 0.186159
0.198917 0.202917 0.213420
0.223606 0.227606 0.237902
0.244885 0.248885 0.259003
0.262339 0.266339 0.276311
0.138837 0.142837 0.153842
0.153446 0.157447 0.168330
0.172282 0.176282 0.187007
0.194779 0.198779 0.209316
0.220574 0.224574 0.234896
0.248066 0.252066 0.262157
0.272754 0.276754 0.286639
0.294034 0.298034 0.307740
0.311487 0.315487 0.325048
0.202199 0.206199 0.216674
0.216809 0.220809 0.231162
0.235644 0.239644 0.249839
0.258141 0.262141 0.272148
0.283937 0.287937 0.297728
0.311428 0.315428 0.324989
0.336117 0.340117 0.349471
0.357396 0.361396 0.370572
0.374849 0.378849 0.387880
0.277881 0.281881 0.291723
0.292490 0.296490 0.306210
0.311325 0.315325 0.324888
0.333823 0.337823 0.347196
0.359618 0.363618 0.372776
0.387110 0.391110 0.400038
0.411798 0.415798 0.424520
0.433078 0.437078 0.445621
0.450531 0.454531 0.462928
0.364659 0.368659 0.377775
0.379269 0.383269 0.392263
0.398104 0.402104 0.410940
0.420601 0.424601 0.433249
0.446397 0.450397 0.458829
0.473888 0.477888 0.486090
0.498577 0.502577 0.510572
0.519856 0.523856 0.531673
0.537310 0.541310 0.548981
0.457142 0.461142 0.469483
0.471751 0.475751 0.483971
0.490586 0.494586 0.502648
0.513084 0.517084 0.524957
0.538879 0.542879 0.550537
0.566371 0.570371 0.577798
0.591059 0.595059 0.602281
0.612338 0.616338 0.623382
0.629792 0.633792 0.640689
0.540196 0.544196 0.551843
0.554806 0.558806 0.566331
0.573641 0.577641 0.585008
0.596138 0.600138 0.607317
0.621934 0.625934 0.632897
0.649425 0.653425 0.660158
0.674114 0.678114 0.684640
0.695393 0.699393 0.705741
0.712847 0.716847 0.723049
0.611781 0.615781 0.622829
0.626390 0.630390 0.637316
0.645225 0.649225 0.655993
0.667723 0.671723 0.678302
0.693518 0.697518 0.703882
0.721010 0.725010 0.731143
0.745698 0.749698 0.755626
0.766978 0.770978 0.776727
0.784431 0.788431 0.794034
0.670495 0.674495 0.681051
0.685104 0.689104 0.695539
0.703939 0.707939 0.714216
0.726437 0.730437 0.736525
0.752232 0.756232 0.762105
0.779724 0.783724 0.789366
0.804412 0.808412 0.813848
0.825692 0.829692 0.834949
0.843145 0.847145 0.852257
0.098449 0.102449 0.113792
0.113059 0.117059 0.128280
0.131894 0.135894 0.146957
0.154391 0.158391 0.169266
0.180187 0.184187 0.194846
0.207678 0.211678 0.222107
0.232367 0.236367 0.246589
0.253646 0.257646 0.267690
0.271099 0.275099 0.284998
0.147597 0.151597 0.162529
0.162207 0.166207 0.177017
0.181042 0.185042 0.195694
0.203539 0.207539 0.218003
0.229335 0.233335 0.243583
0.256826 0.260826 0.270844
0.281515 0.285515 0.295326
0.302794 0.306794 0.316427
0.320247 0.324247 0.333735
0.210959 0.214959 0.225361
0.225569 0.229569 0.239849
0.244404 0.248404 0.258526
0.266901 0.270901 0.280835
0.292697 0.296697 0.306415
0.320188 0.324188 0.333676
0.344877 0.348877 0.358158
0.366156 0.370156 0.379259
0.383609 0.387609 0.396567
0.286641 0.290641 0.300410
0.301251 0.305251 0.314897
0.320086 0.324086 0.333575
0.342583 0.346583 0.355884
0.368379 0.372379 0.381464
0.395870 0.399870 0.408725
0.420559 0.424559 0.433207
0.441838 0.445838 0.454308
0.459291 0.463291 0.471615
0.373420 0.377420 0.386462
0.388030 0.392030 0.400950
0.406865 0.410865 0.419627
0.429362 0.433362 0.441936
0.455158 0.459158 0.467516
0.482649 0.486649 0.494777
0.507338 0.511338 0.519260
0.528617 0.532617 0.540361
0.546070 0.550070 0.557668
0.465902 0.469902 0.478171
0.480512 0.484512 0.492658
0.499347 0.503347 0.511335
0.521844 0.525844 0.533644
0.547640 0.551640 0.559224
0.575131 0.579131 0.586485
0.599820 0.603820 0.610968
0.621099 0.625099 0.632069
0.638552 0.642552 0.649376
0.548957 0.552957 0.560530
0.563567 0.567567 0.575018
0.582402 0.586402 0.593695
0.604899 0.608899 0.616004
0.630694 0.634694 0.641584
0.658186 0.662186 0.668845
0.682875 0.686875 0.693327
0.704154 0.708154 0.714429
0.721607 0.725607 0.731736
0.620541 0.624541 0.631516
0.635151 0.639151 0.646003
0.653986 0.657986 0.664680
0.676483 0.680483 0.686989
0.702279 0.706279 0.712569
0.729770 0.733770 0.739830
0.754459 0.758459 0.764313
0.775738 0.779738 0.785414
0.793191 0.797191 0.802721
0.679255 0.683255 0.689738
0.693865 0.697865 0.704226
0.712700 0.716700 0.722903
0.735197 0.739197 0.745212
0.760993 0.764993 0.770792
0.788484 0.792484 0.798053
0.813173 0.817173 0.822535
0.834452 0.838452 0.843636
0.851905 0.855905 0.860944
0.107785 0.111785 0.123050
0.122395 0.126395 0.137538
0.141230 0.145230 0.156215
0.163727 0.167727 0.178524
0.189523 0.193523 0.204104
0.217014 0.221014 0.231365
0.241703 0.245703 0.255847
0.262982 0.266982 0.276948
0.280435 0.284435 0.294256
0.156933 0.160933 0.171787
0.171543 0.175543 0.186275
0.190378 0.194378 0.204952
0.212875 0.216875 0.227261
0.238671 0.242671 0.252841
0.266162 0.270162 0.280102
0.290851 0.294851 0.304584
0.312130 0.316130 0.325686
0.329583 0.333583 0.342993
0.220295 0.224295 0.234619
0.234905 0.238905 0.249107
0.253740 0.257740 0.267784
0.276237 0.280237 0.290093
0.302033 0.306033 0.315673
0.329524 0.333524 0.342934
0.354213 0.358213 0.367416
0.375492 0.379492 0.388517
0.392946 0.396946 0.405825
0.295977 0.299977 0.309668
0.310587 0.314587 0.324155
0.329422 0.333422 0.342833
0.351919 0.355919 0.365142
0.377715 0.381715 0.390722
0.405206 0.409206 0.417983
0.429895 0.433895 0.442465
0.451174 0.455174 0.463566
0.468627 0.472627 0.480873
0.382756 0.386756 0.395720
0.397366 0.401366 0.410208
0.416201 0.420201 0.428885
0.438698 0.442698 0.451194
0.464494 0.468494 0.476774
0.491985 0.495985 0.504035
0.516674 0.520674 0.528518
0.537953 0.541953 0.549619
0.555406 0.559406 0.566926
0.475238 0.479238 0.487429
0.489848 0.493848 0.501916
0.508683 0.512683 0.520594
0.531180 0.535180 0.542902
0.556976 0.560976 0.568482
0.584467 0.588467 0.595743
0.609156 0.613156 0.620226
0.630435 0.634435 0.641327
0.647888 0.651888 0.658634
0.558293 0.562293 0.569788
0.572903 0.576903 0.584276
0.591738 0.595738 0.602953
0.614235 0.618235 0.625262
0.640031 0.644031 0.650842
0.667522 0.671522 0.678103
0.692211 0.696211 0.702585
0.713490 0.717490 0.723687
0.730943 0.734943 0.740994
0.629877 0.633877 0.640774
0.644487 0.648487 0.655261
0.663322 0.667322 0.673939
0.685819 0.689819 0.696247
0.711615 0.715615 0.721827
0.739106 0.743106 0.749089
0.763795 0.767795 0.773571
0.785074 0.789074 0.794672
0.802527 0.806527 0.811979
0.688591 0.692591 0.698996
0.703201 0.707201 0.713484
0.722036 0.726036 0.732161
0.744533 0.748533 0.754470
0.770329 0.774329 0.780050
0.797820 0.801820 0.807311
0.822509 0.826509 0.831793
0.843788 0.847788 0.852894
0.861241 0.865241 0.870202
0.116169 0.120169 0.131365
0.130779 0.134779 0.145852
0.149614 0.153614 0.164530
0.172111 0.176111 0.186838
0.197907 0.201907 0.212418
0.225398 0.229398 0.239679
0.250087 0.254087 0.264162
0.271366 0.275366 0.285263
0.288819 0.292819 0.302570
0.165318 0.169318 0.180102
0.179927 0.183927 0.194589
0.198762 0.202762 0.213267
0.221260 0.225260 0.235575
0.247055 0.251055 0.261155
0.274547 0.278547 0.288417
0.299235 0.303235 0.312899
0.320515 0.324515 0.334000
0.337968 0.341968 0.351307
0.228680 0.232680 0.242934
0.243290 0.247290 0.257421
0.262125 0.266125 0.276099
0.284622 0.288622 0.298407
0.310418 0.314418 0.323987
0.337909 0.341909 0.351249
0.362598 0.366598 0.375731
0.383877 0.387877 0.396832
0.401330 0.405330 0.414139
0.304362 0.308362 0.317982
0.318971 0.322971 0.332470
0.337806 0.341806 0.351147
0.360304 0.364304 0.373456
0.386099 0.390099 0.399036
0.413591 0.417591 0.426297
0.438279 0.442279 0.450779
0.459558 0.463558 0.471880
0.477012 0.481012 0.489187
0.391140 0.395140 0.404035
0.405750 0.409750 0.418522
0.424585 0.428585 0.437200
0.447082 0.451082 0.459509
0.472878 0.476878 0.485088
0.500369 0.504369 0.512350
0.525058 0.529058 0.536832
0.546337 0.550337 0.557933
0.563791 0.567791 0.575240
0.483623 0.487623 0.495743
0.498232 0.502232 0.510230
0.517067 0.521067 0.528908
0.539564 0.543564 0.551217
0.565360 0.569360 0.576797
0.592852 0.596852 0.604058
0.617540 0.621540 0.628540
0.638819 0.642819 0.649641
0.656273 0.660273 0.666948
0.566677 0.570677 0.578103
0.581287 0.585287 0.592590
0.600122 0.604122 0.611268
0.622619 0.626619 0.633576
0.648415 0.652415 0.659156
0.675906 0.679906 0.686418
0.700595 0.704595 0.710900
0.721874 0.725874 0.732001
0.739328 0.743327 0.749308
0.638262 0.642262 0.649088
0.652871 0.656871 0.663575
0.671706 0.675706 0.682253
0.694204 0.698204 0.704562
0.719999 0.723999 0.730142
0.747491 0.751491 0.757403
0.772179 0.776179 0.781885
0.793459 0.797459 0.802986
0.810912 0.814912 0.820293
0.696976 0.700976 0.707311
0.711585 0.715585 0.721798
0.730420 0.734420 0.740475
0.752918 0.756918 0.762784
0.778713 0.782713 0.788364
0.806204 0.810205 0.815625
0.830893 0.834893 0.840108
0.852172 0.856173 0.861209
0.869626 0.873626 0.878516
0.123396 0.127396 0.138531
0.138006 0.142006 0.153018
0.156841 0.160841 0.171696
0.179338 0.183338 0.194004
0.205134 0.209134 0.219584
0.232625 0.236625 0.246845
0.257314 0.261314 0.271328
0.278593 0.282593 0.292429
0.296046 0.300046 0.309736
0.172544 0.176544 0.187268
0.187154 0.191154 0.201755
0.205989 0.209989 0.220433
0.228486 0.232486 0.242741
0.254282 0.258282 0.268321
0.281773 0.285773 0.295583
0.306462 0.310462 0.320065
0.327741 0.331741 0.341166
0.345194 0.349194 0.358473
0.235906 0.239906 0.250100
0.250516 0.254516 0.264587
0.269351 0.273351 0.283265
0.291848 0.295848 0.305573
0.317644 0.321644 0.331153
0.345135 0.349135 0.358415
0.369824 0.373824 0.382897
0.391103 0.395103 0.403998
0.408557 0.412557 0.421305
0.311588 0.315588 0.325148
0.326198 0.330198 0.339636
0.345033 0.349033 0.358313
0.367530 0.371530 0.380622
0.393326 0.397326 0.406202
0.420817 0.424817 0.433463
0.445506 0.449506 0.457945
0.466785 0.470785 0.479046
0.484238 0.488238 0.496353
0.398367 0.402367 0.411201
0.412977 0.416977 0.425688
0.431812 0.435812 0.444366
0.454309 0.458309 0.466675
0.480105 0.484105 0.492255
0.507596 0.511596 0.519516
0.532285 0.536285 0.543998
0.553564 0.557564 0.565099
0.571017 0.575017 0.582406
0.490849 0.494849 0.502909
0.505459 0.509459 0.517396
0.524294 0.528294 0.536074
0.546791 0.550791 0.558383
0.572587 0.576587 0.583963
0.600078 0.604078 0.611224
0.624767 0.628767 0.635706
0.646046 0.650046 0.656807
0.663499 0.667499 0.674114
0.573904 0.577904 0.585269
0.588514 0.592514 0.599756
0.607349 0.611349 0.618434
0.629846 0.633846 0.640742
0.655642 0.659642 0.666322
0.683133 0.687133 0.693584
0.707822 0.711822 0.718066
0.729101 0.733101 0.739167
0.746554 0.750554 0.756474
0.645488 0.649488 0.656254
0.660098 0.664098 0.670741
0.678933 0.682933 0.689419
0.701430 0.705430 0.711728
0.727226 0.731226 0.737308
0.754717 0.758717 0.764569
0.779406 0.783406 0.789051
0.800685 0.804685 0.810152
0.818138 0.822138 0.827459
0.704202 0.708202 0.714477
0.718812 0.722812 0.728964
0.737647 0.741647 0.747641
0.760144 0.764144 0.769950
0.785940 0.789940 0.795530
0.813431 0.817431 0.822791
0.838120 0.842120 0.847274
0.859399 0.863399 0.868375
0.876852 0.880852 0.885682
0.129323 0.133323 0.144408
0.143933 0.147933 0.158896
0.162768 0.166768 0.177573
0.185265 0.189265 0.199882
0.211061 0.215061 0.225462
0.238552 0.242552 0.252723
0.263241 0.267241 0.277205
0.284520 0.288520 0.298306
0.301973 0.305973 0.315614
0.178471 0.182471 0.193145
0.193081 0.197081 0.207633
0.211916 0.215916 0.226310
0.234413 0.238413 0.248619
0.260209 0.264209 0.274199
0.287700 0.291700 0.301460
0.312389 0.316389 0.325942
0.333668 0.337668 0.347043
0.351122 0.355122 0.364351
0.241834 0.245834 0.255977
0.256443 0.260443 0.270465
0.275278 0.279278 0.289142
0.297776 0.301776 0.311451
0.323571 0.327571 0.337031
0.351063 0.355063 0.364292
0.375751 0.379751 0.388774
0.397030 0.401030 0.409875
0.414484 0.418484 0.427183
0.317515 0.321515 0.331026
0.332125 0.336125 0.345513
0.350960 0.354960 0.364191
0.373457 0.377457 0.386499
0.399253 0.403253 0.412079
0.426744 0.430744 0.439341
0.451433 0.455433 0.463823
0.472712 0.476712 0.484924
0.490165 0.494165 0.502231
0.404294 0.408294 0.417078
0.418904 0.422904 0.431566
0.437739 0.441739 0.450243
0.460236 0.464236 0.472552
0.486032 0.490032 0.498132
0.513523 0.517523 0.525393
0.538212 0.542212 0.549875
0.559491 0.563491 0.570976
0.576944 0.580944 0.588284
0.496776 0.500776 0.508786
0.511386 0.515386 0.523274
0.530221 0.534221 0.541951
0.552718 0.556718 0.564260
0.578514 0.582514 0.589840
0.606005 0.610005 0.617101
0.630694 0.634694 0.641584
0.651973 0.655973 0.662685
0.669426 0.673426 0.679992
0.579831 0.583831 0.591146
0.594441 0.598441 0.605634
0.613276 0.617276 0.624311
0.635773 0.639773 0.646620
0.661569 0.665569 0.672200
0.689060 0.693060 0.699461
0.713749 0.717749 0.723943
0.735028 0.739028 0.745044
0.752481 0.756481 0.762352
0.651415 0.655415 0.662132
0.666025 0.670025 0.676619
0.684860 0.688860 0.695296
0.707357 0.711357 0.717605
0.733153 0.737153 0.743185
0.760644 0.764644 0.770446
0.785333 0.789333 0.794929
0.806612 0.810612 0.816030
0.824066 0.828066 0.833337
0.710129 0.714129 0.720354
0.724739 0.728739 0.734842
0.743574 0.747574 0.753519
0.766071 0.770071 0.775828
0.791867 0.795867 0.801408
0.819358 0.823358 0.828669
0.844047 0.848047 0.853151
0.865326 0.869326 0.874252
0.882779 0.886779 0.891560
