crates/agx-e2e/fixtures/looks/luts/bw_lofi.cube
TITLE "bw_lofi"
LUT_3D_SIZE 5
DOMAIN_MIN 0.0 0.0 0.0
DOMAIN_MAX 1.0 1.0 1.0
0.070690 0.074690 0.086266
0.104135 0.108135 0.119431
0.152428 0.156428 0.167320
0.204608 0.208608 0.219063
0.243340 0.247340 0.257471
0.183201 0.187201 0.197835
0.216646 0.220646 0.231000
0.264939 0.268939 0.278889
0.317119 0.321119 0.330632
0.355851 0.359851 0.369040
0.345661 0.349661 0.358936
0.379106 0.383106 0.392101
0.427399 0.431399 0.439990
0.479579 0.483579 0.491733
0.518312 0.522311 0.530141
0.521198 0.525198 0.533004
0.554643 0.558643 0.566169
0.602936 0.606936 0.614058
0.655116 0.659116 0.665801
0.693848 0.697848 0.704210
0.651496 0.655496 0.662212
0.684941 0.688941 0.695377
0.733234 0.737234 0.743266
0.785414 0.789414 0.795009
0.824147 0.828147 0.833417
0.082048 0.086048 0.097529
0.115493 0.119493 0.130694
0.163786 0.167786 0.178583
0.215966 0.219966 0.230326
0.254698 0.258698 0.268734
0.194559 0.198559 0.209098
0.228004 0.232004 0.242263
0.276297 0.280297 0.290152
0.328477 0.332477 0.341895
0.367209 0.371209 0.380303
0.357019 0.361019 0.370199
0.390464 0.394464 0.403364
0.438757 0.442757 0.451253
0.490937 0.494937 0.502996
0.529669 0.533669 0.541404
0.532556 0.536556 0.544267
0.566001 0.570001 0.577432
0.614294 0.618294 0.625321
0.666474 0.670474 0.677064
0.705206 0.709206 0.715472
0.662854 0.666855 0.673475
0.696299 0.700299 0.706640
0.744592 0.748592 0.754529
0.796772 0.800772 0.806272
0.835505 0.839505 0.844680
0.098449 0.102449 0.113792
0.131894 0.135894 0.146957
0.180187 0.184187 0.194846
0.232367 0.236367 0.246589
0.271099 0.275099 0.284998
0.210959 0.214959 0.225361
0.244404 0.248404 0.258526
0.292697 0.296697 0.306415
0.344877 0.348877 0.358158
0.383609 0.387609 0.396567
0.373420 0.377420 0.386462
0.406865 0.410865 0.419627
0.455158 0.459158 0.467516
0.507338 0.511338 0.519260
0.546070 0.550070 0.557668
0.548957 0.552957 0.560530
0.582402 0.586402 0.593695
0.630694 0.634694 0.641584
0.682875 0.686875 0.693327
0.721607 0.725607 0.731736
0.679255 0.683255 0.689738
0.712700 0.716700 0.722903
0.760993 0.764993 0.770792
0.813173 0.817173 0.822535
0.851905 0.855905 0.860944
0.116169 0.120169 0.131365
0.149614 0.153614 0.164530
0.197907 0.201907 0.212418
0.250087 0.254087 0.264162
0.288819 0.292819 0.302570
0.228680 0.232680 0.242934
0.262125 0.266125 0.276099
0.310418 0.314418 0.323987
0.362598 0.366598 0.375731
0.401330 0.405330 0.414139
0.391140 0.395140 0.404035
0.424585 0.428585 0.437200
0.472878 0.476878 0.485088
0.525058 0.529058 0.536832
0.563791 0.567791 0.575240
0.566677 0.570677 0.578103
0.600122 0.604122 0.611268
0.648415 0.652415 0.659156
0.700595 0.704595 0.710900
0.739328 0.743327 0.749308
0.696976 0.700976 0.707311
0.730420 0.734420 0.740475
0.778713 0.782713 0.788364
0.830893 0.834893 0.840108
0.869626 0.873626 0.878516
0.129323 0.133323 0.144408
0.162768 0.166768 0.177573
0.211061 0.215061 0.225462
0.263241 0.267241 0.277205
0.301973 0.305973 0.315614
0.241834 0.245834 0.255977
0.275278 0.279278 0.289142
0.323571 0.327571 0.337031
0.375751 0.379751 0.388774
0.414484 0.418484 0.427183
0.404294 0.408294 0.417078
0.437739 0.441739 0.450243
0.486032 0.490032 0.498132
0.538212 0.542212 0.549875
0.576944 0.580944 0.588284
0.579831 0.583831 0.591146
0.613276 0.617276 0.624311
0.661569 0.665569 0.672200
0.713749 0.717749 0.723943
0.752481 0.756481 0.762352
0.710129 0.714129 0.720354
0.743574 0.747574 0.753519
0.791867 0.795867 0.801408
0.844047 0.848047 0.853151
0.882779 0.886779 0.891560
