crates/agx-e2e/fixtures/looks/luts/bw_street.cube
TITLE "bw_street"
LUT_3D_SIZE 9
DOMAIN_MIN 0.0 0.0 0.0
DOMAIN_MAX 1.0 1.0 1.0
0.073275 0.058500 0.048500
0.078942 0.064212 0.054212
0.096743 0.082155 0.072155
0.127159 0.112813 0.102813
0.170457 0.156455 0.146455
0.213755 0.200098 0.190098
0.244171 0.230756 0.220756
0.261972 0.248699 0.238699
0.267639 0.254411 0.244411
0.092340 0.077716 0.067716
0.098007 0.083429 0.073429
0.115808 0.101371 0.091371
0.146224 0.132029 0.122029
0.189522 0.175672 0.165672
0.232820 0.219314 0.209314
0.263236 0.249973 0.239973
0.281037 0.267915 0.257915
0.286704 0.273627 0.263627
0.152223 0.138076 0.128076
0.157890 0.143788 0.133788
0.175691 0.161731 0.151731
0.206107 0.192389 0.182389
0.249405 0.236031 0.226031
0.292703 0.279674 0.269674
0.323119 0.310332 0.300332
0.340920 0.328275 0.318275
0.346587 0.333987 0.323987
0.254545 0.241213 0.231213
0.260212 0.246925 0.236925
0.278013 0.264867 0.254867
0.308429 0.295526 0.285526
0.351727 0.339168 0.329168
0.395025 0.382810 0.372810
0.425441 0.413469 0.403469
0.443242 0.431411 0.421411
0.448909 0.437123 0.427123
0.400202 0.388028 0.378028
0.405869 0.393741 0.383741
0.423670 0.411683 0.401683
0.454086 0.442341 0.432341
0.497384 0.485984 0.475984
0.540682 0.529626 0.519626
0.571098 0.560285 0.550285
0.588899 0.578227 0.568227
0.594566 0.583939 0.573939
0.545859 0.534844 0.524844
0.551526 0.540556 0.530556
0.569327 0.558499 0.548499
0.599743 0.589157 0.579157
0.643041 0.632800 0.622800
0.686339 0.676442 0.666442
0.716755 0.707100 0.697100
0.734556 0.725043 0.715043
0.740223 0.730755 0.720755
0.648181 0.637981 0.627981
0.653848 0.643693 0.633693
0.671649 0.661636 0.651636
0.702065 0.692294 0.682294
0.745363 0.735936 0.725936
0.788661 0.779579 0.769579
0.819077 0.810237 0.800237
0.836878 0.828180 0.818180
0.842545 0.833892 0.823892
0.708064 0.698340 0.688340
0.713731 0.704053 0.694053
0.731532 0.721995 0.711995
0.761948 0.752653 0.742653
0.805246 0.796296 0.786296
0.848544 0.839938 0.829938
0.878960 0.870597 0.860597
0.896761 0.888539 0.878539
0.902428 0.894251 0.884251
0.727129 0.717557 0.707557
0.732796 0.723269 0.713269
0.750597 0.741211 0.731211
0.781013 0.771870 0.761870
0.824311 0.815512 0.805512
0.867609 0.859155 0.849155
0.898025 0.889813 0.879813
0.915826 0.907755 0.897755
0.921493 0.913468 0.903468
0.075200 0.060440 0.050440
0.080867 0.066152 0.056152
0.098668 0.084095 0.074095
0.129084 0.114753 0.104753
0.172382 0.158395 0.148395
0.215680 0.202038 0.192038
0.246096 0.232696 0.222696
0.263897 0.250639 0.240639
0.269564 0.256351 0.246351
0.094264 0.079656 0.069656
0.099931 0.085368 0.075368
0.117732 0.103311 0.093311
0.148148 0.133969 0.123969
0.191446 0.177612 0.167612
0.234744 0.221254 0.211254
0.265160 0.251912 0.241912
0.282961 0.269855 0.259855
0.288628 0.275567 0.265567
0.154147 0.140016 0.130016
0.159814 0.145728 0.135728
0.177615 0.163670 0.153670
0.208031 0.194329 0.184329
0.251329 0.237971 0.227971
0.294627 0.281614 0.271614
0.325043 0.312272 0.302272
0.342844 0.330214 0.320214
0.348511 0.335927 0.325927
0.256470 0.243152 0.233152
0.262137 0.248865 0.238865
0.279938 0.266807 0.256807
0.310354 0.297466 0.287466
0.353652 0.341108 0.331108
0.396950 0.384750 0.374750
0.427366 0.415409 0.405409
0.445167 0.433351 0.423351
0.450834 0.439063 0.429063
0.402126 0.389968 0.379968
0.407794 0.395681 0.385681
0.425594 0.413623 0.403623
0.456011 0.444281 0.434281
0.499309 0.487924 0.477924
0.542606 0.531566 0.521566
0.573023 0.562225 0.552225
0.590824 0.580167 0.570167
0.596491 0.585879 0.575879
0.547783 0.536784 0.526784
0.553450 0.542496 0.532496
0.571251 0.560439 0.550439
0.601667 0.591097 0.581097
0.644965 0.634740 0.624740
0.688263 0.678382 0.668382
0.718679 0.709040 0.699040
0.736480 0.726983 0.716983
0.742147 0.732695 0.722695
0.650106 0.639921 0.629921
0.655773 0.645633 0.635633
0.673574 0.663575 0.653575
0.703990 0.694234 0.684234
0.747288 0.737876 0.727876
0.790586 0.781519 0.771519
0.821002 0.812177 0.802177
0.838803 0.830119 0.820120
0.844470 0.835832 0.825832
0.709989 0.700280 0.690280
0.715656 0.705993 0.695993
0.733457 0.723935 0.713935
0.763873 0.754593 0.744593
0.807171 0.798236 0.788236
0.850469 0.841878 0.831878
0.880885 0.872537 0.862537
0.898686 0.890479 0.880479
0.904353 0.896191 0.886191
0.729053 0.719497 0.709497
0.734720 0.725209 0.715209
0.752521 0.743151 0.733151
0.782938 0.773810 0.763810
0.826236 0.817452 0.807452
0.869533 0.861095 0.851095
0.899950 0.891753 0.881753
0.917750 0.909695 0.899695
0.923418 0.915408 0.905408
0.081245 0.066533 0.056533
0.086912 0.072245 0.062245
0.104713 0.090188 0.080188
0.135129 0.120846 0.110846
0.178427 0.164489 0.154489
0.221725 0.208131 0.198131
0.252141 0.238789 0.228789
0.269942 0.256732 0.246732
0.275609 0.262444 0.252444
0.100309 0.085750 0.075750
0.105977 0.091462 0.081462
0.123777 0.109404 0.099404
0.154194 0.140063 0.130063
0.197492 0.183705 0.173705
0.240789 0.227347 0.217347
0.271206 0.258006 0.248006
0.289007 0.275948 0.265948
0.294674 0.281660 0.271660
0.160192 0.146109 0.136109
0.165860 0.151821 0.141821
0.183660 0.169764 0.159764
0.214077 0.200422 0.190422
0.257375 0.244065 0.234065
0.300672 0.287707 0.277707
0.331089 0.318365 0.308365
0.348890 0.336308 0.326308
0.354557 0.342020 0.332020
0.262515 0.249246 0.239246
0.268182 0.254958 0.244958
0.285983 0.272901 0.262901
0.316399 0.303559 0.293559
0.359697 0.347201 0.337201
0.402995 0.390844 0.380844
0.433411 0.421502 0.411502
0.451212 0.439444 0.429444
0.456879 0.445157 0.435157
0.408172 0.396062 0.386062
0.413839 0.401774 0.391774
0.431640 0.419716 0.409716
0.462056 0.450375 0.440375
0.505354 0.494017 0.484017
0.548652 0.537660 0.527659
0.579068 0.568318 0.558318
0.596869 0.586260 0.576260
0.602536 0.591972 0.581972
0.553828 0.542877 0.532877
0.559496 0.548590 0.538590
0.577296 0.566532 0.556532
0.607713 0.597190 0.587191
0.651011 0.640833 0.630833
0.694308 0.684475 0.674475
0.724725 0.715134 0.705134
0.742526 0.733076 0.723076
0.748193 0.738788 0.728788
0.656151 0.646014 0.636014
0.661818 0.651726 0.641726
0.679619 0.669669 0.659669
0.710035 0.700327 0.690327
0.753333 0.743970 0.733970
0.796631 0.787612 0.777612
0.827047 0.818270 0.808270
0.844848 0.836213 0.826213
0.850515 0.841925 0.831925
0.716034 0.706374 0.696374
0.721701 0.712086 0.702086
0.739502 0.730028 0.720028
0.769918 0.760687 0.750687
0.813216 0.804329 0.794329
0.856514 0.847971 0.837972
0.886930 0.878630 0.868630
0.904731 0.896572 0.886572
0.910398 0.902285 0.892285
0.735098 0.725590 0.715590
0.740766 0.731302 0.721302
0.758566 0.749245 0.739245
0.788983 0.779903 0.769903
0.832281 0.823546 0.813546
0.875578 0.867188 0.857188
0.905995 0.897846 0.887846
0.923796 0.915789 0.905789
0.929463 0.921501 0.911501
0.091574 0.076945 0.066945
0.097241 0.082657 0.072657
0.115042 0.100600 0.090600
0.145459 0.131258 0.121258
0.188756 0.174900 0.164900
0.232054 0.218543 0.208543
0.262471 0.249201 0.239201
0.280271 0.267144 0.257144
0.285939 0.272856 0.262856
0.110639 0.096161 0.086161
0.116306 0.101874 0.091874
0.134107 0.119816 0.109816
0.164523 0.150474 0.140474
0.207821 0.194117 0.184117
0.251119 0.237759 0.227759
0.281535 0.268417 0.258417
0.299336 0.286360 0.276360
0.305003 0.292072 0.282072
0.170522 0.156521 0.146521
0.176189 0.162233 0.152233
0.193990 0.180176 0.170176
0.224406 0.210834 0.200834
0.267704 0.254476 0.244476
0.311002 0.298119 0.288119
0.341418 0.328777 0.318777
0.359219 0.346720 0.336720
0.364886 0.352432 0.342432
0.272844 0.259658 0.249658
0.278512 0.265370 0.255370
0.296312 0.283312 0.273312
0.326729 0.313971 0.303971
0.370027 0.357613 0.347613
0.413324 0.401255 0.391255
0.443741 0.431914 0.421914
0.461542 0.449856 0.439856
0.467209 0.455568 0.445568
0.418501 0.406473 0.396473
0.424168 0.412186 0.402186
0.441969 0.430128 0.420128
0.472385 0.460786 0.450786
0.515683 0.504429 0.494429
0.558981 0.548071 0.538071
0.589397 0.578730 0.568730
0.607198 0.596672 0.586672
0.612865 0.602384 0.592384
0.564158 0.553289 0.543289
0.569825 0.559001 0.549001
0.587626 0.576944 0.566944
0.618042 0.607602 0.597602
0.661340 0.651245 0.641245
0.704638 0.694887 0.684887
0.735054 0.725545 0.715545
0.752855 0.743488 0.733488
0.758522 0.749200 0.739200
0.666480 0.656426 0.646426
0.672148 0.662138 0.652138
0.689948 0.680081 0.670081
0.720365 0.710739 0.700739
0.763663 0.754381 0.744381
0.806960 0.798024 0.788024
0.837377 0.828682 0.818682
0.855177 0.846624 0.836625
0.860845 0.852337 0.842337
0.726363 0.716785 0.706785
0.732031 0.722498 0.712498
0.749831 0.740440 0.730440
0.780248 0.771098 0.761099
0.823546 0.814741 0.804741
0.866843 0.858383 0.848383
0.897260 0.889042 0.879042
0.915061 0.906984 0.896984
0.920728 0.912696 0.902696
0.745428 0.736002 0.726002
0.751095 0.741714 0.731714
0.768896 0.759656 0.749656
0.799312 0.790315 0.780315
0.842610 0.833957 0.823957
0.885908 0.877600 0.867600
0.916324 0.908258 0.898258
0.934125 0.926200 0.916200
0.939792 0.931913 0.921913
0.106279 0.091766 0.081766
0.111946 0.097478 0.087478
0.129746 0.115421 0.105421
0.160163 0.146079 0.136079
0.203461 0.189722 0.179722
0.246759 0.233364 0.223364
0.277175 0.264022 0.254022
0.294976 0.281965 0.271965
0.300643 0.287677 0.277677
0.125343 0.110982 0.100982
0.131010 0.116695 0.106695
0.148811 0.134637 0.124637
0.179227 0.165296 0.155296
0.222525 0.208938 0.198938
0.265823 0.252580 0.242580
0.296239 0.283239 0.273239
0.314040 0.301181 0.291181
0.319707 0.306893 0.296893
0.185226 0.171342 0.161342
0.190893 0.177054 0.167054
0.208694 0.194997 0.184997
0.239110 0.225655 0.215655
0.282408 0.269297 0.259297
0.325706 0.312940 0.302940
0.356122 0.343598 0.333598
0.373923 0.361541 0.351541
0.379590 0.367253 0.357253
0.287549 0.274479 0.264479
0.293216 0.280191 0.270191
0.311017 0.298133 0.288133
0.341433 0.328792 0.318792
0.384731 0.372434 0.362434
0.428029 0.416077 0.406077
0.458445 0.446735 0.436735
0.476246 0.464677 0.454677
0.481913 0.470390 0.460390
0.433205 0.421295 0.411295
0.438873 0.427007 0.417007
0.456673 0.444949 0.434949
0.487090 0.475608 0.465608
0.530388 0.519250 0.509250
0.573685 0.562892 0.552892
0.604102 0.593551 0.583551
0.621902 0.611493 0.601493
0.627570 0.617205 0.607205
0.578862 0.568110 0.558110
0.584529 0.573823 0.563823
0.602330 0.591765 0.581765
0.632746 0.622423 0.612423
0.676044 0.666066 0.656066
0.719342 0.709708 0.699708
0.749758 0.740367 0.730367
0.767559 0.758309 0.748309
0.773226 0.764021 0.754021
0.681185 0.671247 0.661247
0.686852 0.676959 0.666959
0.704652 0.694902 0.684902
0.735069 0.725560 0.715560
0.778367 0.769202 0.759202
0.821665 0.812845 0.802845
0.852081 0.843503 0.833503
0.869882 0.861446 0.851446
0.875549 0.867158 0.857158
0.741068 0.731607 0.721607
0.746735 0.737319 0.727319
0.764536 0.755261 0.745261
0.794952 0.785920 0.775920
0.838250 0.829562 0.819562
0.881548 0.873204 0.863204
0.911964 0.903863 0.893863
0.929765 0.921805 0.911805
0.935432 0.927517 0.917517
0.760132 0.750823 0.740823
0.765799 0.756535 0.746535
0.783600 0.774478 0.764478
0.814016 0.805136 0.795136
0.857314 0.848778 0.838778
0.900612 0.892421 0.882421
0.931029 0.923079 0.913079
0.948829 0.941022 0.931022
0.954496 0.946734 0.936734
0.120983 0.106587 0.096587
0.126650 0.112300 0.102300
0.144451 0.130242 0.120242
0.174867 0.160900 0.150900
0.218165 0.204543 0.194543
0.261463 0.248185 0.238185
0.291879 0.278844 0.268844
0.309680 0.296786 0.286786
0.315347 0.302498 0.292498
0.140047 0.125804 0.115804
0.145714 0.131516 0.121516
0.163515 0.149458 0.139458
0.193932 0.180117 0.170117
0.237229 0.223759 0.213759
0.280527 0.267401 0.257401
0.310944 0.298060 0.288060
0.328744 0.316002 0.306002
0.334412 0.321715 0.311715
0.199930 0.186163 0.176163
0.205597 0.191875 0.181875
0.223398 0.209818 0.199818
0.253815 0.240476 0.230476
0.297112 0.284119 0.274119
0.340410 0.327761 0.317761
0.370827 0.358419 0.348419
0.388627 0.376362 0.366362
0.394295 0.382074 0.372074
0.302253 0.289300 0.279300
0.307920 0.295012 0.285012
0.325721 0.312955 0.302955
0.356137 0.343613 0.333613
0.399435 0.387255 0.377255
0.442733 0.430898 0.420898
0.473149 0.461556 0.451556
0.490950 0.479499 0.469499
0.496617 0.485211 0.475211
0.447910 0.436116 0.426116
0.453577 0.441828 0.431828
0.471377 0.459770 0.449770
0.501794 0.490429 0.480429
0.545092 0.534071 0.524071
0.588390 0.577714 0.567714
0.618806 0.608372 0.598372
0.636607 0.626314 0.616314
0.642274 0.632027 0.622027
0.593566 0.582932 0.572932
0.599233 0.588644 0.578644
0.617034 0.606586 0.596586
0.647451 0.637245 0.627245
0.690748 0.680887 0.670887
0.734046 0.724529 0.714529
0.764463 0.755188 0.745188
0.782263 0.773130 0.763130
0.787931 0.778842 0.768842
0.695889 0.686068 0.676068
0.701556 0.691780 0.681780
0.719357 0.709723 0.699723
0.749773 0.740381 0.730381
0.793071 0.784024 0.774024
0.836369 0.827666 0.817666
0.866785 0.858324 0.848324
0.884586 0.876267 0.866267
0.890253 0.881979 0.871979
0.755772 0.746428 0.736428
0.761439 0.752140 0.742140
0.779240 0.770082 0.760082
0.809656 0.800741 0.790741
0.852954 0.844383 0.834383
0.896252 0.888026 0.878026
0.926668 0.918684 0.908684
0.944469 0.936626 0.926626
0.950136 0.942339 0.932339
0.774836 0.765644 0.755644
0.780504 0.771356 0.761356
0.798304 0.789299 0.779299
0.828721 0.819957 0.809957
0.872018 0.863600 0.853600
0.915316 0.907242 0.897242
0.945733 0.937900 0.927900
0.963534 0.955843 0.945843
0.969201 0.961555 0.951555
0.131312 0.116999 0.106999
0.136979 0.122711 0.112711
0.154780 0.140654 0.130654
0.185196 0.171312 0.161312
0.228494 0.214955 0.204955
0.271792 0.258597 0.248597
0.302209 0.289255 0.279255
0.320009 0.307198 0.297198
0.325676 0.312910 0.302910
0.150377 0.136215 0.126215
0.156044 0.141928 0.131928
0.173845 0.159870 0.149870
0.204261 0.190528 0.180528
0.247559 0.234171 0.224171
0.290857 0.277813 0.267813
0.321273 0.308472 0.298472
0.339074 0.326414 0.316414
0.344741 0.332126 0.322126
0.210260 0.196575 0.186575
0.215927 0.202287 0.192287
0.233728 0.220230 0.210230
0.264144 0.250888 0.240888
0.307442 0.294530 0.284530
0.350740 0.338173 0.328173
0.381156 0.368831 0.358831
0.398957 0.386774 0.376774
0.404624 0.392486 0.382486
0.312582 0.299712 0.289712
0.318249 0.305424 0.295424
0.336050 0.323366 0.313366
0.366467 0.354025 0.344025
0.409764 0.397667 0.387667
0.453062 0.441309 0.431309
0.483479 0.471968 0.461968
0.501279 0.489910 0.479910
0.506947 0.495623 0.485623
0.458239 0.446527 0.436527
0.463906 0.452240 0.442240
0.481707 0.470182 0.460182
0.512123 0.500841 0.490841
0.555421 0.544483 0.534483
0.598719 0.588125 0.578125
0.629135 0.618784 0.608784
0.646936 0.636726 0.626726
0.652603 0.642438 0.632438
0.603896 0.593343 0.583343
0.609563 0.599055 0.589055
0.627364 0.616998 0.606998
0.657780 0.647656 0.637656
0.701078 0.691299 0.681299
0.744376 0.734941 0.724941
0.774792 0.765599 0.755599
0.792593 0.783542 0.773542
0.798260 0.789254 0.779254
0.706218 0.696480 0.686480
0.711885 0.702192 0.692192
0.729686 0.720135 0.710135
0.760103 0.750793 0.740793
0.803400 0.794435 0.784435
0.846698 0.838078 0.828078
0.877115 0.868736 0.858736
0.894915 0.886679 0.876679
0.900582 0.892391 0.882391
0.766101 0.756840 0.746839
0.771768 0.762552 0.752552
0.789569 0.780494 0.770494
0.819986 0.811153 0.801153
0.863283 0.854795 0.844795
0.906581 0.898437 0.888437
0.936998 0.929096 0.919096
0.954798 0.947038 0.937038
0.960465 0.952750 0.942750
0.785166 0.776056 0.766056
0.790833 0.781768 0.771768
0.808634 0.799711 0.789711
0.839050 0.830369 0.820369
0.882348 0.874011 0.864011
0.925646 0.917654 0.907654
0.956062 0.948312 0.938312
0.973863 0.966255 0.956255
0.979530 0.971967 0.961967
0.137357 0.123092 0.113092
0.143025 0.128805 0.118805
0.160825 0.146747 0.136747
0.191242 0.177405 0.167405
0.234540 0.221048 0.211048
0.277837 0.264690 0.254690
0.308254 0.295349 0.285349
0.326055 0.313291 0.303291
0.331722 0.319003 0.309003
0.156422 0.142309 0.132309
0.162089 0.148021 0.138021
0.179890 0.165963 0.155963
0.210306 0.196622 0.186622
0.253604 0.240264 0.230264
0.296902 0.283907 0.273907
0.327318 0.314565 0.304565
0.345119 0.332507 0.322507
0.350786 0.338220 0.328220
0.216305 0.202668 0.192668
0.221972 0.208380 0.198380
0.239773 0.226323 0.216323
0.270189 0.256981 0.246981
0.313487 0.300624 0.290624
0.356785 0.344266 0.334266
0.387201 0.374924 0.364924
0.405002 0.392867 0.382867
0.410669 0.398579 0.388579
0.318628 0.305805 0.295805
0.324295 0.311517 0.301517
0.342096 0.329460 0.319460
0.372512 0.360118 0.350118
0.415810 0.403760 0.393760
0.459108 0.447403 0.437403
0.489524 0.478061 0.468061
0.507325 0.496004 0.486004
0.512992 0.501716 0.491716
0.464284 0.452621 0.442621
0.469951 0.458333 0.448333
0.487752 0.476276 0.466275
0.518169 0.506934 0.496934
0.561466 0.550576 0.540576
0.604764 0.594219 0.584219
0.635181 0.624877 0.614877
0.652981 0.642819 0.632819
0.658648 0.648532 0.638532
0.609941 0.599437 0.589437
0.615608 0.605149 0.595149
0.633409 0.623091 0.613091
0.663825 0.653750 0.643750
0.707123 0.697392 0.687392
0.750421 0.741034 0.731034
0.780837 0.771693 0.761693
0.798638 0.789635 0.779635
0.804305 0.795347 0.785347
0.712263 0.702573 0.692573
0.717931 0.708286 0.698285
0.735731 0.726228 0.716228
0.766148 0.756886 0.746886
0.809446 0.800529 0.790529
0.852743 0.844171 0.834171
0.883160 0.874830 0.864830
0.900961 0.892772 0.882772
0.906628 0.898484 0.888484
0.772147 0.762933 0.752933
0.777814 0.768645 0.758645
0.795614 0.786588 0.776588
0.826031 0.817246 0.807246
0.869329 0.860888 0.850888
0.912627 0.904531 0.894531
0.943043 0.935189 0.925189
0.960844 0.953132 0.943132
0.966511 0.958844 0.948844
0.791211 0.782149 0.772149
0.796878 0.787861 0.777861
0.814679 0.805804 0.795804
0.845095 0.836462 0.826462
0.888393 0.880105 0.870105
0.931691 0.923747 0.913747
0.962108 0.954405 0.944405
0.979908 0.972348 0.962348
0.985575 0.978060 0.968060
0.139282 0.125032 0.115032
0.144949 0.130745 0.120745
0.162750 0.148687 0.138687
0.193166 0.179345 0.169345
0.236464 0.222988 0.212988
0.279762 0.266630 0.256630
0.310178 0.297289 0.287289
0.327979 0.315231 0.305231
0.333646 0.320943 0.310943
0.158347 0.144249 0.134249
0.164014 0.149961 0.139961
0.181815 0.167903 0.157903
0.212231 0.198562 0.188562
0.255529 0.242204 0.232204
0.298827 0.285846 0.275846
0.329243 0.316505 0.306505
0.347044 0.334447 0.324447
0.352711 0.340160 0.330159
0.218230 0.204608 0.194608
0.223897 0.210320 0.200320
0.241698 0.228263 0.218263
0.272114 0.258921 0.248921
0.315412 0.302564 0.292564
0.358710 0.346206 0.336206
0.389126 0.376864 0.366864
0.406927 0.394807 0.384807
0.412594 0.400519 0.390519
0.320552 0.307745 0.297745
0.326219 0.313457 0.303457
0.344020 0.331400 0.321400
0.374436 0.362058 0.352058
0.417734 0.405700 0.395700
0.461032 0.449343 0.439343
0.491448 0.480001 0.470001
0.509249 0.497944 0.487944
0.514916 0.503656 0.493656
0.466209 0.454561 0.444561
0.471876 0.460273 0.450273
0.489677 0.478215 0.468215
0.520093 0.508874 0.498874
0.563391 0.552516 0.542516
0.606689 0.596159 0.586159
0.637105 0.626817 0.616817
0.654906 0.644759 0.634759
0.660573 0.650472 0.640472
0.611866 0.601376 0.591376
0.617533 0.607089 0.597089
0.635334 0.625031 0.615031
0.665750 0.655690 0.645690
0.709048 0.699332 0.689332
0.752346 0.742974 0.732974
0.782762 0.773633 0.763633
0.800563 0.791575 0.781575
0.806230 0.797287 0.787287
0.714188 0.704513 0.694513
0.719855 0.710225 0.700225
0.737656 0.728168 0.718168
0.768072 0.758826 0.748826
0.811370 0.802469 0.792469
0.854668 0.846111 0.836111
0.885084 0.876769 0.866769
0.902885 0.894712 0.884712
0.908552 0.900424 0.890424
0.774071 0.764873 0.754873
0.779738 0.770585 0.760585
0.797539 0.788527 0.778527
0.827955 0.819186 0.809186
0.871253 0.862828 0.852828
0.914551 0.906471 0.896471
0.944967 0.937129 0.927129
0.962768 0.955071 0.945071
0.968435 0.960784 0.950784
0.793136 0.784089 0.774089
0.798803 0.789801 0.779801
0.816604 0.807744 0.797744
0.847020 0.838402 0.828402
0.890318 0.882045 0.872045
0.933616 0.925687 0.915687
0.964032 0.956345 0.946345
0.981833 0.974288 0.964288
0.987500 0.980000 0.970000
