crates/agx-e2e/fixtures/looks/luts/bw_street.cube
TITLE "bw_street"
LUT_3D_SIZE 33
DOMAIN_MIN 0.0 0.0 0.0
DOMAIN_MAX 1.0 1.0 1.0
0.073275 0.058500 0.048500
0.073605 0.058833 0.048833
0.074644 0.059879 0.049879
0.076417 0.061667 0.051667
0.078942 0.064212 0.054212
0.082229 0.067525 0.057525
0.086287 0.071616 0.061616
0.091123 0.076490 0.066490
0.096743 0.082155 0.072155
0.103152 0.088615 0.078615
0.110355 0.095875 0.085875
0.118356 0.103940 0.093940
0.127159 0.112813 0.102813
0.136768 0.122498 0.112498
0.147185 0.132998 0.122998
0.158414 0.144316 0.134316
0.170457 0.156455 0.146455
0.182500 0.168595 0.158595
0.193729 0.179913 0.169913
0.204146 0.190413 0.180413
0.213755 0.200098 0.190098
0.222558 0.208971 0.198971
0.230559 0.217036 0.207036
0.237762 0.224296 0.214296
0.244171 0.230756 0.220756
0.249791 0.236421 0.226421
0.254627 0.241295 0.231295
0.258685 0.245385 0.235385
0.261972 0.248699 0.238699
0.264497 0.251244 0.241244
0.266271 0.253031 0.243032
0.267309 0.254078 0.244078
0.267639 0.254411 0.244411
0.074387 0.059621 0.049621
0.074717 0.059954 0.049954
0.075755 0.061000 0.051000
0.077529 0.062788 0.052788
0.080054 0.065333 0.055333
0.083341 0.068646 0.058646
0.087399 0.072736 0.062736
0.092235 0.077611 0.067611
0.097855 0.083275 0.073275
0.104264 0.089735 0.079735
0.111467 0.096996 0.086996
0.119468 0.105061 0.095061
0.128271 0.113934 0.103934
0.137880 0.123619 0.113619
0.148297 0.134119 0.124119
0.159526 0.145437 0.135437
0.171569 0.157576 0.147576
0.183612 0.169715 0.159715
0.194841 0.181033 0.171033
0.205258 0.191533 0.181533
0.214867 0.201218 0.191218
0.223670 0.210092 0.200092
0.231671 0.218156 0.208156
0.238874 0.225417 0.215417
0.245283 0.231877 0.221877
0.250903 0.237541 0.227541
0.255739 0.242416 0.232416
0.259797 0.246506 0.236506
0.263084 0.249819 0.239819
0.265609 0.252364 0.242364
0.267382 0.254152 0.244152
0.268421 0.255198 0.245198
0.268751 0.255531 0.245531
0.077879 0.063140 0.053140
0.078209 0.063474 0.053474
0.079247 0.064520 0.054520
0.081021 0.066308 0.056308
0.083546 0.068853 0.058853
0.086833 0.072166 0.062166
0.090891 0.076256 0.066256
0.095727 0.081131 0.071131
0.101347 0.086795 0.076795
0.107756 0.093255 0.083255
0.114959 0.100516 0.090516
0.122960 0.108580 0.098580
0.131763 0.117453 0.107453
0.141372 0.127138 0.117138
0.151789 0.137639 0.127639
0.163018 0.148957 0.138957
0.175061 0.161096 0.151096
0.187104 0.173235 0.163235
0.198333 0.184553 0.174553
0.208750 0.195053 0.185053
0.218359 0.204738 0.194738
0.227162 0.213611 0.203611
0.235163 0.221676 0.211676
0.242366 0.228937 0.218937
0.248775 0.235397 0.225397
0.254395 0.241061 0.231061
0.259231 0.245936 0.235936
0.263289 0.250026 0.240026
0.266576 0.253339 0.243339
0.269101 0.255884 0.245884
0.270875 0.257672 0.247672
0.271913 0.258718 0.248718
0.272243 0.259051 0.249051
0.083846 0.069155 0.059155
0.084176 0.069488 0.059488
0.085214 0.070534 0.060534
0.086988 0.072322 0.062322
0.089513 0.074867 0.064867
0.092800 0.078180 0.068180
0.096858 0.082271 0.072271
0.101694 0.087145 0.077145
0.107314 0.092809 0.082809
0.113723 0.099270 0.089270
0.120926 0.106530 0.096530
0.128927 0.114595 0.104595
0.137730 0.123468 0.113468
0.147338 0.133153 0.123153
0.157756 0.143653 0.133653
0.168984 0.154971 0.144971
0.181028 0.167110 0.157110
0.193071 0.179249 0.169249
0.204300 0.190568 0.180568
0.214717 0.201068 0.191068
0.224326 0.210753 0.200753
0.233129 0.219626 0.209626
0.241130 0.227691 0.217691
0.248333 0.234951 0.224951
0.254742 0.241411 0.231411
0.260362 0.247076 0.237076
0.265198 0.251950 0.241950
0.269256 0.256040 0.246040
0.272543 0.259353 0.249353
0.275068 0.261898 0.251898
0.276841 0.263686 0.253686
0.277879 0.264733 0.254733
0.278210 0.265066 0.255066
0.092340 0.077716 0.067716
0.092670 0.078049 0.068049
0.093708 0.079096 0.069096
0.095482 0.080884 0.070884
0.098007 0.083429 0.073429
0.101294 0.086742 0.076742
0.105352 0.090832 0.080832
0.110188 0.095706 0.085706
0.115808 0.101371 0.091371
0.122217 0.107831 0.097831
0.129420 0.115091 0.105091
0.137421 0.123156 0.113156
0.146224 0.132029 0.122029
0.155832 0.141714 0.131714
0.166250 0.152214 0.142214
0.177478 0.163533 0.153533
0.189522 0.175672 0.165672
0.201565 0.187811 0.177811
0.212794 0.199129 0.189129
0.223211 0.209629 0.199629
0.232820 0.219314 0.209314
0.241623 0.228187 0.218187
0.249624 0.236252 0.226252
0.256827 0.243512 0.233512
0.263236 0.249973 0.239973
0.268856 0.255637 0.245637
0.273692 0.260511 0.250511
0.277750 0.264602 0.254602
0.281037 0.267915 0.257915
0.283562 0.270460 0.260460
0.285335 0.272248 0.262248
0.286373 0.273294 0.263294
0.286704 0.273627 0.263627
0.103398 0.088862 0.078862
0.103728 0.089195 0.079195
0.104766 0.090242 0.080242
0.106540 0.092030 0.082030
0.109065 0.094575 0.084575
0.112352 0.097888 0.087888
0.116410 0.101978 0.091978
0.121246 0.106852 0.096852
0.126866 0.112517 0.102517
0.133275 0.118977 0.108977
0.140478 0.126237 0.116237
0.148479 0.134302 0.124302
0.157282 0.143175 0.133175
0.166890 0.152860 0.142860
0.177308 0.163360 0.153360
0.188536 0.174679 0.164679
0.200580 0.186818 0.176818
0.212623 0.198957 0.188957
0.223852 0.210275 0.200275
0.234269 0.220775 0.210775
0.243878 0.230460 0.220460
0.252681 0.239333 0.229333
0.260682 0.247398 0.237398
0.267885 0.254658 0.244658
0.274294 0.261119 0.251119
0.279914 0.266783 0.256783
0.284750 0.271658 0.261658
0.288808 0.275748 0.265748
0.292095 0.279061 0.269061
0.294620 0.281606 0.271606
0.296393 0.283394 0.273394
0.297431 0.284440 0.274440
0.297762 0.284773 0.274773
0.117049 0.102622 0.092622
0.117379 0.102955 0.092955
0.118417 0.104002 0.094002
0.120191 0.105789 0.095789
0.122716 0.108334 0.098334
0.126003 0.111648 0.101648
0.130061 0.115738 0.105738
0.134897 0.120612 0.110612
0.140517 0.126277 0.116277
0.146926 0.132737 0.122737
0.154129 0.139997 0.129997
0.162130 0.148062 0.138062
0.170933 0.156935 0.146935
0.180542 0.166620 0.156620
0.190959 0.177120 0.167120
0.202188 0.188438 0.178438
0.214231 0.200578 0.190578
0.226274 0.212717 0.202717
0.237503 0.224035 0.214035
0.247920 0.234535 0.224535
0.257529 0.244220 0.234220
0.266332 0.253093 0.243093
0.274333 0.261158 0.251158
0.281536 0.268418 0.258418
0.287945 0.274878 0.264878
0.293565 0.280543 0.270543
0.298401 0.285417 0.275417
0.302459 0.289508 0.279508
0.305746 0.292821 0.282821
0.308271 0.295366 0.285366
0.310045 0.297154 0.287154
0.311083 0.298200 0.288200
0.311413 0.298533 0.288533
0.133317 0.119020 0.109020
0.133648 0.119353 0.109353
0.134686 0.120399 0.110399
0.136459 0.122187 0.112187
0.138984 0.124732 0.114732
0.142271 0.128045 0.118045
0.146329 0.132136 0.122136
0.151165 0.137010 0.127010
0.156785 0.142675 0.132675
0.163194 0.149135 0.139135
0.170397 0.156395 0.146395
0.178398 0.164460 0.154460
0.187201 0.173333 0.163333
0.196810 0.183018 0.173018
0.207227 0.193518 0.183518
0.218456 0.204836 0.194836
0.230499 0.216975 0.206975
0.242543 0.229114 0.219114
0.253771 0.240433 0.230433
0.264189 0.250933 0.240933
0.273797 0.260618 0.250618
0.282600 0.269491 0.259491
0.290601 0.277556 0.267556
0.297804 0.284816 0.274816
0.304213 0.291276 0.281276
0.309833 0.296941 0.286941
0.314669 0.301815 0.291815
0.318727 0.305905 0.295905
0.322014 0.309219 0.299219
0.324539 0.311763 0.301763
0.326313 0.313551 0.303551
0.327351 0.314598 0.304598
0.327681 0.314931 0.304931
0.152223 0.138076 0.128076
0.152553 0.138409 0.128409
0.153591 0.139455 0.129455
0.155365 0.141243 0.131243
0.157890 0.143788 0.133788
0.161177 0.147101 0.137101
0.165235 0.151192 0.141192
0.170071 0.156066 0.146066
0.175691 0.161731 0.151731
0.182100 0.168191 0.158191
0.189303 0.175451 0.165451
0.197304 0.183516 0.173516
0.206107 0.192389 0.182389
0.215715 0.202074 0.192074
0.226133 0.212574 0.202574
0.237361 0.223892 0.213892
0.249405 0.236031 0.226031
0.261448 0.248170 0.238170
0.272677 0.259489 0.249489
0.283094 0.269989 0.259989
0.292703 0.279674 0.269674
0.301506 0.288547 0.278547
0.309507 0.296612 0.286612
0.316710 0.303872 0.293872
0.323119 0.310332 0.300332
0.328739 0.315997 0.305997
0.333575 0.320871 0.310871
0.337633 0.324961 0.314961
0.340920 0.328275 0.318275
0.343445 0.330820 0.320819
0.345218 0.332607 0.322607
0.346256 0.333654 0.323654
0.346587 0.333987 0.323987
0.173783 0.159808 0.149808
0.174114 0.160141 0.150141
0.175152 0.161187 0.151187
0.176926 0.162975 0.152975
0.179450 0.165520 0.155520
0.182738 0.168834 0.158834
0.186795 0.172924 0.162924
0.191631 0.177798 0.167798
0.197251 0.183463 0.173463
0.203660 0.189923 0.179923
0.210863 0.197183 0.187183
0.218864 0.205248 0.195248
0.227668 0.214121 0.204121
0.237276 0.223806 0.213806
0.247693 0.234306 0.224306
0.258922 0.245624 0.235624
0.270965 0.257764 0.247764
0.283009 0.269903 0.259903
0.294238 0.281221 0.271221
0.304655 0.291721 0.281721
0.314263 0.301406 0.291406
0.323066 0.310279 0.300279
0.331068 0.318344 0.308344
0.338270 0.325604 0.315604
0.344680 0.332064 0.322064
0.350299 0.337729 0.327729
0.355135 0.342603 0.332603
0.359193 0.346693 0.336693
0.362480 0.350007 0.340007
0.365005 0.352552 0.342552
0.366779 0.354340 0.344340
0.367817 0.355386 0.345386
0.368148 0.355719 0.345719
0.198015 0.184232 0.174232
0.198345 0.184565 0.174565
0.199383 0.185612 0.175612
0.201157 0.187400 0.177400
0.203682 0.189945 0.179945
0.206969 0.193258 0.183258
0.211027 0.197348 0.187348
0.215863 0.202222 0.192222
0.221483 0.207887 0.197887
0.227892 0.214347 0.204347
0.235095 0.221607 0.211607
0.243096 0.229672 0.219672
0.251899 0.238545 0.228545
0.261507 0.248230 0.238230
0.271925 0.258730 0.248730
0.283153 0.270049 0.260049
0.295197 0.282188 0.272188
0.307240 0.294327 0.284327
0.318469 0.305645 0.295645
0.328886 0.316145 0.306145
0.338495 0.325830 0.315830
0.347298 0.334703 0.324703
0.355299 0.342768 0.332768
0.362502 0.350028 0.340028
0.368911 0.356489 0.346489
0.374531 0.362153 0.352153
0.379367 0.367027 0.357027
0.383425 0.371118 0.361118
0.386712 0.374431 0.364431
0.389237 0.376976 0.366976
0.391010 0.378764 0.368764
0.392048 0.379810 0.369810
0.392379 0.380143 0.370143
0.224931 0.211363 0.201363
0.225262 0.211696 0.201696
0.226300 0.212742 0.202742
0.228073 0.214530 0.204530
0.230598 0.217075 0.207075
0.233885 0.220388 0.210388
0.237943 0.224479 0.214479
0.242779 0.229353 0.219353
0.248399 0.235018 0.225018
0.254808 0.241478 0.231478
0.262011 0.248738 0.238738
0.270012 0.256803 0.246803
0.278815 0.265676 0.255676
0.288424 0.275361 0.265361
0.298841 0.285861 0.275861
0.310070 0.297179 0.287179
0.322113 0.309318 0.299318
0.334156 0.321457 0.311457
0.345385 0.332776 0.322776
0.355803 0.343276 0.333276
0.365411 0.352961 0.342961
0.374214 0.361834 0.351834
0.382215 0.369899 0.359899
0.389418 0.377159 0.367159
0.395827 0.383619 0.373619
0.401447 0.389284 0.379284
0.406283 0.394158 0.384158
0.410341 0.398248 0.388248
0.413628 0.401561 0.391562
0.416153 0.404106 0.394106
0.417927 0.405894 0.395894
0.418965 0.406941 0.396941
0.419295 0.407274 0.397274
0.254545 0.241213 0.231213
0.254876 0.241546 0.231546
0.255914 0.242592 0.232592
0.257687 0.244380 0.234380
0.260212 0.246925 0.236925
0.263499 0.250238 0.240238
0.267557 0.254328 0.244328
0.272393 0.259203 0.249203
0.278013 0.264867 0.254867
0.284422 0.271327 0.261327
0.291625 0.278588 0.268588
0.299626 0.286653 0.276653
0.308429 0.295526 0.285526
0.318038 0.305211 0.295211
0.328455 0.315711 0.305711
0.339684 0.327029 0.317029
0.351727 0.339168 0.329168
0.363771 0.351307 0.341307
0.374999 0.362625 0.352625
0.385417 0.373125 0.363125
0.395025 0.382810 0.372810
0.403828 0.391684 0.381684
0.411829 0.399748 0.389748
0.419032 0.407009 0.397009
0.425441 0.413469 0.403469
0.431061 0.419133 0.409133
0.435897 0.424008 0.414008
0.439955 0.428098 0.418098
0.443242 0.431411 0.421411
0.445767 0.433956 0.423956
0.447541 0.435744 0.425744
0.448579 0.436790 0.426790
0.448909 0.437123 0.427123
0.286869 0.273793 0.263793
0.287199 0.274127 0.264127
0.288237 0.275173 0.265173
0.290011 0.276961 0.266961
0.292536 0.279506 0.269506
0.295823 0.282819 0.272819
0.299881 0.286909 0.276909
0.304717 0.291784 0.281784
0.310337 0.297448 0.287448
0.316746 0.303908 0.293908
0.323949 0.311169 0.301169
0.331950 0.319233 0.309233
0.340753 0.328106 0.318107
0.350362 0.337791 0.327791
0.360779 0.348292 0.338292
0.372008 0.359610 0.349610
0.384051 0.371749 0.361749
0.396094 0.383888 0.373888
0.407323 0.395206 0.385206
0.417740 0.405706 0.395706
0.427349 0.415391 0.405391
0.436152 0.424264 0.414264
0.444153 0.432329 0.422329
0.451356 0.439590 0.429590
0.457765 0.446050 0.436050
0.463385 0.451714 0.441714
0.468221 0.456589 0.446589
0.472279 0.460679 0.450679
0.475566 0.463992 0.453992
0.478091 0.466537 0.456537
0.479865 0.468325 0.458325
0.480903 0.469371 0.459371
0.481233 0.469704 0.459704
0.321913 0.309116 0.299116
0.322243 0.309449 0.299449
0.323281 0.310496 0.300496
0.325055 0.312284 0.302284
0.327580 0.314829 0.304829
0.330867 0.318142 0.308142
0.334925 0.322232 0.312232
0.339761 0.327106 0.317106
0.345381 0.332771 0.322771
0.351790 0.339231 0.329231
0.358993 0.346491 0.336491
0.366994 0.354556 0.344556
0.375797 0.363429 0.353429
0.385406 0.373114 0.363114
0.395823 0.383614 0.373614
0.407052 0.394933 0.384933
0.419095 0.407072 0.397072
0.431138 0.419211 0.409211
0.442367 0.430529 0.420529
0.452784 0.441029 0.431029
0.462393 0.450714 0.440714
0.471196 0.459587 0.449587
0.479197 0.467652 0.457652
0.486400 0.474912 0.464912
0.492809 0.481373 0.471373
0.498429 0.487037 0.477037
0.503265 0.491912 0.481912
0.507323 0.496002 0.486002
0.510610 0.499315 0.489315
0.513135 0.501860 0.491860
0.514909 0.503648 0.493648
0.515947 0.504694 0.494694
0.516277 0.505027 0.495027
0.359687 0.347192 0.337191
0.360018 0.347525 0.337525
0.361056 0.348571 0.338571
0.362830 0.350359 0.340359
0.365354 0.352904 0.342904
0.368642 0.356217 0.346217
0.372700 0.360307 0.350307
0.377535 0.365182 0.355182
0.383155 0.370846 0.360846
0.389564 0.377306 0.367306
0.396767 0.384567 0.374567
0.404769 0.392631 0.382631
0.413572 0.401505 0.391505
0.423180 0.411189 0.401190
0.433597 0.421690 0.411690
0.444826 0.433008 0.423008
0.456869 0.445147 0.435147
0.468913 0.457286 0.447286
0.480142 0.468604 0.458604
0.490559 0.479104 0.469104
0.500167 0.488789 0.478789
0.508970 0.497662 0.487662
0.516972 0.505727 0.495727
0.524175 0.512988 0.502988
0.530584 0.519448 0.509448
0.536203 0.525112 0.515112
0.541039 0.529987 0.519987
0.545097 0.534077 0.524077
0.548384 0.537390 0.527390
0.550909 0.539935 0.529935
0.552683 0.541723 0.531723
0.553721 0.542769 0.532769
0.554052 0.543102 0.533102
0.400202 0.388028 0.378028
0.400532 0.388362 0.378362
0.401570 0.389408 0.379408
0.403344 0.391196 0.381196
0.405869 0.393741 0.383741
0.409156 0.397054 0.387054
0.413214 0.401144 0.391144
0.418050 0.406019 0.396019
0.423670 0.411683 0.401683
0.430079 0.418143 0.408143
0.437282 0.425404 0.415404
0.445283 0.433468 0.423468
0.454086 0.442341 0.432341
0.463695 0.452026 0.442026
0.474112 0.462527 0.452527
0.485341 0.473845 0.463845
0.497384 0.485984 0.475984
0.509427 0.498123 0.488123
0.520656 0.509441 0.499441
0.531073 0.519941 0.509941
0.540682 0.529626 0.519626
0.549485 0.538499 0.528499
0.557486 0.546564 0.536564
0.564689 0.553824 0.543824
0.571098 0.560285 0.550285
0.576718 0.565949 0.555949
0.581554 0.570824 0.560824
0.585612 0.574914 0.564914
0.588899 0.578227 0.568227
0.591424 0.580772 0.570772
0.593198 0.582560 0.572560
0.594236 0.583606 0.573606
0.594566 0.583939 0.573939
0.440716 0.428865 0.418865
0.441047 0.429198 0.419198
0.442085 0.430245 0.420245
0.443859 0.432033 0.422033
0.446384 0.434578 0.424578
0.449671 0.437891 0.427891
0.453729 0.441981 0.431981
0.458564 0.446855 0.436855
0.464184 0.452520 0.442520
0.470593 0.458980 0.448980
0.477796 0.466240 0.456240
0.485798 0.474305 0.464305
0.494601 0.483178 0.473178
0.504209 0.492863 0.482863
0.514626 0.503363 0.493363
0.525855 0.514682 0.504682
0.537898 0.526821 0.516821
0.549942 0.538960 0.528960
0.561171 0.550278 0.540278
0.571588 0.560778 0.550778
0.581196 0.570463 0.560463
0.589999 0.579336 0.569336
0.598001 0.587401 0.577401
0.605204 0.594661 0.584661
0.611613 0.601121 0.591121
0.617233 0.606786 0.596786
0.622068 0.611660 0.601660
0.626126 0.615751 0.605751
0.629413 0.619064 0.609064
0.631938 0.621609 0.611609
0.633712 0.623397 0.613397
0.634750 0.624443 0.614443
0.635081 0.624776 0.614776
0.478491 0.466941 0.456941
0.478821 0.467274 0.457274
0.479860 0.468320 0.458320
0.481633 0.470108 0.460108
0.484158 0.472653 0.462653
0.487445 0.475966 0.465966
0.491503 0.480056 0.470056
0.496339 0.484931 0.474931
0.501959 0.490595 0.480595
0.508368 0.497055 0.487055
0.515571 0.504316 0.494316
0.523572 0.512380 0.502380
0.532375 0.521254 0.511254
0.541984 0.530939 0.520939
0.552401 0.541439 0.531439
0.563630 0.552757 0.542757
0.575673 0.564896 0.554896
0.587716 0.577035 0.567035
0.598945 0.588353 0.578353
0.609362 0.598853 0.588853
0.618971 0.608538 0.598538
0.627774 0.617411 0.607411
0.635775 0.625476 0.615476
0.642978 0.632737 0.622737
0.649387 0.639197 0.629197
0.655007 0.644861 0.634861
0.659843 0.649736 0.639736
0.663901 0.653826 0.643826
0.667188 0.657139 0.647139
0.669713 0.659684 0.649684
0.671487 0.661472 0.651472
0.672525 0.662518 0.652518
0.672855 0.662851 0.652851
0.513535 0.502263 0.492263
0.513865 0.502596 0.492597
0.514904 0.503643 0.493643
0.516677 0.505431 0.495431
0.519202 0.507976 0.497976
0.522489 0.511289 0.501289
0.526547 0.515379 0.505379
0.531383 0.520253 0.510253
0.537003 0.525918 0.515918
0.543412 0.532378 0.522378
0.550615 0.539639 0.529639
0.558616 0.547703 0.537703
0.567419 0.556576 0.546576
0.577028 0.566261 0.556261
0.587445 0.576761 0.566761
0.598674 0.588080 0.578080
0.610717 0.600219 0.590219
0.622760 0.612358 0.602358
0.633989 0.623676 0.613676
0.644406 0.634176 0.624176
0.654015 0.643861 0.633861
0.662818 0.652734 0.642734
0.670819 0.660799 0.650799
0.678022 0.668059 0.658059
0.684431 0.674520 0.664520
0.690051 0.680184 0.670184
0.694887 0.685059 0.675059
0.698945 0.689149 0.679149
0.702232 0.692462 0.682462
0.704757 0.695007 0.685007
0.706531 0.696795 0.686795
0.707569 0.697841 0.687841
0.707899 0.698174 0.688174
0.545859 0.534844 0.524844
0.546189 0.535177 0.525177
0.547227 0.536224 0.526224
0.549001 0.538011 0.528011
0.551526 0.540556 0.530556
0.554813 0.543870 0.533870
0.558871 0.547960 0.537960
0.563707 0.552834 0.542834
0.569327 0.558499 0.548499
0.575736 0.564959 0.554959
0.582939 0.572219 0.562219
0.590940 0.580284 0.570284
0.599743 0.589157 0.579157
0.609351 0.598842 0.588842
0.619769 0.609342 0.599342
0.630997 0.620660 0.610660
0.643041 0.632800 0.622800
0.655084 0.644939 0.634939
0.666313 0.656257 0.646257
0.676730 0.666757 0.656757
0.686339 0.676442 0.666442
0.695142 0.685315 0.675315
0.703143 0.693380 0.683380
0.710346 0.700640 0.690640
0.716755 0.707100 0.697100
0.722375 0.712765 0.702765
0.727211 0.717639 0.707639
0.731269 0.721730 0.711730
0.734556 0.725043 0.715043
0.737081 0.727588 0.717588
0.738854 0.729376 0.719376
0.739892 0.730422 0.720422
0.740223 0.730755 0.720755
0.575473 0.564694 0.554694
0.575803 0.565027 0.555027
0.576841 0.566073 0.556073
0.578615 0.567861 0.557861
0.581140 0.570406 0.560406
0.584427 0.573719 0.563719
0.588485 0.577810 0.567810
0.593321 0.582684 0.572684
0.598941 0.588349 0.578349
0.605350 0.594809 0.584809
0.612553 0.602069 0.592069
0.620554 0.610134 0.600134
0.629357 0.619007 0.609007
0.638965 0.628692 0.618692
0.649383 0.639192 0.629192
0.660611 0.650510 0.640510
0.672655 0.662649 0.652649
0.684698 0.674789 0.664789
0.695927 0.686107 0.676107
0.706344 0.696607 0.686607
0.715953 0.706292 0.696292
0.724756 0.715165 0.705165
0.732757 0.723230 0.713230
0.739960 0.730490 0.720490
0.746369 0.736950 0.726950
0.751989 0.742615 0.732615
0.756825 0.747489 0.737489
0.760883 0.751579 0.741579
0.764170 0.754893 0.744893
0.766695 0.757438 0.747438
0.768468 0.759225 0.749225
0.769506 0.760272 0.750272
0.769837 0.760605 0.750605
0.602389 0.591824 0.581824
0.602719 0.592158 0.582158
0.603758 0.593204 0.583204
0.605531 0.594992 0.584992
0.608056 0.597537 0.587537
0.611343 0.600850 0.590850
0.615401 0.604940 0.594940
0.620237 0.609815 0.599815
0.625857 0.615479 0.605479
0.632266 0.621939 0.611939
0.639469 0.629200 0.619200
0.647470 0.637264 0.627264
0.656273 0.646138 0.636138
0.665882 0.655823 0.645823
0.676299 0.666323 0.656323
0.687528 0.677641 0.667641
0.699571 0.689780 0.679780
0.711614 0.701919 0.691919
0.722843 0.713237 0.703237
0.733260 0.723737 0.713737
0.742869 0.733422 0.723422
0.751672 0.742295 0.732295
0.759673 0.750360 0.740360
0.766876 0.757621 0.747621
0.773285 0.764081 0.754081
0.778905 0.769745 0.759745
0.783741 0.774620 0.764620
0.787799 0.778710 0.768710
0.791086 0.782023 0.772023
0.793611 0.784568 0.774568
0.795385 0.786356 0.776356
0.796423 0.787402 0.777402
0.796753 0.787735 0.777735
0.626620 0.616249 0.606249
0.626951 0.616582 0.606582
0.627989 0.617628 0.607628
0.629763 0.619416 0.609416
0.632288 0.621961 0.611961
0.635575 0.625274 0.615274
0.639633 0.629364 0.619364
0.644468 0.634239 0.624239
0.650088 0.639903 0.629903
0.656497 0.646363 0.636363
0.663700 0.653624 0.643624
0.671702 0.661689 0.651689
0.680505 0.670562 0.660562
0.690113 0.680247 0.670247
0.700530 0.690747 0.680747
0.711759 0.702065 0.692065
0.723803 0.714204 0.704204
0.735846 0.726343 0.716343
0.747075 0.737661 0.727661
0.757492 0.748162 0.738162
0.767100 0.757846 0.747846
0.775903 0.766720 0.756720
0.783905 0.774784 0.764784
0.791108 0.782045 0.772045
0.797517 0.788505 0.778505
0.803137 0.794169 0.784169
0.807972 0.799044 0.789044
0.812030 0.803134 0.793134
0.815318 0.806447 0.796447
0.817842 0.808992 0.798992
0.819616 0.810780 0.800780
0.820654 0.811826 0.801826
0.820985 0.812160 0.802160
0.648181 0.637981 0.627981
0.648511 0.638314 0.628314
0.649550 0.639360 0.629360
0.651323 0.641148 0.631148
0.653848 0.643693 0.633693
0.657135 0.647006 0.637006
0.661193 0.651097 0.641097
0.666029 0.655971 0.645971
0.671649 0.661636 0.651636
0.678058 0.668096 0.658096
0.685261 0.675356 0.665356
0.693262 0.683421 0.673421
0.702065 0.692294 0.682294
0.711674 0.701979 0.691979
0.722091 0.712479 0.702479
0.733320 0.723797 0.713797
0.745363 0.735936 0.725936
0.757406 0.748075 0.738075
0.768635 0.759394 0.749394
0.779052 0.769894 0.759894
0.788661 0.779579 0.769579
0.797464 0.788452 0.778452
0.805465 0.796517 0.786517
0.812668 0.803777 0.793777
0.819077 0.810237 0.800237
0.824697 0.815902 0.805902
0.829533 0.820776 0.810776
0.833591 0.824866 0.814866
0.836878 0.828180 0.818180
0.839403 0.830725 0.820725
0.841177 0.832512 0.822512
0.842215 0.833559 0.823559
0.842545 0.833892 0.823892
0.667087 0.657037 0.647037
0.667417 0.657370 0.647370
0.668455 0.658416 0.648416
0.670229 0.660204 0.650204
0.672754 0.662749 0.652749
0.676041 0.666062 0.656062
0.680099 0.670153 0.660153
0.684935 0.675027 0.665027
0.690555 0.680692 0.670692
0.696964 0.687152 0.677152
0.704167 0.694412 0.684412
0.712168 0.702477 0.692477
0.720971 0.711350 0.701350
0.730579 0.721035 0.711035
0.740997 0.731535 0.721535
0.752225 0.742853 0.732853
0.764269 0.754992 0.744992
0.776312 0.767131 0.757131
0.787541 0.778450 0.768450
0.797958 0.788950 0.778950
0.807567 0.798635 0.788635
0.816370 0.807508 0.797508
0.824371 0.815573 0.805573
0.831574 0.822833 0.812833
0.837983 0.829293 0.819293
0.843603 0.834958 0.824958
0.848439 0.839832 0.829832
0.852497 0.843922 0.833922
0.855784 0.847236 0.837236
0.858309 0.849781 0.839781
0.860082 0.851568 0.841568
0.861120 0.852615 0.842615
0.861451 0.852948 0.842948
0.683355 0.673435 0.663435
0.683685 0.673768 0.663768
0.684723 0.674814 0.664814
0.686497 0.676602 0.666602
0.689022 0.679147 0.669147
0.692309 0.682460 0.672460
0.696367 0.686550 0.676550
0.701203 0.691425 0.681425
0.706823 0.697089 0.687089
0.713232 0.703549 0.693549
0.720435 0.710810 0.700810
0.728436 0.718875 0.708875
0.737239 0.727748 0.717748
0.746848 0.737433 0.727433
0.757265 0.747933 0.737933
0.768494 0.759251 0.749251
0.780537 0.771390 0.761390
0.792580 0.783529 0.773529
0.803809 0.794847 0.784847
0.814226 0.805348 0.795348
0.823835 0.815032 0.805032
0.832638 0.823906 0.813906
0.840639 0.831970 0.821970
0.847842 0.839231 0.829231
0.854251 0.845691 0.835691
0.859871 0.851355 0.841355
0.864707 0.856230 0.846230
