crates/agx-e2e/fixtures/looks/luts/bw_street.cube
TITLE "bw_street"
LUT_3D_SIZE 5
DOMAIN_MIN 0.0 0.0 0.0
DOMAIN_MAX 1.0 1.0 1.0
0.073275 0.058500 0.048500
0.096743 0.082155 0.072155
0.170457 0.156455 0.146455
0.244171 0.230756 0.220756
0.267639 0.254411 0.244411
0.152223 0.138076 0.128076
0.175691 0.161731 0.151731
0.249405 0.236031 0.226031
0.323119 0.310332 0.300332
0.346587 0.333987 0.323987
0.400202 0.388028 0.378028
0.423670 0.411683 0.401683
0.497384 0.485984 0.475984
0.571098 0.560285 0.550285
0.594566 0.583939 0.573939
0.648181 0.637981 0.627981
0.671649 0.661636 0.651636
0.745363 0.735936 0.725936
0.819077 0.810237 0.800237
0.842545 0.833892 0.823892
0.727129 0.717557 0.707557
0.750597 0.741211 0.731211
0.824311 0.815512 0.805512
0.898025 0.889813 0.879813
0.921493 0.913468 0.903468
0.081245 0.066533 0.056533
0.104713 0.090188 0.080188
0.178427 0.164489 0.154489
0.252141 0.238789 0.228789
0.275609 0.262444 0.252444
0.160192 0.146109 0.136109
0.183660 0.169764 0.159764
0.257375 0.244065 0.234065
0.331089 0.318365 0.308365
0.354557 0.342020 0.332020
0.408172 0.396062 0.386062
0.431640 0.419716 0.409716
0.505354 0.494017 0.484017
0.579068 0.568318 0.558318
0.602536 0.591972 0.581972
0.656151 0.646014 0.636014
0.679619 0.669669 0.659669
0.753333 0.743970 0.733970
0.827047 0.818270 0.808270
0.850515 0.841925 0.831925
0.735098 0.725590 0.715590
0.758566 0.749245 0.739245
0.832281 0.823546 0.813546
0.905995 0.897846 0.887846
0.929463 0.921501 0.911501
0.106279 0.091766 0.081766
0.129746 0.115421 0.105421
0.203461 0.189722 0.179722
0.277175 0.264022 0.254022
0.300643 0.287677 0.277677
0.185226 0.171342 0.161342
0.208694 0.194997 0.184997
0.282408 0.269297 0.259297
0.356122 0.343598 0.333598
0.379590 0.367253 0.357253
0.433205 0.421295 0.411295
0.456673 0.444949 0.434949
0.530388 0.519250 0.509250
0.604102 0.593551 0.583551
0.627570 0.617205 0.607205
0.681185 0.671247 0.661247
0.704652 0.694902 0.684902
0.778367 0.769202 0.759202
0.852081 0.843503 0.833503
0.875549 0.867158 0.857158
0.760132 0.750823 0.740823
0.783600 0.774478 0.764478
0.857314 0.848778 0.838778
0.931029 0.923079 0.913079
0.954496 0.946734 0.936734
0.131312 0.116999 0.106999
0.154780 0.140654 0.130654
0.228494 0.214955 0.204955
0.302209 0.289255 0.279255
0.325676 0.312910 0.302910
0.210260 0.196575 0.186575
0.233728 0.220230 0.210230
0.307442 0.294530 0.284530
0.381156 0.368831 0.358831
0.404624 0.392486 0.382486
0.458239 0.446527 0.436527
0.481707 0.470182 0.460182
0.555421 0.544483 0.534483
0.629135 0.618784 0.608784
0.652603 0.642438 0.632438
0.706218 0.696480 0.686480
0.729686 0.720135 0.710135
0.803400 0.794435 0.784435
0.877115 0.868736 0.858736
0.900582 0.892391 0.882391
0.785166 0.776056 0.766056
0.808634 0.799711 0.789711
0.882348 0.874011 0.864011
0.956062 0.948312 0.938312
0.979530 0.971967 0.961967
0.139282 0.125032 0.115032
0.162750 0.148687 0.138687
0.236464 0.222988 0.212988
0.310178 0.297289 0.287289
0.333646 0.320943 0.310943
0.218230 0.204608 0.194608
0.241698 0.228263 0.218263
0.315412 0.302564 0.292564
0.389126 0.376864 0.366864
0.412594 0.400519 0.390519
0.466209 0.454561 0.444561
0.489677 0.478215 0.468215
0.563391 0.552516 0.542516
0.637105 0.626817 0.616817
0.660573 0.650472 0.640472
0.714188 0.704513 0.694513
0.737656 0.728168 0.718168
0.811370 0.802469 0.792469
0.885084 0.876769 0.866769
0.908552 0.900424 0.890424
0.793136 0.784089 0.774089
0.816604 0.807744 0.797744
0.890318 0.882045 0.872045
0.964032 0.956345 0.946345
0.987500 0.980000 0.970000
