crates/agx-e2e/fixtures/looks/luts/cinema_warm.cube
TITLE "cinema_warm"
LUT_3D_SIZE 33
DOMAIN_MIN 0.0 0.0 0.0
DOMAIN_MAX 1.0 1.0 1.0
0.016767 0.010000 0.000000
0.044548 0.011237 0.000000
0.073204 0.012470 0.000000
0.102316 0.013697 0.000000
0.131693 0.014918 0.000000
0.161231 0.016132 0.000000
0.190863 0.017338 0.000000
0.220550 0.018537 0.000000
0.250270 0.019730 0.000000
0.280011 0.020916 0.000000
0.309773 0.022097 0.000000
0.339562 0.023273 0.000000
0.369392 0.024446 0.000000
0.399281 0.025616 0.000000
0.429253 0.026785 0.000000
0.459335 0.027955 0.000000
0.489558 0.029126 0.000000
0.519957 0.030300 0.000000
0.550571 0.031479 0.000000
0.581439 0.032664 0.000000
0.612606 0.033858 0.000000
0.644119 0.035062 0.000000
0.676028 0.036278 0.000000
0.708386 0.037508 0.000000
0.741247 0.038754 0.000000
0.774671 0.040019 0.000000
0.808720 0.041305 0.000000
0.843457 0.042614 0.000000
0.878952 0.043949 0.000000
0.915276 0.045312 0.000000
0.952505 0.046706 0.000000
0.990718 0.048135 0.000000
1.000000 0.049600 0.000000
0.016767 0.040917 0.000000
0.044548 0.042153 0.000000
0.073204 0.043386 0.000000
0.102316 0.044614 0.000000
0.131693 0.045835 0.000000
0.161231 0.047048 0.000000
0.190863 0.048255 0.000000
0.220550 0.049454 0.000000
0.250270 0.050646 0.000000
0.280011 0.051833 0.000000
0.309773 0.053014 0.000000
0.339562 0.054190 0.000000
0.369392 0.055363 0.000000
0.399281 0.056533 0.000000
0.429253 0.057702 0.000000
0.459335 0.058871 0.000000
0.489558 0.060042 0.000000
0.519957 0.061216 0.000000
0.550571 0.062395 0.000000
0.581439 0.063581 0.000000
0.612606 0.064774 0.000000
0.644119 0.065978 0.000000
0.676028 0.067194 0.000000
0.708386 0.068424 0.000000
0.741247 0.069671 0.000000
0.774671 0.070936 0.000000
0.808720 0.072221 0.000000
0.843457 0.073530 0.000000
0.878952 0.074865 0.000000
0.915276 0.076228 0.000000
0.952505 0.077623 0.000000
0.990718 0.079051 0.000000
1.000000 0.080517 0.000000
0.016767 0.071741 0.000000
0.044548 0.072978 0.000000
0.073204 0.074211 0.000000
0.102316 0.075438 0.000000
0.131693 0.076659 0.000000
0.161231 0.077873 0.000000
0.190863 0.079079 0.000000
0.220550 0.080279 0.000000
0.250270 0.081471 0.000000
0.280011 0.082657 0.000000
0.309773 0.083838 0.000000
0.339562 0.085014 0.000000
0.369392 0.086187 0.000000
0.399281 0.087357 0.000000
0.429253 0.088526 0.000000
0.459335 0.089696 0.000000
0.489558 0.090867 0.000000
0.519957 0.092041 0.000000
0.550571 0.093220 0.000000
0.581439 0.094405 0.000000
0.612606 0.095599 0.000000
0.644119 0.096803 0.000000
0.676028 0.098019 0.000000
0.708386 0.099249 0.000000
0.741247 0.100495 0.000000
0.774671 0.101760 0.000000
0.808720 0.103046 0.000000
0.843457 0.104355 0.000000
0.878952 0.105690 0.000000
0.915276 0.107053 0.000000
0.952505 0.108447 0.000000
0.990718 0.109876 0.000000
1.000000 0.111341 0.000000
0.016767 0.102427 0.000000
0.044548 0.103664 0.000000
0.073204 0.104897 0.000000
0.102316 0.106124 0.000000
0.131693 0.107345 0.000000
0.161231 0.108559 0.000000
0.190863 0.109765 0.000000
0.220550 0.110965 0.000000
0.250270 0.112157 0.000000
0.280011 0.113343 0.000000
0.309773 0.114524 0.000000
0.339562 0.115700 0.000000
0.369392 0.116873 0.000000
0.399281 0.118043 0.000000
0.429253 0.119212 0.000000
0.459335 0.120382 0.000000
0.489558 0.121553 0.000000
0.519957 0.122727 0.000000
0.550571 0.123906 0.000000
0.581439 0.125091 0.000000
0.612606 0.126285 0.000000
0.644119 0.127489 0.000000
0.676028 0.128705 0.000000
0.708386 0.129935 0.000000
0.741247 0.131181 0.000000
0.774671 0.132446 0.000000
0.808720 0.133732 0.000000
0.843457 0.135041 0.000000
0.878952 0.136376 0.000000
0.915276 0.137739 0.000000
0.952505 0.139133 0.000000
0.990718 0.140562 0.000000
1.000000 0.142027 0.000000
0.016767 0.132948 0.000000
0.044548 0.134185 0.000000
0.073204 0.135418 0.000000
0.102316 0.136646 0.000000
0.131693 0.137866 0.000000
0.161231 0.139080 0.000000
0.190863 0.140287 0.000000
0.220550 0.141486 0.000000
0.250270 0.142678 0.000000
0.280011 0.143865 0.000000
0.309773 0.145046 0.000000
0.339562 0.146222 0.000000
0.369392 0.147394 0.000000
0.399281 0.148565 0.000000
0.429253 0.149734 0.000000
0.459335 0.150903 0.000000
0.489558 0.152074 0.000000
0.519957 0.153248 0.000000
0.550571 0.154427 0.000000
0.581439 0.155612 0.000000
0.612606 0.156806 0.000000
0.644119 0.158010 0.000000
0.676028 0.159226 0.000000
0.708386 0.160456 0.000000
0.741247 0.161703 0.000000
0.774671 0.162968 0.000000
0.808720 0.164253 0.000000
0.843457 0.165562 0.000000
0.878952 0.166897 0.000000
0.915276 0.168260 0.000000
0.952505 0.169655 0.000000
0.990718 0.171083 0.000000
1.000000 0.172548 0.000000
0.016767 0.163292 0.000000
0.044548 0.164528 0.000000
0.073204 0.165761 0.000000
0.102316 0.166989 0.000000
0.131693 0.168210 0.000000
0.161231 0.169423 0.000000
0.190863 0.170630 0.000000
0.220550 0.171829 0.000000
0.250270 0.173022 0.000000
0.280011 0.174208 0.000000
0.309773 0.175389 0.000000
0.339562 0.176565 0.000000
0.369392 0.177738 0.000000
0.399281 0.178908 0.000000
0.429253 0.180077 0.000000
0.459335 0.181246 0.000000
0.489558 0.182417 0.000000
0.519957 0.183591 0.000000
0.550571 0.184770 0.000000
0.581439 0.185956 0.000000
0.612606 0.187149 0.000000
0.644119 0.188353 0.000000
0.676028 0.189569 0.000000
0.708386 0.190799 0.000000
0.741247 0.192046 0.000000
0.774671 0.193311 0.000000
0.808720 0.194597 0.000000
0.843457 0.195906 0.000000
0.878952 0.197240 0.000000
0.915276 0.198604 0.000000
0.952505 0.199998 0.000000
0.990718 0.201426 0.000000
1.000000 0.202892 0.000000
0.016767 0.193453 0.000000
0.044548 0.194690 0.000000
0.073204 0.195923 0.000000
0.102316 0.197150 0.000000
0.131693 0.198371 0.000000
0.161231 0.199585 0.000000
0.190863 0.200791 0.000000
0.220550 0.201990 0.000000
0.250270 0.203183 0.000000
0.280011 0.204369 0.000000
0.309773 0.205550 0.000000
0.339562 0.206726 0.000000
0.369392 0.207899 0.000000
0.399281 0.209069 0.000000
0.429253 0.210238 0.000000
0.459335 0.211408 0.000000
0.489558 0.212579 0.000000
0.519957 0.213753 0.000000
0.550571 0.214932 0.000000
0.581439 0.216117 0.000000
0.612606 0.217311 0.000000
0.644119 0.218515 0.000000
0.676028 0.219731 0.000000
0.708386 0.220961 0.000000
0.741247 0.222207 0.000000
0.774671 0.223472 0.000000
0.808720 0.224758 0.000000
0.843457 0.226067 0.000000
0.878952 0.227402 0.000000
0.915276 0.228765 0.000000
0.952505 0.230159 0.000000
0.990718 0.231588 0.000000
1.000000 0.233053 0.000000
0.016767 0.223435 0.000000
0.044548 0.224672 0.000000
0.073204 0.225905 0.000000
0.102316 0.227132 0.000000
0.131693 0.228353 0.000000
0.161231 0.229567 0.000000
0.190863 0.230773 0.000000
0.220550 0.231973 0.000000
0.250270 0.233165 0.000000
0.280011 0.234352 0.000000
0.309773 0.235532 0.000000
0.339562 0.236709 0.000000
0.369392 0.237881 0.000000
0.399281 0.239052 0.000000
0.429253 0.240221 0.000000
0.459335 0.241390 0.000000
0.489558 0.242561 0.000000
0.519957 0.243735 0.000000
0.550571 0.244914 0.000000
0.581439 0.246099 0.000000
0.612606 0.247293 0.000000
0.644119 0.248497 0.000000
0.676028 0.249713 0.000000
0.708386 0.250943 0.000000
0.741247 0.252190 0.000000
0.774671 0.253454 0.000000
0.808720 0.254740 0.000000
0.843457 0.256049 0.000000
0.878952 0.257384 0.000000
0.915276 0.258747 0.000000
0.952505 0.260142 0.000000
0.990718 0.261570 0.000000
1.000000 0.263035 0.000000
0.016767 0.253248 0.000000
0.044548 0.254485 0.000000
0.073204 0.255718 0.000000
0.102316 0.256945 0.000000
0.131693 0.258166 0.000000
0.161231 0.259380 0.000000
0.190863 0.260586 0.000000
0.220550 0.261786 0.000000
0.250270 0.262978 0.000000
0.280011 0.264164 0.000000
0.309773 0.265345 0.000000
0.339562 0.266521 0.000000
0.369392 0.267694 0.000000
0.399281 0.268864 0.000000
0.429253 0.270033 0.000000
0.459335 0.271203 0.000000
0.489558 0.272374 0.000000
0.519957 0.273548 0.000000
0.550571 0.274727 0.000000
0.581439 0.275912 0.000000
0.612606 0.277106 0.000000
0.644119 0.278310 0.000000
0.676028 0.279526 0.000000
0.708386 0.280756 0.000000
0.741247 0.282002 0.000000
0.774671 0.283267 0.000000
0.808720 0.284553 0.000000
0.843457 0.285862 0.000000
0.878952 0.287197 0.000000
0.915276 0.288560 0.000000
0.952505 0.289954 0.000000
0.990718 0.291383 0.000000
1.000000 0.292848 0.000000
0.016767 0.282905 0.000000
0.044548 0.284142 0.000000
0.073204 0.285375 0.000000
0.102316 0.286603 0.000000
0.131693 0.287823 0.000000
0.161231 0.289037 0.000000
0.190863 0.290244 0.000000
0.220550 0.291443 0.000000
0.250270 0.292635 0.000000
0.280011 0.293822 0.000000
0.309773 0.295002 0.000000
0.339562 0.296179 0.000000
0.369392 0.297351 0.000000
0.399281 0.298522 0.000000
0.429253 0.299691 0.000000
0.459335 0.300860 0.000000
0.489558 0.302031 0.000000
0.519957 0.303205 0.000000
0.550571 0.304384 0.000000
0.581439 0.305569 0.000000
0.612606 0.306763 0.000000
0.644119 0.307967 0.000000
0.676028 0.309183 0.000000
0.708386 0.310413 0.000000
0.741247 0.311660 0.000000
0.774671 0.312925 0.000000
0.808720 0.314210 0.000000
0.843457 0.315519 0.000000
0.878952 0.316854 0.000000
0.915276 0.318217 0.000000
0.952505 0.319612 0.000000
0.990718 0.321040 0.000000
1.000000 0.322505 0.000000
0.016767 0.312426 0.000000
0.044548 0.313663 0.000000
0.073204 0.314896 0.000000
0.102316 0.316123 0.000000
0.131693 0.317344 0.000000
0.161231 0.318558 0.000000
0.190863 0.319764 0.000000
0.220550 0.320963 0.000000
0.250270 0.322156 0.000000
0.280011 0.323342 0.000000
0.309773 0.324523 0.000000
0.339562 0.325699 0.000000
0.369392 0.326872 0.000000
0.399281 0.328042 0.000000
0.429253 0.329211 0.000000
0.459335 0.330380 0.000000
0.489558 0.331551 0.000000
0.519957 0.332726 0.000000
0.550571 0.333904 0.000000
0.581439 0.335090 0.000000
0.612606 0.336284 0.000000
0.644119 0.337487 0.000000
0.676028 0.338703 0.000000
0.708386 0.339934 0.000000
0.741247 0.341180 0.000000
0.774671 0.342445 0.000000
0.808720 0.343731 0.000000
0.843457 0.345040 0.000000
0.878952 0.346375 0.000000
0.915276 0.347738 0.000000
0.952505 0.349132 0.000000
0.990718 0.350560 0.000000
1.000000 0.352026 0.000000
0.016767 0.341832 0.000000
0.044548 0.343068 0.000000
0.073204 0.344301 0.000000
0.102316 0.345529 0.000000
0.131693 0.346750 0.000000
0.161231 0.347963 0.000000
0.190863 0.349170 0.000000
0.220550 0.350369 0.000000
0.250270 0.351562 0.000000
0.280011 0.352748 0.000000
0.309773 0.353929 0.000000
0.339562 0.355105 0.000000
0.369392 0.356278 0.000000
0.399281 0.357448 0.000000
0.429253 0.358617 0.000000
0.459335 0.359786 0.000000
0.489558 0.360957 0.000000
0.519957 0.362131 0.000000
0.550571 0.363310 0.000000
0.581439 0.364496 0.000000
0.612606 0.365689 0.000000
0.644119 0.366893 0.000000
0.676028 0.368109 0.000000
0.708386 0.369340 0.000000
0.741247 0.370586 0.000000
0.774671 0.371851 0.000000
0.808720 0.373137 0.000000
0.843457 0.374446 0.000000
0.878952 0.375781 0.000000
0.915276 0.377144 0.000000
0.952505 0.378538 0.000000
0.990718 0.379966 0.000000
1.000000 0.381432 0.000000
0.016767 0.371149 0.000000
0.044548 0.372385 0.000000
0.073204 0.373618 0.000000
0.102316 0.374846 0.000000
0.131693 0.376067 0.000000
0.161231 0.377280 0.000000
0.190863 0.378487 0.000000
0.220550 0.379686 0.000000
0.250270 0.380879 0.000000
0.280011 0.382065 0.000000
0.309773 0.383246 0.000000
0.339562 0.384422 0.000000
0.369392 0.385595 0.000000
0.399281 0.386765 0.000000
0.429253 0.387934 0.000000
0.459335 0.389103 0.000000
0.489558 0.390274 0.000000
0.519957 0.391448 0.000000
0.550571 0.392627 0.000000
0.581439 0.393813 0.000000
0.612606 0.395006 0.000000
0.644119 0.396210 0.000000
0.676028 0.397426 0.000000
0.708386 0.398656 0.000000
0.741247 0.399903 0.000000
0.774671 0.401168 0.000000
0.808720 0.402454 0.000000
0.843457 0.403763 0.000000
0.878952 0.405097 0.000000
0.915276 0.406461 0.000000
0.952505 0.407855 0.000000
0.990718 0.409283 0.000000
1.000000 0.410749 0.000000
0.016767 0.400405 0.000000
0.044548 0.401642 0.000000
0.073204 0.402875 0.000000
0.102316 0.404102 0.000000
0.131693 0.405323 0.000000
0.161231 0.406537 0.000000
0.190863 0.407743 0.000000
0.220550 0.408943 0.000000
0.250270 0.410135 0.000000
0.280011 0.411321 0.000000
0.309773 0.412502 0.000000
0.339562 0.413679 0.000000
0.369392 0.414851 0.000000
0.399281 0.416021 0.000000
0.429253 0.417191 0.000000
0.459335 0.418360 0.000000
0.489558 0.419531 0.000000
0.519957 0.420705 0.000000
0.550571 0.421884 0.000000
0.581439 0.423069 0.000000
0.612606 0.424263 0.000000
0.644119 0.425467 0.000000
0.676028 0.426683 0.000000
0.708386 0.427913 0.000000
0.741247 0.429159 0.000000
0.774671 0.430424 0.000000
0.808720 0.431710 0.000000
0.843457 0.433019 0.000000
0.878952 0.434354 0.000000
0.915276 0.435717 0.000000
0.952505 0.437111 0.000000
0.990718 0.438540 0.000000
1.000000 0.440005 0.000000
0.016767 0.429633 0.000000
0.044548 0.430869 0.000000
0.073204 0.432102 0.000000
0.102316 0.433330 0.000000
0.131693 0.434551 0.000000
0.161231 0.435764 0.000000
0.190863 0.436971 0.000000
0.220550 0.438170 0.000000
0.250270 0.439363 0.000000
0.280011 0.440549 0.000000
0.309773 0.441730 0.000000
0.339562 0.442906 0.000000
0.369392 0.444079 0.000000
0.399281 0.445249 0.000000
0.429253 0.446418 0.000000
0.459335 0.447587 0.000000
0.489558 0.448758 0.000000
0.519957 0.449932 0.000000
0.550571 0.451111 0.000000
0.581439 0.452297 0.000000
0.612606 0.453490 0.000000
0.644119 0.454694 0.000000
0.676028 0.455910 0.000000
0.708386 0.457141 0.000000
0.741247 0.458387 0.000000
0.774671 0.459652 0.000000
0.808720 0.460938 0.000000
0.843457 0.462247 0.000000
0.878952 0.463582 0.000000
0.915276 0.464945 0.000000
0.952505 0.466339 0.000000
0.990718 0.467767 0.000000
1.000000 0.469233 0.000000
0.016767 0.458865 0.000000
0.044548 0.460102 0.000000
0.073204 0.461335 0.000000
0.102316 0.462562 0.000000
0.131693 0.463783 0.000000
0.161231 0.464997 0.000000
0.190863 0.466203 0.000000
0.220550 0.467403 0.000000
0.250270 0.468595 0.000000
0.280011 0.469781 0.000000
0.309773 0.470962 0.000000
0.339562 0.472138 0.000000
0.369392 0.473311 0.000000
0.399281 0.474481 0.000000
0.429253 0.475650 0.000000
0.459335 0.476820 0.000000
0.489558 0.477991 0.000000
0.519957 0.479165 0.000000
0.550571 0.480344 0.000000
0.581439 0.481529 0.000000
0.612606 0.482723 0.000000
0.644119 0.483927 0.000000
0.676028 0.485143 0.000000
0.708386 0.486373 0.000000
0.741247 0.487619 0.000000
0.774671 0.488884 0.000000
0.808720 0.490170 0.000000
0.843457 0.491479 0.000000
0.878952 0.492814 0.000000
0.915276 0.494177 0.000000
0.952505 0.495571 0.000000
0.990718 0.497000 0.000000
1.000000 0.498465 0.000000
0.016767 0.488138 0.000000
0.044548 0.489375 0.000000
0.073204 0.490608 0.000000
0.102316 0.491836 0.000000
0.131693 0.493056 0.000000
0.161231 0.494270 0.000000
0.190863 0.495477 0.000000
0.220550 0.496676 0.000000
0.250270 0.497868 0.000000
0.280011 0.499055 0.000000
0.309773 0.500236 0.000000
0.339562 0.501412 0.000000
0.369392 0.502584 0.000000
0.399281 0.503755 0.000000
0.429253 0.504924 0.000000
0.459335 0.506093 0.000000
0.489558 0.507264 0.000000
0.519957 0.508438 0.000000
0.550571 0.509617 0.000000
0.581439 0.510803 0.000000
0.612606 0.511996 0.000000
0.644119 0.513200 0.000000
0.676028 0.514416 0.000000
0.708386 0.515646 0.000000
0.741247 0.516893 0.000000
0.774671 0.518158 0.000000
0.808720 0.519443 0.000000
0.843457 0.520752 0.000000
0.878952 0.522087 0.000000
0.915276 0.523450 0.000000
0.952505 0.524845 0.000000
0.990718 0.526273 0.000000
1.000000 0.527739 0.000000
0.016767 0.517491 0.000000
0.044548 0.518728 0.000000
0.073204 0.519961 0.000000
0.102316 0.521188 0.000000
0.131693 0.522409 0.000000
0.161231 0.523623 0.000000
0.190863 0.524829 0.000000
0.220550 0.526029 0.000000
0.250270 0.527221 0.000000
0.280011 0.528407 0.000000
0.309773 0.529588 0.000000
0.339562 0.530765 0.000000
0.369392 0.531937 0.000000
0.399281 0.533107 0.000000
0.429253 0.534277 0.000000
0.459335 0.535446 0.000000
0.489558 0.536617 0.000000
0.519957 0.537791 0.000000
0.550571 0.538970 0.000000
0.581439 0.540155 0.000000
0.612606 0.541349 0.000000
0.644119 0.542553 0.000000
0.676028 0.543769 0.000000
0.708386 0.544999 0.000000
0.741247 0.546245 0.000000
0.774671 0.547510 0.000000
0.808720 0.548796 0.000000
0.843457 0.550105 0.000000
0.878952 0.551440 0.000000
0.915276 0.552803 0.000000
0.952505 0.554197 0.000000
0.990718 0.555626 0.000000
1.000000 0.557091 0.000000
0.016767 0.546964 0.000000
0.044548 0.548201 0.000000
0.073204 0.549434 0.000000
0.102316 0.550661 0.000000
0.131693 0.551882 0.000000
0.161231 0.553096 0.000000
0.190863 0.554302 0.000000
0.220550 0.555501 0.000000
0.250270 0.556694 0.000000
0.280011 0.557880 0.000000
0.309773 0.559061 0.000000
0.339562 0.560237 0.000000
0.369392 0.561410 0.000000
0.399281 0.562580 0.000000
0.429253 0.563749 0.000000
0.459335 0.564919 0.000000
0.489558 0.566089 0.000000
0.519957 0.567264 0.000000
0.550571 0.568443 0.000000
0.581439 0.569628 0.000000
0.612606 0.570822 0.000000
0.644119 0.572025 0.000000
0.676028 0.573242 0.000000
0.708386 0.574472 0.000000
0.741247 0.575718 0.000000
0.774671 0.576983 0.000000
0.808720 0.578269 0.000000
0.843457 0.579578 0.000000
0.878952 0.580913 0.000000
0.915276 0.582276 0.000000
0.952505 0.583670 0.000000
0.990718 0.585099 0.000000
1.000000 0.586564 0.000000
0.016767 0.576599 0.000000
0.044548 0.577836 0.000000
0.073204 0.579069 0.000000
0.102316 0.580296 0.000000
0.131693 0.581517 0.000000
0.161231 0.582731 0.000000
0.190863 0.583938 0.000000
0.220550 0.585137 0.000000
0.250270 0.586329 0.000000
0.280011 0.587516 0.000000
0.309773 0.588696 0.000000
0.339562 0.589873 0.000000
0.369392 0.591045 0.000000
0.399281 0.592216 0.000000
0.429253 0.593385 0.000000
0.459335 0.594554 0.000000
0.489558 0.595725 0.000000
0.519957 0.596899 0.000000
0.550571 0.598078 0.000000
0.581439 0.599263 0.000000
0.612606 0.600457 0.000000
0.644119 0.601661 0.000000
0.676028 0.602877 0.000000
0.708386 0.604107 0.000000
0.741247 0.605354 0.000000
0.774671 0.606619 0.000000
0.808720 0.607904 0.000000
0.843457 0.609213 0.000000
0.878952 0.610548 0.000000
0.915276 0.611911 0.000000
0.952505 0.613306 0.000000
0.990718 0.614734 0.000000
1.000000 0.616199 0.000000
0.016767 0.606442 0.000000
0.044548 0.607679 0.000000
0.073204 0.608912 0.000000
0.102316 0.610139 0.000000
0.131693 0.611360 0.000000
0.161231 0.612574 0.000000
0.190863 0.613780 0.000000
0.220550 0.614980 0.000000
0.250270 0.616172 0.000000
0.280011 0.617358 0.000000
0.309773 0.618539 0.000000
0.339562 0.619715 0.000000
0.369392 0.620888 0.000000
0.399281 0.622058 0.000000
0.429253 0.623227 0.000000
0.459335 0.624397 0.000000
0.489558 0.625568 0.000000
0.519957 0.626742 0.000000
0.550571 0.627921 0.000000
0.581439 0.629106 0.000000
0.612606 0.630300 0.000000
0.644119 0.631504 0.000000
0.676028 0.632720 0.000000
0.708386 0.633950 0.000000
0.741247 0.635196 0.000000
0.774671 0.636461 0.000000
0.808720 0.637747 0.000000
0.843457 0.639056 0.000000
0.878952 0.640391 0.000000
0.915276 0.641754 0.000000
0.952505 0.643148 0.000000
0.990718 0.644577 0.000000
1.000000 0.646042 0.000000
0.016767 0.636539 0.000000
0.044548 0.637776 0.000000
0.073204 0.639009 0.000000
0.102316 0.640236 0.000000
0.131693 0.641457 0.000000
0.161231 0.642671 0.000000
0.190863 0.643877 0.000000
0.220550 0.645077 0.000000
0.250270 0.646269 0.000000
0.280011 0.647455 0.000000
0.309773 0.648636 0.000000
0.339562 0.649812 0.000000
0.369392 0.650985 0.000000
0.399281 0.652155 0.000000
0.429253 0.653324 0.000000
0.459335 0.654494 0.000000
0.489558 0.655665 0.000000
0.519957 0.656839 0.000000
0.550571 0.658018 0.000000
0.581439 0.659203 0.000000
0.612606 0.660397 0.000000
0.644119 0.661601 0.000000
0.676028 0.662817 0.000000
0.708386 0.664047 0.000000
0.741247 0.665293 0.000000
0.774671 0.666558 0.000000
0.808720 0.667844 0.000000
0.843457 0.669153 0.000000
0.878952 0.670488 0.000000
0.915276 0.671851 0.000000
0.952505 0.673245 0.000000
0.990718 0.674674 0.000000
1.000000 0.676139 0.000000
0.016767 0.666939 0.000000
0.044548 0.668176 0.000000
0.073204 0.669409 0.000000
0.102316 0.670636 0.000000
0.131693 0.671857 0.000000
0.161231 0.673071 0.000000
0.190863 0.674277 0.000000
0.220550 0.675476 0.000000
0.250270 0.676669 0.000000
0.280011 0.677855 0.000000
0.309773 0.679036 0.000000
0.339562 0.680212 0.000000
0.369392 0.681385 0.000000
0.399281 0.682555 0.000000
0.429253 0.683724 0.000000
0.459335 0.684894 0.000000
0.489558 0.686065 0.000000
0.519957 0.687239 0.000000
0.550571 0.688418 0.000000
0.581439 0.689603 0.000000
0.612606 0.690797 0.000000
0.644119 0.692001 0.000000
0.676028 0.693217 0.000000
0.708386 0.694447 0.000000
0.741247 0.695693 0.000000
0.774671 0.696958 0.000000
0.808720 0.698244 0.000000
0.843457 0.699553 0.000000
0.878952 0.700888 0.000000
0.915276 0.702251 0.000000
0.952505 0.703645 0.000000
0.990718 0.705074 0.000000
1.000000 0.706539 0.000000
0.016767 0.697693 0.000000
0.044548 0.698930 0.000000
0.073204 0.700163 0.000000
0.102316 0.701390 0.000000
0.131693 0.702611 0.000000
0.161231 0.703825 0.000000
0.190863 0.705031 0.000000
0.220550 0.706230 0.000000
0.250270 0.707423 0.000000
0.280011 0.708609 0.000000
0.309773 0.709790 0.000000
0.339562 0.710966 0.000000
0.369392 0.712139 0.000000
0.399281 0.713309 0.000000
0.429253 0.714478 0.000000
0.459335 0.715648 0.000000
0.489558 0.716819 0.000000
0.519957 0.717993 0.000000
0.550571 0.719172 0.000000
0.581439 0.720357 0.000000
0.612606 0.721551 0.000000
0.644119 0.722755 0.000000
0.676028 0.723971 0.000000
0.708386 0.725201 0.000000
0.741247 0.726447 0.000000
0.774671 0.727712 0.000000
0.808720 0.728998 0.000000
0.843457 0.730307 0.000000
0.878952 0.731642 0.000000
0.915276 0.733005 0.000000
0.952505 0.734399 0.000000
0.990718 0.735828 0.000000
1.000000 0.737293 0.000000
0.016767 0.728854 0.000000
0.044548 0.730091 0.000000
0.073204 0.731324 0.000000
0.102316 0.732551 0.000000
0.131693 0.733772 0.000000
0.161231 0.734986 0.000000
0.190863 0.736192 0.000000
0.220550 0.737392 0.000000
0.250270 0.738584 0.000000
0.280011 0.739770 0.000000
0.309773 0.740951 0.000000
0.339562 0.742128 0.000000
0.369392 0.743300 0.000000
0.399281 0.744470 0.000000
0.429253 0.745640 0.000000
0.459335 0.746809 0.000000
0.489558 0.747980 0.000000
0.519957 0.749154 0.000000
0.550571 0.750333 0.000000
0.581439 0.751518 0.000000
0.612606 0.752712 0.000000
0.644119 0.753916 0.000000
0.676028 0.755132 0.000000
0.708386 0.756362 0.000000
0.741247 0.757608 0.000000
0.774671 0.758873 0.000000
0.808720 0.760159 0.000000
0.843457 0.761468 0.000000
0.878952 0.762803 0.000000
0.915276 0.764166 0.000000
0.952505 0.765560 0.000000
0.990718 0.766989 0.000000
1.000000 0.768454 0.000000
0.016767 0.760478 0.000000
0.044548 0.761715 0.000000
0.073204 0.762948 0.000000
0.102316 0.764175 0.000000
0.131693 0.765396 0.000000
0.161231 0.766610 0.000000
0.190863 0.767816 0.000000
0.220550 0.769016 0.000000
0.250270 0.770208 0.000000
0.280011 0.771394 0.000000
0.309773 0.772575 0.000000
0.339562 0.773751 0.000000
0.369392 0.774924 0.000000
0.399281 0.776094 0.000000
0.429253 0.777263 0.000000
0.459335 0.778433 0.000000
0.489558 0.779604 0.000000
0.519957 0.780778 0.000000
0.550571 0.781957 0.000000
0.581439 0.783142 0.000000
0.612606 0.784336 0.000000
0.644119 0.785540 0.000000
0.676028 0.786756 0.000000
0.708386 0.787986 0.000000
0.741247 0.789232 0.000000
0.774671 0.790497 0.000000
0.808720 0.791783 0.000000
0.843457 0.793092 0.000000
0.878952 0.794427 0.000000
0.915276 0.795790 0.000000
0.952505 0.797184 0.000000
0.990718 0.798613 0.000000
1.000000 0.800078 0.000000
0.016767 0.792623 0.000000
0.044548 0.793859 0.000000
0.073204 0.795092 0.000000
0.102316 0.796320 0.000000
0.131693 0.797541 0.000000
0.161231 0.798754 0.000000
0.190863 0.799961 0.000000
0.220550 0.801160 0.000000
0.250270 0.802353 0.000000
0.280011 0.803539 0.000000
0.309773 0.804720 0.000000
0.339562 0.805896 0.000000
0.369392 0.807069 0.000000
0.399281 0.808239 0.000000
0.429253 0.809408 0.000000
0.459335 0.810577 0.000000
0.489558 0.811748 0.000000
0.519957 0.812922 0.000000
0.550571 0.814101 0.000000
0.581439 0.815287 0.000000
0.612606 0.816480 0.000000
0.644119 0.817684 0.000000
0.676028 0.818900 0.000000
0.708386 0.820130 0.000000
0.741247 0.821377 0.000000
0.774671 0.822642 0.000000
0.808720 0.823928 0.000000
