crates/agx-e2e/fixtures/looks/luts/cinema_warm.cube
TITLE "cinema_warm"
LUT_3D_SIZE 9
DOMAIN_MIN 0.0 0.0 0.0
DOMAIN_MAX 1.0 1.0 1.0
0.016767 0.010000 0.000000
0.131693 0.014918 0.000000
0.250270 0.019730 0.000000
0.369392 0.024446 0.000000
0.489558 0.029126 0.000000
0.612606 0.033858 0.000000
0.741247 0.038754 0.000000
0.878952 0.043949 0.000000
1.000000 0.049600 0.000000
0.016767 0.132948 0.000000
0.131693 0.137866 0.000000
0.250270 0.142678 0.000000
0.369392 0.147394 0.000000
0.489558 0.152074 0.000000
0.612606 0.156806 0.000000
0.741247 0.161703 0.000000
0.878952 0.166897 0.000000
1.000000 0.172548 0.000000
0.016767 0.253248 0.000000
0.131693 0.258166 0.000000
0.250270 0.262978 0.000000
0.369392 0.267694 0.000000
0.489558 0.272374 0.000000
0.612606 0.277106 0.000000
0.741247 0.282002 0.000000
0.878952 0.287197 0.000000
1.000000 0.292848 0.000000
0.016767 0.371149 0.000000
0.131693 0.376067 0.000000
0.250270 0.380879 0.000000
0.369392 0.385595 0.000000
0.489558 0.390274 0.000000
0.612606 0.395006 0.000000
0.741247 0.399903 0.000000
0.878952 0.405097 0.000000
1.000000 0.410749 0.000000
0.016767 0.488138 0.000000
0.131693 0.493056 0.000000
0.250270 0.497868 0.000000
0.369392 0.502584 0.000000
0.489558 0.507264 0.000000
0.612606 0.511996 0.000000
0.741247 0.516893 0.000000
0.878952 0.522087 0.000000
1.000000 0.527739 0.000000
0.016767 0.606442 0.000000
0.131693 0.611360 0.000000
0.250270 0.616172 0.000000
0.369392 0.620888 0.000000
0.489558 0.625568 0.000000
0.612606 0.630300 0.000000
0.741247 0.635196 0.000000
0.878952 0.640391 0.000000
1.000000 0.646042 0.000000
0.016767 0.728854 0.000000
0.131693 0.733772 0.000000
0.250270 0.738584 0.000000
0.369392 0.743300 0.000000
0.489558 0.747980 0.000000
0.612606 0.752712 0.000000
0.741247 0.757608 0.000000
0.878952 0.762803 0.000000
1.000000 0.768454 0.000000
0.016767 0.858718 0.000000
0.131693 0.863636 0.000000
0.250270 0.868448 0.000000
0.369392 0.873164 0.000000
0.489558 0.877843 0.000000
0.612606 0.882575 0.000000
0.741247 0.887472 0.000000
0.878952 0.892666 0.000000
1.000000 0.898318 0.000000
0.016767 1.000000 0.000000
0.131693 1.000000 0.000000
0.250270 1.000000 0.000000
0.369392 1.000000 0.000000
0.489558 1.000000 0.000000
0.612606 1.000000 0.000000
0.741247 1.000000 0.000000
0.878952 1.000000 0.000000
1.000000 1.000000 0.000000
0.016767 0.010000 0.130302
0.131693 0.014918 0.130302
0.250270 0.019730 0.130302
0.369392 0.024446 0.130302
0.489558 0.029126 0.130302
0.612606 0.033858 0.130302
0.741247 0.038754 0.130302
0.878952 0.043949 0.130302
1.000000 0.049600 0.130302
0.016767 0.132948 0.130302
0.131693 0.137866 0.130302
0.250270 0.142678 0.130302
0.369392 0.147394 0.130302
0.489558 0.152074 0.130302
0.612606 0.156806 0.130302
0.741247 0.161703 0.130302
0.878952 0.166897 0.130302
1.000000 0.172548 0.130302
0.016767 0.253248 0.130302
0.131693 0.258166 0.130302
0.250270 0.262978 0.130302
0.369392 0.267694 0.130302
0.489558 0.272374 0.130302
0.612606 0.277106 0.130302
0.741247 0.282002 0.130302
0.878952 0.287197 0.130302
1.000000 0.292848 0.130302
0.016767 0.371149 0.130302
0.131693 0.376067 0.130302
0.250270 0.380879 0.130302
0.369392 0.385595 0.130302
0.489558 0.390274 0.130302
0.612606 0.395006 0.130302
0.741247 0.399903 0.130302
0.878952 0.405097 0.130302
1.000000 0.410749 0.130302
0.016767 0.488138 0.130302
0.131693 0.493056 0.130302
0.250270 0.497868 0.130302
0.369392 0.502584 0.130302
0.489558 0.507264 0.130302
0.612606 0.511996 0.130302
0.741247 0.516893 0.130302
0.878952 0.522087 0.130302
1.000000 0.527739 0.130302
0.016767 0.606442 0.130302
0.131693 0.611360 0.130302
0.250270 0.616172 0.130302
0.369392 0.620888 0.130302
0.489558 0.625568 0.130302
0.612606 0.630300 0.130302
0.741247 0.635196 0.130302
0.878952 0.640391 0.130302
1.000000 0.646042 0.130302
0.016767 0.728854 0.130302
0.131693 0.733772 0.130302
0.250270 0.738584 0.130302
0.369392 0.743300 0.130302
0.489558 0.747980 0.130302
0.612606 0.752712 0.130302
0.741247 0.757608 0.130302
0.878952 0.762803 0.130302
1.000000 0.768454 0.130302
0.016767 0.858718 0.130302
0.131693 0.863636 0.130302
0.250270 0.868448 0.130302
0.369392 0.873164 0.130302
0.489558 0.877843 0.130302
0.612606 0.882575 0.130302
0.741247 0.887472 0.130302
0.878952 0.892666 0.130302
1.000000 0.898318 0.130302
0.016767 1.000000 0.130302
0.131693 1.000000 0.130302
0.250270 1.000000 0.130302
0.369392 1.000000 0.130302
0.489558 1.000000 0.130302
0.612606 1.000000 0.130302
0.741247 1.000000 0.130302
0.878952 1.000000 0.130302
1.000000 1.000000 0.130302
0.016767 0.010000 0.249555
0.131693 0.014918 0.249555
0.250270 0.019730 0.249555
0.369392 0.024446 0.249555
0.489558 0.029126 0.249555
0.612606 0.033858 0.249555
0.741247 0.038754 0.249555
0.878952 0.043949 0.249555
1.000000 0.049600 0.249555
0.016767 0.132948 0.249555
0.131693 0.137866 0.249555
0.250270 0.142678 0.249555
0.369392 0.147394 0.249555
0.489558 0.152074 0.249555
0.612606 0.156806 0.249555
0.741247 0.161703 0.249555
0.878952 0.166897 0.249555
1.000000 0.172548 0.249555
0.016767 0.253248 0.249555
0.131693 0.258166 0.249555
0.250270 0.262978 0.249555
0.369392 0.267694 0.249555
0.489558 0.272374 0.249555
0.612606 0.277106 0.249555
0.741247 0.282002 0.249555
0.878952 0.287197 0.249555
1.000000 0.292848 0.249555
0.016767 0.371149 0.249555
0.131693 0.376067 0.249555
0.250270 0.380879 0.249555
0.369392 0.385595 0.249555
0.489558 0.390274 0.249555
0.612606 0.395006 0.249555
0.741247 0.399903 0.249555
0.878952 0.405097 0.249555
1.000000 0.410749 0.249555
0.016767 0.488138 0.249555
0.131693 0.493056 0.249555
0.250270 0.497868 0.249555
0.369392 0.502584 0.249555
0.489558 0.507264 0.249555
0.612606 0.511996 0.249555
0.741247 0.516893 0.249555
0.878952 0.522087 0.249555
1.000000 0.527739 0.249555
0.016767 0.606442 0.249555
0.131693 0.611360 0.249555
0.250270 0.616172 0.249555
0.369392 0.620888 0.249555
0.489558 0.625568 0.249555
0.612606 0.630300 0.249555
0.741247 0.635196 0.249555
0.878952 0.640391 0.249555
1.000000 0.646042 0.249555
0.016767 0.728854 0.249555
0.131693 0.733772 0.249555
0.250270 0.738584 0.249555
0.369392 0.743300 0.249555
0.489558 0.747980 0.249555
0.612606 0.752712 0.249555
0.741247 0.757608 0.249555
0.878952 0.762803 0.249555
1.000000 0.768454 0.249555
0.016767 0.858718 0.249555
0.131693 0.863636 0.249555
0.250270 0.868448 0.249555
0.369392 0.873164 0.249555
0.489558 0.877843 0.249555
0.612606 0.882575 0.249555
0.741247 0.887472 0.249555
0.878952 0.892666 0.249555
1.000000 0.898318 0.249555
0.016767 1.000000 0.249555
0.131693 1.000000 0.249555
0.250270 1.000000 0.249555
0.369392 1.000000 0.249555
0.489558 1.000000 0.249555
0.612606 1.000000 0.249555
0.741247 1.000000 0.249555
0.878952 1.000000 0.249555
1.000000 1.000000 0.249555
0.016767 0.010000 0.363604
0.131693 0.014918 0.363604
0.250270 0.019730 0.363604
0.369392 0.024446 0.363604
0.489558 0.029126 0.363604
0.612606 0.033858 0.363604
0.741247 0.038754 0.363604
0.878952 0.043949 0.363604
1.000000 0.049600 0.363604
0.016767 0.132948 0.363604
0.131693 0.137866 0.363604
0.250270 0.142678 0.363604
0.369392 0.147394 0.363604
0.489558 0.152074 0.363604
0.612606 0.156806 0.363604
0.741247 0.161703 0.363604
0.878952 0.166897 0.363604
1.000000 0.172548 0.363604
0.016767 0.253248 0.363604
0.131693 0.258166 0.363604
0.250270 0.262978 0.363604
0.369392 0.267694 0.363604
0.489558 0.272374 0.363604
0.612606 0.277106 0.363604
0.741247 0.282002 0.363604
0.878952 0.287197 0.363604
1.000000 0.292848 0.363604
0.016767 0.371149 0.363604
0.131693 0.376067 0.363604
0.250270 0.380879 0.363604
0.369392 0.385595 0.363604
0.489558 0.390274 0.363604
0.612606 0.395006 0.363604
0.741247 0.399903 0.363604
0.878952 0.405097 0.363604
1.000000 0.410749 0.363604
0.016767 0.488138 0.363604
0.131693 0.493056 0.363604
0.250270 0.497868 0.363604
0.369392 0.502584 0.363604
0.489558 0.507264 0.363604
0.612606 0.511996 0.363604
0.741247 0.516893 0.363604
0.878952 0.522087 0.363604
1.000000 0.527739 0.363604
0.016767 0.606442 0.363604
0.131693 0.611360 0.363604
0.250270 0.616172 0.363604
0.369392 0.620888 0.363604
0.489558 0.625568 0.363604
0.612606 0.630300 0.363604
0.741247 0.635196 0.363604
0.878952 0.640391 0.363604
1.000000 0.646042 0.363604
0.016767 0.728854 0.363604
0.131693 0.733772 0.363604
0.250270 0.738584 0.363604
0.369392 0.743300 0.363604
0.489558 0.747980 0.363604
0.612606 0.752712 0.363604
0.741247 0.757608 0.363604
0.878952 0.762803 0.363604
1.000000 0.768454 0.363604
0.016767 0.858718 0.363604
0.131693 0.863636 0.363604
0.250270 0.868448 0.363604
0.369392 0.873164 0.363604
0.489558 0.877843 0.363604
0.612606 0.882575 0.363604
0.741247 0.887472 0.363604
0.878952 0.892666 0.363604
1.000000 0.898318 0.363604
0.016767 1.000000 0.363604
0.131693 1.000000 0.363604
0.250270 1.000000 0.363604
0.369392 1.000000 0.363604
0.489558 1.000000 0.363604
0.612606 1.000000 0.363604
0.741247 1.000000 0.363604
0.878952 1.000000 0.363604
1.000000 1.000000 0.363604
0.016767 0.010000 0.475000
0.131693 0.014918 0.475000
0.250270 0.019730 0.475000
0.369392 0.024446 0.475000
0.489558 0.029126 0.475000
0.612606 0.033858 0.475000
0.741247 0.038754 0.475000
0.878952 0.043949 0.475000
1.000000 0.049600 0.475000
0.016767 0.132948 0.475000
0.131693 0.137866 0.475000
0.250270 0.142678 0.475000
0.369392 0.147394 0.475000
0.489558 0.152074 0.475000
0.612606 0.156806 0.475000
0.741247 0.161703 0.475000
0.878952 0.166897 0.475000
1.000000 0.172548 0.475000
0.016767 0.253248 0.475000
0.131693 0.258166 0.475000
0.250270 0.262978 0.475000
0.369392 0.267694 0.475000
0.489558 0.272374 0.475000
0.612606 0.277106 0.475000
0.741247 0.282002 0.475000
0.878952 0.287197 0.475000
1.000000 0.292848 0.475000
0.016767 0.371149 0.475000
0.131693 0.376067 0.475000
0.250270 0.380879 0.475000
0.369392 0.385595 0.475000
0.489558 0.390274 0.475000
0.612606 0.395006 0.475000
0.741247 0.399903 0.475000
0.878952 0.405097 0.475000
1.000000 0.410749 0.475000
0.016767 0.488138 0.475000
0.131693 0.493056 0.475000
0.250270 0.497868 0.475000
0.369392 0.502584 0.475000
0.489558 0.507264 0.475000
0.612606 0.511996 0.475000
0.741247 0.516893 0.475000
0.878952 0.522087 0.475000
1.000000 0.527739 0.475000
0.016767 0.606442 0.475000
0.131693 0.611360 0.475000
0.250270 0.616172 0.475000
0.369392 0.620888 0.475000
0.489558 0.625568 0.475000
0.612606 0.630300 0.475000
0.741247 0.635196 0.475000
0.878952 0.640391 0.475000
1.000000 0.646042 0.475000
0.016767 0.728854 0.475000
0.131693 0.733772 0.475000
0.250270 0.738584 0.475000
0.369392 0.743300 0.475000
0.489558 0.747980 0.475000
0.612606 0.752712 0.475000
0.741247 0.757608 0.475000
0.878952 0.762803 0.475000
1.000000 0.768454 0.475000
0.016767 0.858718 0.475000
0.131693 0.863636 0.475000
0.250270 0.868448 0.475000
0.369392 0.873164 0.475000
0.489558 0.877843 0.475000
0.612606 0.882575 0.475000
0.741247 0.887472 0.475000
0.878952 0.892666 0.475000
1.000000 0.898318 0.475000
0.016767 1.000000 0.475000
0.131693 1.000000 0.475000
0.250270 1.000000 0.475000
0.369392 1.000000 0.475000
0.489558 1.000000 0.475000
0.612606 1.000000 0.475000
0.741247 1.000000 0.475000
0.878952 1.000000 0.475000
1.000000 1.000000 0.475000
0.016767 0.010000 0.586322
0.131693 0.014918 0.586322
0.250270 0.019730 0.586322
0.369392 0.024446 0.586322
0.489558 0.029126 0.586322
0.612606 0.033858 0.586322
0.741247 0.038754 0.586322
0.878952 0.043949 0.586322
1.000000 0.049600 0.586322
0.016767 0.132948 0.586322
0.131693 0.137866 0.586322
0.250270 0.142678 0.586322
0.369392 0.147394 0.586322
0.489558 0.152074 0.586322
0.612606 0.156806 0.586322
0.741247 0.161703 0.586322
0.878952 0.166897 0.586322
1.000000 0.172548 0.586322
0.016767 0.253248 0.586322
0.131693 0.258166 0.586322
0.250270 0.262978 0.586322
0.369392 0.267694 0.586322
0.489558 0.272374 0.586322
0.612606 0.277106 0.586322
0.741247 0.282002 0.586322
0.878952 0.287197 0.586322
1.000000 0.292848 0.586322
0.016767 0.371149 0.586322
0.131693 0.376067 0.586322
0.250270 0.380879 0.586322
0.369392 0.385595 0.586322
0.489558 0.390274 0.586322
0.612606 0.395006 0.586322
0.741247 0.399903 0.586322
0.878952 0.405097 0.586322
1.000000 0.410749 0.586322
0.016767 0.488138 0.586322
0.131693 0.493056 0.586322
0.250270 0.497868 0.586322
0.369392 0.502584 0.586322
0.489558 0.507264 0.586322
0.612606 0.511996 0.586322
0.741247 0.516893 0.586322
0.878952 0.522087 0.586322
1.000000 0.527739 0.586322
0.016767 0.606442 0.586322
0.131693 0.611360 0.586322
0.250270 0.616172 0.586322
0.369392 0.620888 0.586322
0.489558 0.625568 0.586322
0.612606 0.630300 0.586322
0.741247 0.635196 0.586322
0.878952 0.640391 0.586322
1.000000 0.646042 0.586322
0.016767 0.728854 0.586322
0.131693 0.733772 0.586322
0.250270 0.738584 0.586322
0.369392 0.743300 0.586322
0.489558 0.747980 0.586322
0.612606 0.752712 0.586322
0.741247 0.757608 0.586322
0.878952 0.762803 0.586322
1.000000 0.768454 0.586322
0.016767 0.858718 0.586322
0.131693 0.863636 0.586322
0.250270 0.868448 0.586322
0.369392 0.873164 0.586322
0.489558 0.877843 0.586322
0.612606 0.882575 0.586322
0.741247 0.887472 0.586322
0.878952 0.892666 0.586322
1.000000 0.898318 0.586322
0.016767 1.000000 0.586322
0.131693 1.000000 0.586322
0.250270 1.000000 0.586322
0.369392 1.000000 0.586322
0.489558 1.000000 0.586322
0.612606 1.000000 0.586322
0.741247 1.000000 0.586322
0.878952 1.000000 0.586322
1.000000 1.000000 0.586322
0.016767 0.010000 0.700403
0.131693 0.014918 0.700403
0.250270 0.019730 0.700403
0.369392 0.024446 0.700403
0.489558 0.029126 0.700403
0.612606 0.033858 0.700403
0.741247 0.038754 0.700403
0.878952 0.043949 0.700403
1.000000 0.049600 0.700403
0.016767 0.132948 0.700403
0.131693 0.137866 0.700403
0.250270 0.142678 0.700403
0.369392 0.147394 0.700403
0.489558 0.152074 0.700403
0.612606 0.156806 0.700403
0.741247 0.161703 0.700403
0.878952 0.166897 0.700403
1.000000 0.172548 0.700403
0.016767 0.253248 0.700403
0.131693 0.258166 0.700403
0.250270 0.262978 0.700403
0.369392 0.267694 0.700403
0.489558 0.272374 0.700403
0.612606 0.277106 0.700403
0.741247 0.282002 0.700403
0.878952 0.287197 0.700403
1.000000 0.292848 0.700403
0.016767 0.371149 0.700403
0.131693 0.376067 0.700403
0.250270 0.380879 0.700403
0.369392 0.385595 0.700403
0.489558 0.390274 0.700403
0.612606 0.395006 0.700403
0.741247 0.399903 0.700403
0.878952 0.405097 0.700403
1.000000 0.410749 0.700403
0.016767 0.488138 0.700403
0.131693 0.493056 0.700403
0.250270 0.497868 0.700403
0.369392 0.502584 0.700403
0.489558 0.507264 0.700403
0.612606 0.511996 0.700403
0.741247 0.516893 0.700403
0.878952 0.522087 0.700403
1.000000 0.527739 0.700403
0.016767 0.606442 0.700403
0.131693 0.611360 0.700403
0.250270 0.616172 0.700403
0.369392 0.620888 0.700403
0.489558 0.625568 0.700403
0.612606 0.630300 0.700403
0.741247 0.635196 0.700403
0.878952 0.640391 0.700403
1.000000 0.646042 0.700403
0.016767 0.728854 0.700403
0.131693 0.733772 0.700403
0.250270 0.738584 0.700403
0.369392 0.743300 0.700403
0.489558 0.747980 0.700403
0.612606 0.752712 0.700403
0.741247 0.757608 0.700403
0.878952 0.762803 0.700403
1.000000 0.768454 0.700403
0.016767 0.858718 0.700403
0.131693 0.863636 0.700403
0.250270 0.868448 0.700403
0.369392 0.873164 0.700403
0.489558 0.877843 0.700403
0.612606 0.882575 0.700403
0.741247 0.887472 0.700403
0.878952 0.892666 0.700403
1.000000 0.898318 0.700403
0.016767 1.000000 0.700403
0.131693 1.000000 0.700403
0.250270 1.000000 0.700403
0.369392 1.000000 0.700403
0.489558 1.000000 0.700403
0.612606 1.000000 0.700403
0.741247 1.000000 0.700403
0.878952 1.000000 0.700403
1.000000 1.000000 0.700403
0.016767 0.010000 0.820420
0.131693 0.014918 0.820420
0.250270 0.019730 0.820420
0.369392 0.024446 0.820420
0.489558 0.029126 0.820420
0.612606 0.033858 0.820420
0.741247 0.038754 0.820420
0.878952 0.043949 0.820420
1.000000 0.049600 0.820420
0.016767 0.132948 0.820420
0.131693 0.137866 0.820420
0.250270 0.142678 0.820420
0.369392 0.147394 0.820420
0.489558 0.152074 0.820420
0.612606 0.156806 0.820420
0.741247 0.161703 0.820420
0.878952 0.166897 0.820420
1.000000 0.172548 0.820420
0.016767 0.253248 0.820420
0.131693 0.258166 0.820420
0.250270 0.262978 0.820420
0.369392 0.267694 0.820420
0.489558 0.272374 0.820420
0.612606 0.277106 0.820420
0.741247 0.282002 0.820420
0.878952 0.287197 0.820420
1.000000 0.292848 0.820420
0.016767 0.371149 0.820420
0.131693 0.376067 0.820420
0.250270 0.380879 0.820420
0.369392 0.385595 0.820420
0.489558 0.390274 0.820420
0.612606 0.395006 0.820420
0.741247 0.399903 0.820420
0.878952 0.405097 0.820420
1.000000 0.410749 0.820420
0.016767 0.488138 0.820420
0.131693 0.493056 0.820420
0.250270 0.497868 0.820420
0.369392 0.502584 0.820420
0.489558 0.507264 0.820420
0.612606 0.511996 0.820420
0.741247 0.516893 0.820420
0.878952 0.522087 0.820420
1.000000 0.527739 0.820420
0.016767 0.606442 0.820420
0.131693 0.611360 0.820420
0.250270 0.616172 0.820420
0.369392 0.620888 0.820420
0.489558 0.625568 0.820420
0.612606 0.630300 0.820420
0.741247 0.635196 0.820420
0.878952 0.640391 0.820420
1.000000 0.646042 0.820420
0.016767 0.728854 0.820420
0.131693 0.733772 0.820420
0.250270 0.738584 0.820420
0.369392 0.743300 0.820420
0.489558 0.747980 0.820420
0.612606 0.752712 0.820420
0.741247 0.757608 0.820420
0.878952 0.762803 0.820420
1.000000 0.768454 0.820420
0.016767 0.858718 0.820420
0.131693 0.863636 0.820420
0.250270 0.868448 0.820420
0.369392 0.873164 0.820420
0.489558 0.877843 0.820420
0.612606 0.882575 0.820420
0.741247 0.887472 0.820420
0.878952 0.892666 0.820420
1.000000 0.898318 0.820420
0.016767 1.000000 0.820420
0.131693 1.000000 0.820420
0.250270 1.000000 0.820420
0.369392 1.000000 0.820420
0.489558 1.000000 0.820420
0.612606 1.000000 0.820420
0.741247 1.000000 0.820420
0.878952 1.000000 0.820420
1.000000 1.000000 0.820420
0.016767 0.010000 0.950000
0.131693 0.014918 0.950000
0.250270 0.019730 0.950000
0.369392 0.024446 0.950000
0.489558 0.029126 0.950000
0.612606 0.033858 0.950000
0.741247 0.038754 0.950000
0.878952 0.043949 0.950000
1.000000 0.049600 0.950000
0.016767 0.132948 0.950000
0.131693 0.137866 0.950000
0.250270 0.142678 0.950000
0.369392 0.147394 0.950000
0.489558 0.152074 0.950000
0.612606 0.156806 0.950000
0.741247 0.161703 0.950000
0.878952 0.166897 0.950000
1.000000 0.172548 0.950000
0.016767 0.253248 0.950000
0.131693 0.258166 0.950000
0.250270 0.262978 0.950000
0.369392 0.267694 0.950000
0.489558 0.272374 0.950000
0.612606 0.277106 0.950000
0.741247 0.282002 0.950000
0.878952 0.287197 0.950000
1.000000 0.292848 0.950000
0.016767 0.371149 0.950000
0.131693 0.376067 0.950000
0.250270 0.380879 0.950000
0.369392 0.385595 0.950000
0.489558 0.390274 0.950000
0.612606 0.395006 0.950000
0.741247 0.399903 0.950000
0.878952 0.405097 0.950000
1.000000 0.410749 0.950000
0.016767 0.488138 0.950000
0.131693 0.493056 0.950000
0.250270 0.497868 0.950000
0.369392 0.502584 0.950000
0.489558 0.507264 0.950000
0.612606 0.511996 0.950000
0.741247 0.516893 0.950000
0.878952 0.522087 0.950000
1.000000 0.527739 0.950000
0.016767 0.606442 0.950000
0.131693 0.611360 0.950000
0.250270 0.616172 0.950000
0.369392 0.620888 0.950000
0.489558 0.625568 0.950000
0.612606 0.630300 0.950000
0.741247 0.635196 0.950000
0.878952 0.640391 0.950000
1.000000 0.646042 0.950000
0.016767 0.728854 0.950000
0.131693 0.733772 0.950000
0.250270 0.738584 0.950000
0.369392 0.743300 0.950000
0.489558 0.747980 0.950000
0.612606 0.752712 0.950000
0.741247 0.757608 0.950000
0.878952 0.762803 0.950000
1.000000 0.768454 0.950000
0.016767 0.858718 0.950000
0.131693 0.863636 0.950000
0.250270 0.868448 0.950000
0.369392 0.873164 0.950000
0.489558 0.877843 0.950000
0.612606 0.882575 0.950000
0.741247 0.887472 0.950000
0.878952 0.892666 0.950000
1.000000 0.898318 0.950000
0.016767 1.000000 0.950000
0.131693 1.000000 0.950000
0.250270 1.000000 0.950000
0.369392 1.000000 0.950000
0.489558 1.000000 0.950000
0.612606 1.000000 0.950000
0.741247 1.000000 0.950000
0.878952 1.000000 0.950000
1.000000 1.000000 0.950000
