crates/agx-e2e/fixtures/looks/luts/cinestill_800t.cube
TITLE "cinestill_800t"
LUT_3D_SIZE 5
DOMAIN_MIN 0.0 0.0 0.0
DOMAIN_MAX 1.0 1.0 1.0
0.012741 0.022949 0.033095
0.140201 0.034551 0.044698
0.453827 0.065569 0.075716
0.751405 0.095000 0.105147
0.875666 0.107289 0.117436
0.023753 0.144438 0.044107
0.141845 0.146672 0.046341
0.454941 0.177160 0.076829
0.752518 0.206591 0.106260
0.876780 0.218881 0.118550
0.055079 0.461180 0.075433
0.173171 0.463414 0.077667
0.455779 0.463414 0.077667
0.752518 0.492006 0.106260
0.876780 0.504296 0.118550
0.085710 0.770888 0.106064
0.203802 0.773122 0.108298
0.486409 0.773122 0.108298
0.754556 0.773122 0.108298
0.876780 0.783374 0.118550
0.098662 0.901846 0.119016
0.216753 0.904080 0.121250
0.499361 0.904080 0.121250
0.767508 0.904080 0.121250
0.879480 0.904080 0.121250
0.024626 0.034833 0.153265
0.141604 0.035954 0.154385
0.453827 0.065569 0.184001
0.751405 0.095000 0.213431
0.875666 0.107289 0.225721
0.024626 0.145311 0.153265
0.153200 0.158027 0.165981
0.465953 0.188172 0.196126
0.763530 0.217603 0.225557
0.887792 0.229893 0.237846
0.055079 0.461180 0.183718
0.183653 0.473896 0.196434
0.467664 0.475299 0.197837
0.764403 0.503891 0.226430
0.888665 0.516181 0.238719
0.085710 0.770888 0.214349
0.214284 0.783604 0.227065
0.498294 0.785007 0.228467
0.766441 0.785007 0.228467
0.888665 0.795259 0.238719
0.098662 0.901846 0.227300
0.227235 0.914562 0.240016
0.511246 0.915965 0.241419
0.779393 0.915965 0.241419
0.891365 0.915965 0.241419
0.056037 0.066245 0.470866
0.173015 0.067365 0.471986
0.455623 0.067365 0.471986
0.751405 0.095000 0.499621
0.875666 0.107289 0.511910
0.056037 0.176722 0.470866
0.184611 0.189438 0.483582
0.467749 0.189968 0.484112
0.763530 0.217603 0.511746
0.887792 0.229893 0.524036
0.056037 0.462138 0.470866
0.184611 0.474854 0.483582
0.498237 0.505872 0.514600
0.794856 0.534344 0.543073
0.919118 0.546634 0.555362
0.085710 0.770888 0.500538
0.214284 0.783604 0.513254
0.527909 0.814622 0.544272
0.797852 0.816418 0.546068
0.920076 0.826670 0.556320
0.098662 0.901846 0.513490
0.227235 0.914562 0.526206
0.540861 0.945580 0.557224
0.810804 0.947376 0.559020
0.922776 0.947376 0.559020
0.087201 0.097408 0.785965
0.204179 0.098528 0.787085
0.486787 0.098528 0.787085
0.754934 0.098528 0.787085
0.875666 0.107289 0.795846
0.087201 0.207886 0.785965
0.215775 0.220602 0.798681
0.498912 0.221132 0.799210
0.767059 0.221132 0.799210
0.887792 0.229893 0.807971
0.087201 0.493302 0.785965
0.215775 0.506017 0.798681
0.529400 0.537035 0.829699
0.798385 0.537873 0.830537
0.919118 0.546634 0.839297
0.087201 0.772379 0.785965
0.215775 0.785096 0.798681
0.529400 0.816114 0.829699
0.826978 0.845544 0.859129
0.949748 0.856343 0.869928
0.098662 0.901846 0.797425
0.227235 0.914562 0.810142
0.540861 0.945580 0.841159
0.838439 0.975010 0.870590
0.953939 0.978539 0.874119
0.099562 0.109769 0.910946
0.216540 0.110889 0.912066
0.499148 0.110889 0.912066
0.767294 0.110889 0.912066
0.879266 0.110889 0.912066
0.099562 0.220247 0.910946
0.228135 0.232963 0.923662
0.511273 0.233493 0.924192
0.779420 0.233493 0.924192
0.891392 0.233493 0.924192
0.099562 0.505662 0.910946
0.228135 0.518378 0.923662
0.541761 0.549396 0.954680
0.810746 0.550234 0.955518
0.922718 0.550234 0.955518
0.099562 0.784740 0.910946
0.228135 0.797456 0.923662
0.541761 0.828474 0.954680
0.839339 0.857905 0.984110
0.953348 0.859943 0.986148
0.099562 0.902746 0.910946
0.228135 0.915462 0.923662
0.541761 0.946480 0.954680
0.839339 0.975910 0.984110
0.963600 0.988200 0.996400
