crates/agx-e2e/fixtures/looks/luts/cinema_warm.cube
TITLE "cinema_warm"
LUT_3D_SIZE 5
DOMAIN_MIN 0.0 0.0 0.0
DOMAIN_MAX 1.0 1.0 1.0
0.016767 0.010000 0.000000
0.250270 0.019730 0.000000
0.489558 0.029126 0.000000
0.741247 0.038754 0.000000
1.000000 0.049600 0.000000
0.016767 0.253248 0.000000
0.250270 0.262978 0.000000
0.489558 0.272374 0.000000
0.741247 0.282002 0.000000
1.000000 0.292848 0.000000
0.016767 0.488138 0.000000
0.250270 0.497868 0.000000
0.489558 0.507264 0.000000
0.741247 0.516893 0.000000
1.000000 0.527739 0.000000
0.016767 0.728854 0.000000
0.250270 0.738584 0.000000
0.489558 0.747980 0.000000
0.741247 0.757608 0.000000
1.000000 0.768454 0.000000
0.016767 1.000000 0.000000
0.250270 1.000000 0.000000
0.489558 1.000000 0.000000
0.741247 1.000000 0.000000
1.000000 1.000000 0.000000
0.016767 0.010000 0.249555
0.250270 0.019730 0.249555
0.489558 0.029126 0.249555
0.741247 0.038754 0.249555
1.000000 0.049600 0.249555
0.016767 0.253248 0.249555
0.250270 0.262978 0.249555
0.489558 0.272374 0.249555
0.741247 0.282002 0.249555
1.000000 0.292848 0.249555
0.016767 0.488138 0.249555
0.250270 0.497868 0.249555
0.489558 0.507264 0.249555
0.741247 0.516893 0.249555
1.000000 0.527739 0.249555
0.016767 0.728854 0.249555
0.250270 0.738584 0.249555
0.489558 0.747980 0.249555
0.741247 0.757608 0.249555
1.000000 0.768454 0.249555
0.016767 1.000000 0.249555
0.250270 1.000000 0.249555
0.489558 1.000000 0.249555
0.741247 1.000000 0.249555
1.000000 1.000000 0.249555
0.016767 0.010000 0.475000
0.250270 0.019730 0.475000
0.489558 0.029126 0.475000
0.741247 0.038754 0.475000
1.000000 0.049600 0.475000
0.016767 0.253248 0.475000
0.250270 0.262978 0.475000
0.489558 0.272374 0.475000
0.741247 0.282002 0.475000
1.000000 0.292848 0.475000
0.016767 0.488138 0.475000
0.250270 0.497868 0.475000
0.489558 0.507264 0.475000
0.741247 0.516893 0.475000
1.000000 0.527739 0.475000
0.016767 0.728854 0.475000
0.250270 0.738584 0.475000
0.489558 0.747980 0.475000
0.741247 0.757608 0.475000
1.000000 0.768454 0.475000
0.016767 1.000000 0.475000
0.250270 1.000000 0.475000
0.489558 1.000000 0.475000
0.741247 1.000000 0.475000
1.000000 1.000000 0.475000
0.016767 0.010000 0.700403
0.250270 0.019730 0.700403
0.489558 0.029126 0.700403
0.741247 0.038754 0.700403
1.000000 0.049600 0.700403
0.016767 0.253248 0.700403
0.250270 0.262978 0.700403
0.489558 0.272374 0.700403
0.741247 0.282002 0.700403
1.000000 0.292848 0.700403
0.016767 0.488138 0.700403
0.250270 0.497868 0.700403
0.489558 0.507264 0.700403
0.741247 0.516893 0.700403
1.000000 0.527739 0.700403
0.016767 0.728854 0.700403
0.250270 0.738584 0.700403
0.489558 0.747980 0.700403
0.741247 0.757608 0.700403
1.000000 0.768454 0.700403
0.016767 1.000000 0.700403
0.250270 1.000000 0.700403
0.489558 1.000000 0.700403
0.741247 1.000000 0.700403
1.000000 1.000000 0.700403
0.016767 0.010000 0.950000
0.250270 0.019730 0.950000
0.489558 0.029126 0.950000
0.741247 0.038754 0.950000
1.000000 0.049600 0.950000
0.016767 0.253248 0.950000
0.250270 0.262978 0.950000
0.489558 0.272374 0.950000
0.741247 0.282002 0.950000
1.000000 0.292848 0.950000
0.016767 0.488138 0.950000
0.250270 0.497868 0.950000
0.489558 0.507264 0.950000
0.741247 0.516893 0.950000
1.000000 0.527739 0.950000
0.016767 0.728854 0.950000
0.250270 0.738584 0.950000
0.489558 0.747980 0.950000
0.741247 0.757608 0.950000
1.000000 0.768454 0.950000
0.016767 1.000000 0.950000
0.250270 1.000000 0.950000
0.489558 1.000000 0.950000
0.741247 1.000000 0.950000
1.000000 1.000000 0.950000
