crates/agx-e2e/fixtures/looks/luts/cinestill_800t.cube
TITLE "cinestill_800t"
LUT_3D_SIZE 33
DOMAIN_MIN 0.0 0.0 0.0
DOMAIN_MAX 1.0 1.0 1.0
0.012741 0.022949 0.033095
0.015656 0.023237 0.033384
0.023119 0.023975 0.034122
0.033461 0.024069 0.034216
0.048336 0.025465 0.035612
0.066657 0.027277 0.037424
0.088169 0.029405 0.039552
0.112726 0.031834 0.041980
0.140201 0.034551 0.044698
0.170480 0.037546 0.047692
0.203462 0.040807 0.050954
0.239059 0.044328 0.054475
0.277205 0.048101 0.058248
0.317854 0.052121 0.062268
0.360992 0.056387 0.066534
0.406638 0.060902 0.071048
0.453827 0.065569 0.075716
0.498980 0.070035 0.080181
0.541848 0.074274 0.084421
0.582476 0.078292 0.088439
0.620876 0.082090 0.092237
0.657029 0.085666 0.095812
0.690888 0.089014 0.099161
0.722379 0.092129 0.102276
0.751405 0.095000 0.105147
0.777845 0.097615 0.107762
0.801561 0.099960 0.110107
0.822394 0.102021 0.112168
0.840165 0.103778 0.113925
0.854674 0.105213 0.115360
0.865681 0.106302 0.116449
0.872871 0.107013 0.117160
0.875666 0.107289 0.117436
0.012741 0.025311 0.033095
0.015656 0.025599 0.033384
0.023119 0.026337 0.034122
0.033721 0.026690 0.034475
0.048596 0.028087 0.035871
0.066916 0.029899 0.037683
0.088428 0.032026 0.039811
0.112985 0.034455 0.042240
0.140461 0.037173 0.044957
0.170740 0.040167 0.047952
0.203721 0.043429 0.051213
0.239318 0.046950 0.054734
0.277464 0.050722 0.058507
0.318114 0.054743 0.062527
0.361251 0.059009 0.066793
0.406897 0.063523 0.071308
0.454086 0.068190 0.075975
0.499239 0.072656 0.080440
0.542107 0.076896 0.084681
0.582735 0.080914 0.088699
0.621135 0.084712 0.092496
0.657288 0.088287 0.096072
0.691148 0.091636 0.099421
0.722638 0.094751 0.102535
0.751664 0.097621 0.105406
0.778104 0.100236 0.108021
0.801820 0.102582 0.110367
0.822653 0.104642 0.112427
0.840425 0.106400 0.114184
0.854934 0.107835 0.115619
0.865940 0.108923 0.116708
0.873131 0.109634 0.117419
0.875925 0.109911 0.117696
0.012741 0.031428 0.033095
0.015656 0.031717 0.033384
0.023119 0.032455 0.034122
0.034392 0.033479 0.035146
0.049267 0.034876 0.036543
0.067588 0.036688 0.038355
0.089100 0.038816 0.040482
0.113657 0.041244 0.042911
0.141132 0.043962 0.045628
0.171411 0.046956 0.048623
0.204392 0.050218 0.051885
0.239990 0.053739 0.055405
0.278136 0.057511 0.059178
0.318785 0.061532 0.063199
0.361923 0.065798 0.067465
0.407569 0.070313 0.071979
0.454758 0.074980 0.076646
0.499911 0.079445 0.081112
0.542779 0.083685 0.085352
0.583407 0.087703 0.089370
0.621807 0.091501 0.093168
0.657960 0.095076 0.096743
0.691819 0.098425 0.100092
0.723310 0.101540 0.103207
0.752335 0.104410 0.106077
0.778776 0.107025 0.108692
0.802491 0.109371 0.111038
0.823324 0.111431 0.113098
0.841096 0.113189 0.114856
0.855605 0.114624 0.116290
0.866612 0.115712 0.117379
0.873802 0.116423 0.118091
0.876597 0.116700 0.118367
0.013597 0.041744 0.033951
0.016512 0.042033 0.034239
0.023975 0.042771 0.034977
0.035348 0.043896 0.036102
0.049450 0.044519 0.036726
0.067771 0.046331 0.038538
0.089283 0.048459 0.040665
0.113840 0.050888 0.043094
0.141315 0.053605 0.045811
0.171594 0.056600 0.048806
0.204575 0.059862 0.052068
0.240173 0.063382 0.055588
0.278319 0.067155 0.059361
0.318968 0.071175 0.063381
0.362106 0.075441 0.067648
0.407752 0.079956 0.072162
0.454941 0.084623 0.076829
0.500094 0.089089 0.081295
0.542962 0.093328 0.085535
0.583590 0.097346 0.089553
0.621990 0.101144 0.093351
0.658143 0.104720 0.096926
0.692002 0.108069 0.100275
0.723493 0.111183 0.103389
0.752518 0.114054 0.106260
0.778959 0.116669 0.108875
0.802674 0.119014 0.111220
0.823507 0.121075 0.113281
0.841279 0.122832 0.115039
0.855788 0.124267 0.116473
0.866795 0.125356 0.117562
0.873985 0.126067 0.118273
0.876780 0.126343 0.118550
0.014982 0.055751 0.035336
0.017897 0.056039 0.035624
0.025360 0.056777 0.036362
0.036733 0.057902 0.037487
0.050294 0.057985 0.037570
0.067771 0.058953 0.038538
0.089283 0.061080 0.040665
0.113840 0.063509 0.043094
0.141315 0.066226 0.045811
0.171594 0.069221 0.048806
0.204575 0.072483 0.052068
0.240173 0.076003 0.055588
0.278319 0.079776 0.059361
0.318968 0.083796 0.063381
0.362106 0.088063 0.067648
0.407752 0.092577 0.072162
0.454941 0.097244 0.076829
0.500094 0.101710 0.081295
0.542962 0.105950 0.085535
0.583590 0.109968 0.089553
0.621990 0.113766 0.093351
0.658143 0.117341 0.096926
0.692002 0.120690 0.100275
0.723493 0.123804 0.103389
0.752518 0.126675 0.106260
0.778959 0.129290 0.108875
0.802674 0.131635 0.111220
0.823507 0.133696 0.113281
0.841279 0.135454 0.115039
0.855788 0.136888 0.116473
0.866795 0.137977 0.117562
0.873985 0.138688 0.118273
0.876780 0.138965 0.118550
0.016701 0.073129 0.037055
0.019616 0.073417 0.037343
0.027079 0.074155 0.038081
0.038452 0.075280 0.039206
0.052013 0.075363 0.039289
0.068522 0.075363 0.039289
0.089283 0.076739 0.040665
0.113840 0.079168 0.043094
0.141315 0.081886 0.045811
0.171594 0.084880 0.048806
0.204575 0.088142 0.052068
0.240173 0.091663 0.055588
0.278319 0.095435 0.059361
0.318968 0.099456 0.063381
0.362106 0.103722 0.067648
0.407752 0.108236 0.072162
0.454941 0.112903 0.076829
0.500094 0.117369 0.081295
0.542962 0.121609 0.085535
0.583590 0.125627 0.089553
0.621990 0.129425 0.093351
0.658143 0.133000 0.096926
0.692002 0.136349 0.100275
0.723493 0.139464 0.103389
0.752518 0.142334 0.106260
0.778959 0.144949 0.108875
0.802674 0.147295 0.111220
0.823507 0.149355 0.113281
0.841279 0.151113 0.115039
0.855788 0.152548 0.116473
0.866795 0.153636 0.117562
0.873985 0.154347 0.118273
0.876780 0.154624 0.118550
0.018742 0.093767 0.039096
0.021657 0.094056 0.039384
0.029120 0.094794 0.040122
0.040493 0.095919 0.041247
0.054054 0.096001 0.041330
0.070563 0.096001 0.041330
0.089947 0.096001 0.041330
0.113840 0.097766 0.043094
0.141315 0.100483 0.045811
0.171594 0.103478 0.048806
0.204575 0.106739 0.052068
0.240173 0.110260 0.055588
0.278319 0.114033 0.059361
0.318968 0.118053 0.063381
0.362106 0.122319 0.067648
0.407752 0.126834 0.072162
0.454941 0.131501 0.076829
0.500094 0.135967 0.081295
0.542962 0.140206 0.085535
0.583590 0.144224 0.089553
0.621990 0.148022 0.093351
0.658143 0.151598 0.096926
0.692002 0.154946 0.100275
0.723493 0.158061 0.103389
0.752518 0.160932 0.106260
0.778959 0.163547 0.108875
0.802674 0.165892 0.111220
0.823507 0.167953 0.113281
0.841279 0.169710 0.115039
0.855788 0.171145 0.116473
0.866795 0.172234 0.117562
0.873985 0.172945 0.118273
0.876780 0.173221 0.118550
0.021096 0.117568 0.041450
0.024011 0.117856 0.041738
0.031474 0.118594 0.042476
0.042847 0.119719 0.043601
0.056408 0.119802 0.043684
0.072917 0.119802 0.043684
0.092301 0.119802 0.043684
0.114430 0.119802 0.043684
0.141315 0.121930 0.045811
0.171594 0.124924 0.048806
0.204575 0.128186 0.052068
0.240173 0.131707 0.055588
0.278319 0.135479 0.059361
0.318968 0.139500 0.063381
0.362106 0.143766 0.067648
0.407752 0.148280 0.072162
0.454941 0.152947 0.076829
0.500094 0.157413 0.081295
0.542962 0.161653 0.085535
0.583590 0.165671 0.089553
0.621990 0.169469 0.093351
0.658143 0.173044 0.096926
0.692002 0.176393 0.100275
0.723493 0.179508 0.103389
0.752518 0.182378 0.106260
0.778959 0.184993 0.108875
0.802674 0.187339 0.111220
0.823507 0.189399 0.113281
0.841279 0.191157 0.115039
0.855788 0.192592 0.116473
0.866795 0.193680 0.117562
0.873985 0.194391 0.118273
0.876780 0.194668 0.118550
0.023753 0.144438 0.044107
0.026668 0.144727 0.044395
0.034131 0.145465 0.045134
0.045504 0.146590 0.046258
0.059065 0.146672 0.046341
0.075574 0.146672 0.046341
0.094958 0.146672 0.046341
0.117087 0.146672 0.046341
0.141845 0.146672 0.046341
0.171594 0.149137 0.048806
0.204575 0.152399 0.052068
0.240173 0.155920 0.055588
0.278319 0.159692 0.059361
0.318968 0.163713 0.063381
0.362106 0.167979 0.067648
0.407752 0.172493 0.072162
0.454941 0.177160 0.076829
0.500094 0.181626 0.081295
0.542962 0.185866 0.085535
0.583590 0.189884 0.089553
0.621990 0.193682 0.093351
0.658143 0.197257 0.096926
0.692002 0.200606 0.100275
0.723493 0.203721 0.103389
0.752518 0.206591 0.106260
0.778959 0.209206 0.108875
0.802674 0.211552 0.111220
0.823507 0.213612 0.113281
0.841279 0.215370 0.115039
0.855788 0.216805 0.116473
0.866795 0.217893 0.117562
0.873985 0.218604 0.118273
0.876780 0.218881 0.118550
0.026706 0.174293 0.047060
0.029621 0.174581 0.047348
0.037084 0.175319 0.048086
0.048457 0.176444 0.049211
0.062018 0.176527 0.049294
0.078527 0.176527 0.049294
0.097911 0.176527 0.049294
0.120040 0.176527 0.049294
0.144798 0.176527 0.049294
0.172082 0.176527 0.049294
0.204575 0.179301 0.052068
0.240173 0.182821 0.055588
0.278319 0.186594 0.059361
0.318968 0.190614 0.063381
0.362106 0.194881 0.067648
0.407752 0.199395 0.072162
0.454941 0.204062 0.076829
0.500094 0.208528 0.081295
0.542962 0.212767 0.085535
0.583590 0.216786 0.089553
0.621990 0.220583 0.093351
0.658143 0.224159 0.096926
0.692002 0.227508 0.100275
0.723493 0.230622 0.103389
0.752518 0.233493 0.106260
0.778959 0.236108 0.108875
0.802674 0.238453 0.111220
0.823507 0.240514 0.113281
0.841279 0.242271 0.115039
0.855788 0.243706 0.116473
0.866795 0.244795 0.117562
0.873985 0.245506 0.118273
0.876780 0.245782 0.118550
0.029946 0.207052 0.050300
0.032861 0.207340 0.050588
0.040324 0.208078 0.051326
0.051697 0.209203 0.052451
0.065258 0.209286 0.052534
0.081767 0.209286 0.052534
0.101151 0.209286 0.052534
0.123280 0.209286 0.052534
0.148037 0.209286 0.052534
0.175322 0.209286 0.052534
0.205041 0.209286 0.052534
0.240173 0.212341 0.055588
0.278319 0.216113 0.059361
0.318968 0.220134 0.063381
0.362106 0.224400 0.067648
0.407752 0.228914 0.072162
0.454941 0.233581 0.076829
0.500094 0.238047 0.081295
0.542962 0.242287 0.085535
0.583590 0.246305 0.089553
0.621990 0.250103 0.093351
0.658143 0.253678 0.096926
0.692002 0.257027 0.100275
0.723493 0.260142 0.103389
0.752518 0.263012 0.106260
0.778959 0.265627 0.108875
0.802674 0.267973 0.111220
0.823507 0.270033 0.113281
0.841279 0.271791 0.115039
0.855788 0.273226 0.116473
0.866795 0.274314 0.117562
0.873985 0.275025 0.118273
0.876780 0.275302 0.118550
0.033466 0.242648 0.053820
0.036381 0.242937 0.054109
0.043845 0.243675 0.054847
0.055217 0.244800 0.055971
0.068778 0.244882 0.056054
0.085287 0.244882 0.056054
0.104672 0.244882 0.056054
0.126800 0.244882 0.056054
0.151558 0.244882 0.056054
0.178842 0.244882 0.056054
0.208562 0.244882 0.056054
0.240639 0.244882 0.056054
0.278319 0.248189 0.059361
0.318968 0.252209 0.063381
0.362106 0.256476 0.067648
0.407752 0.260990 0.072162
0.454941 0.265657 0.076829
0.500094 0.270123 0.081295
0.542962 0.274363 0.085535
0.583590 0.278381 0.089553
0.621990 0.282179 0.093351
0.658143 0.285754 0.096926
0.692002 0.289103 0.100275
0.723493 0.292217 0.103389
0.752518 0.295088 0.106260
0.778959 0.297703 0.108875
0.802674 0.300049 0.111220
0.823507 0.302109 0.113281
0.841279 0.303867 0.115039
0.855788 0.305302 0.116473
0.866795 0.306390 0.117562
0.873985 0.307101 0.118273
0.876780 0.307378 0.118550
0.037262 0.281029 0.057616
0.040177 0.281318 0.057904
0.047640 0.282056 0.058643
0.059013 0.283181 0.059767
0.072574 0.283263 0.059850
0.089083 0.283263 0.059850
0.108467 0.283263 0.059850
0.130596 0.283263 0.059850
0.155354 0.283263 0.059850
0.182638 0.283263 0.059850
0.212358 0.283263 0.059850
0.244435 0.283263 0.059850
0.278808 0.283263 0.059850
0.318968 0.286795 0.063381
0.362106 0.291061 0.067648
0.407752 0.295575 0.072162
0.454941 0.300242 0.076829
0.500094 0.304708 0.081295
0.542962 0.308948 0.085535
0.583590 0.312966 0.089553
0.621990 0.316764 0.093351
0.658143 0.320339 0.096926
0.692002 0.323688 0.100275
0.723493 0.326802 0.103389
0.752518 0.329673 0.106260
0.778959 0.332288 0.108875
0.802674 0.334634 0.111220
0.823507 0.336694 0.113281
0.841279 0.338452 0.115039
0.855788 0.339887 0.116473
0.866795 0.340975 0.117562
0.873985 0.341686 0.118273
0.876780 0.341963 0.118550
0.041330 0.322163 0.061684
0.044245 0.322452 0.061973
0.051709 0.323190 0.062711
0.063081 0.324314 0.063836
0.076643 0.324397 0.063918
0.093152 0.324397 0.063918
0.112536 0.324397 0.063918
0.134664 0.324397 0.063918
0.159422 0.324397 0.063918
0.186706 0.324397 0.063918
0.216426 0.324397 0.063918
0.248503 0.324397 0.063918
0.282876 0.324397 0.063918
0.319505 0.324397 0.063918
0.362106 0.328127 0.067648
0.407752 0.332641 0.072162
0.454941 0.337308 0.076829
0.500094 0.341774 0.081295
0.542962 0.346013 0.085535
0.583590 0.350032 0.089553
0.621990 0.353829 0.093351
0.658143 0.357405 0.096926
0.692002 0.360754 0.100275
0.723493 0.363868 0.103389
0.752518 0.366739 0.106260
0.778959 0.369354 0.108875
0.802674 0.371699 0.111220
0.823507 0.373760 0.113281
0.841279 0.375517 0.115039
0.855788 0.376952 0.116473
0.866795 0.378041 0.117562
0.873985 0.378752 0.118273
0.876780 0.379028 0.118550
0.045670 0.366047 0.066024
0.048585 0.366335 0.066313
0.056049 0.367073 0.067051
0.067422 0.368198 0.068176
0.080983 0.368281 0.068258
0.097492 0.368281 0.068258
0.116876 0.368281 0.068258
0.139004 0.368281 0.068258
0.163762 0.368281 0.068258
0.191046 0.368281 0.068258
0.220766 0.368281 0.068258
0.252843 0.368281 0.068258
0.287216 0.368281 0.068258
0.323845 0.368281 0.068258
0.362716 0.368281 0.068258
0.407752 0.372185 0.072162
0.454941 0.376852 0.076829
0.500094 0.381317 0.081295
0.542962 0.385557 0.085535
0.583590 0.389575 0.089553
0.621990 0.393373 0.093351
0.658143 0.396949 0.096926
0.692002 0.400297 0.100275
0.723493 0.403412 0.103389
0.752518 0.406282 0.106260
0.778959 0.408897 0.108875
0.802674 0.411243 0.111220
0.823507 0.413303 0.113281
0.841279 0.415061 0.115039
0.855788 0.416496 0.116473
0.866795 0.417584 0.117562
0.873985 0.418296 0.118273
0.876780 0.418572 0.118550
0.050286 0.412713 0.070640
0.053201 0.413002 0.070928
0.060664 0.413740 0.071666
0.072037 0.414864 0.072791
0.085598 0.414947 0.072874
0.102107 0.414947 0.072874
0.121491 0.414947 0.072874
0.143620 0.414947 0.072874
0.168378 0.414947 0.072874
0.195662 0.414947 0.072874
0.225381 0.414947 0.072874
0.257458 0.414947 0.072874
0.291831 0.414947 0.072874
0.328461 0.414947 0.072874
0.367332 0.414947 0.072874
0.408464 0.414947 0.072874
0.454941 0.418903 0.076829
0.500094 0.423368 0.081295
0.542962 0.427608 0.085535
0.583590 0.431626 0.089553
0.621990 0.435424 0.093351
0.658143 0.439000 0.096926
0.692002 0.442348 0.100275
0.723493 0.445463 0.103389
0.752518 0.448333 0.106260
0.778959 0.450948 0.108875
0.802674 0.453294 0.111220
0.823507 0.455354 0.113281
0.841279 0.457112 0.115039
0.855788 0.458547 0.116473
0.866795 0.459635 0.117562
0.873985 0.460347 0.118273
0.876780 0.460623 0.118550
0.055079 0.461180 0.075433
0.057994 0.461468 0.075721
0.065457 0.462206 0.076460
0.076830 0.463331 0.077584
0.090391 0.463414 0.077667
0.106900 0.463414 0.077667
0.126284 0.463414 0.077667
0.148413 0.463414 0.077667
0.173171 0.463414 0.077667
0.200455 0.463414 0.077667
0.230175 0.463414 0.077667
0.262252 0.463414 0.077667
0.296625 0.463414 0.077667
0.333254 0.463414 0.077667
0.372125 0.463414 0.077667
0.413257 0.463414 0.077667
0.455779 0.463414 0.077667
0.500094 0.467041 0.081295
0.542962 0.471281 0.085535
0.583590 0.475299 0.089553
0.621990 0.479097 0.093351
0.658143 0.482673 0.096926
0.692002 0.486021 0.100275
0.723493 0.489136 0.103389
0.752518 0.492006 0.106260
0.778959 0.494621 0.108875
0.802674 0.496967 0.111220
0.823507 0.499027 0.113281
0.841279 0.500785 0.115039
0.855788 0.502220 0.116473
0.866795 0.503309 0.117562
0.873985 0.504020 0.118273
0.876780 0.504296 0.118550
0.059685 0.507746 0.080039
0.062600 0.508035 0.080327
0.070063 0.508773 0.081065
0.081436 0.509898 0.082190
0.094997 0.509980 0.082273
0.111506 0.509980 0.082273
0.130890 0.509980 0.082273
0.153019 0.509980 0.082273
0.177777 0.509980 0.082273
0.205061 0.509980 0.082273
0.234780 0.509980 0.082273
0.266857 0.509980 0.082273
0.301230 0.509980 0.082273
0.337859 0.509980 0.082273
0.376731 0.509980 0.082273
0.417862 0.509980 0.082273
0.460384 0.509980 0.082273
0.501071 0.509980 0.082273
0.542962 0.513242 0.085535
0.583590 0.517260 0.089553
0.621990 0.521058 0.093351
0.658143 0.524634 0.096926
0.692002 0.527982 0.100275
0.723493 0.531097 0.103389
0.752518 0.533968 0.106260
0.778959 0.536583 0.108875
0.802674 0.538928 0.111220
0.823507 0.540989 0.113281
0.841279 0.542746 0.115039
0.855788 0.544181 0.116473
0.866795 0.545270 0.117562
0.873985 0.545981 0.118273
0.876780 0.546257 0.118550
0.064073 0.552115 0.084427
0.066988 0.552404 0.084715
0.074451 0.553142 0.085453
0.085824 0.554266 0.086578
0.099385 0.554349 0.086661
0.115894 0.554349 0.086661
0.135278 0.554349 0.086661
0.157407 0.554349 0.086661
0.182165 0.554349 0.086661
0.209449 0.554349 0.086661
0.239168 0.554349 0.086661
0.271245 0.554349 0.086661
0.305618 0.554349 0.086661
0.342248 0.554349 0.086661
0.381119 0.554349 0.086661
0.422251 0.554349 0.086661
0.464772 0.554349 0.086661
0.505460 0.554349 0.086661
0.544088 0.554349 0.086661
0.583590 0.557241 0.089553
0.621990 0.561039 0.093351
0.658143 0.564614 0.096926
0.692002 0.567963 0.100275
0.723493 0.571078 0.103389
0.752518 0.573948 0.106260
0.778959 0.576563 0.108875
0.802674 0.578909 0.111220
0.823507 0.580969 0.113281
0.841279 0.582727 0.115039
0.855788 0.584162 0.116473
0.866795 0.585250 0.117562
0.873985 0.585961 0.118273
0.876780 0.586238 0.118550
0.068245 0.594297 0.088599
0.071160 0.594586 0.088887
0.078623 0.595324 0.089625
0.089996 0.596448 0.090750
0.103557 0.596531 0.090833
0.120066 0.596531 0.090833
0.139450 0.596531 0.090833
0.161579 0.596531 0.090833
0.186336 0.596531 0.090833
0.213621 0.596531 0.090833
0.243340 0.596531 0.090833
0.275417 0.596531 0.090833
0.309790 0.596531 0.090833
0.346419 0.596531 0.090833
0.385291 0.596531 0.090833
0.426422 0.596531 0.090833
0.468944 0.596531 0.090833
0.509631 0.596531 0.090833
0.548260 0.596531 0.090833
0.584870 0.596531 0.090833
0.621990 0.599049 0.093351
0.658143 0.602625 0.096926
0.692002 0.605973 0.100275
0.723493 0.609088 0.103389
0.752518 0.611959 0.106260
0.778959 0.614573 0.108875
0.802674 0.616919 0.111220
0.823507 0.618979 0.113281
0.841279 0.620737 0.115039
0.855788 0.622172 0.116473
0.866795 0.623261 0.117562
0.873985 0.623972 0.118273
0.876780 0.624248 0.118550
0.072199 0.634276 0.092553
0.075114 0.634564 0.092841
0.082577 0.635302 0.093579
0.093950 0.636427 0.094704
0.107511 0.636510 0.094787
0.124020 0.636510 0.094787
0.143404 0.636510 0.094787
0.165533 0.636510 0.094787
0.190290 0.636510 0.094787
0.217575 0.636510 0.094787
0.247294 0.636510 0.094787
0.279371 0.636510 0.094787
0.313744 0.636510 0.094787
0.350373 0.636510 0.094787
0.389244 0.636510 0.094787
0.430376 0.636510 0.094787
0.472898 0.636510 0.094787
0.513585 0.636510 0.094787
0.552214 0.636510 0.094787
0.588824 0.636510 0.094787
0.623426 0.636510 0.094787
0.658143 0.638649 0.096926
0.692002 0.641998 0.100275
0.723493 0.645112 0.103389
0.752518 0.647983 0.106260
0.778959 0.650598 0.108875
0.802674 0.652944 0.111220
0.823507 0.655004 0.113281
0.841279 0.656762 0.115039
0.855788 0.658197 0.116473
0.866795 0.659285 0.117562
0.873985 0.659996 0.118273
0.876780 0.660273 0.118550
0.075930 0.672007 0.096284
0.078845 0.672295 0.096573
0.086309 0.673033 0.097311
0.097681 0.674158 0.098435
0.111243 0.674241 0.098518
0.127751 0.674241 0.098518
0.147135 0.674241 0.098518
0.169264 0.674241 0.098518
0.194022 0.674241 0.098518
0.221306 0.674241 0.098518
0.251026 0.674241 0.098518
0.283102 0.674241 0.098518
0.317476 0.674241 0.098518
0.354105 0.674241 0.098518
0.392976 0.674241 0.098518
0.434108 0.674241 0.098518
0.476630 0.674241 0.098518
0.517317 0.674241 0.098518
0.555945 0.674241 0.098518
0.592555 0.674241 0.098518
0.627157 0.674241 0.098518
0.659735 0.674241 0.098518
0.692002 0.675998 0.100275
0.723493 0.679112 0.103389
0.752518 0.681983 0.106260
0.778959 0.684598 0.108875
0.802674 0.686943 0.111220
0.823507 0.689004 0.113281
0.841279 0.690761 0.115039
0.855788 0.692196 0.116473
0.866795 0.693285 0.117562
0.873985 0.693996 0.118273
0.876780 0.694272 0.118550
0.079433 0.707420 0.099787
0.082348 0.707709 0.100075
0.089811 0.708447 0.100813
0.101184 0.709572 0.101938
0.114745 0.709654 0.102021
0.131254 0.709654 0.102021
0.150638 0.709654 0.102021
0.172767 0.709654 0.102021
0.197525 0.709654 0.102021
0.224809 0.709654 0.102021
0.254528 0.709654 0.102021
0.286605 0.709654 0.102021
0.320978 0.709654 0.102021
0.357608 0.709654 0.102021
0.396479 0.709654 0.102021
0.437610 0.709654 0.102021
0.480132 0.709654 0.102021
0.520819 0.709654 0.102021
0.559448 0.709654 0.102021
0.596058 0.709654 0.102021
0.630660 0.709654 0.102021
0.663237 0.709654 0.102021
0.693748 0.709654 0.102021
0.723493 0.711023 0.103389
0.752518 0.713894 0.106260
0.778959 0.716509 0.108875
0.802674 0.718854 0.111220
0.823507 0.720915 0.113281
0.841279 0.722672 0.115039
0.855788 0.724107 0.116473
0.866795 0.725196 0.117562
0.873985 0.725907 0.118273
0.876780 0.726183 0.118550
0.082696 0.740420 0.103050
0.085611 0.740709 0.103339
0.093075 0.741447 0.104077
0.104447 0.742572 0.105202
0.118009 0.742654 0.105284
0.134518 0.742654 0.105284
0.153902 0.742654 0.105284
0.176030 0.742654 0.105284
0.200788 0.742654 0.105284
0.228073 0.742654 0.105284
0.257792 0.742654 0.105284
0.289869 0.742654 0.105284
0.324242 0.742654 0.105284
0.360871 0.742654 0.105284
0.399742 0.742654 0.105284
0.440874 0.742654 0.105284
0.483396 0.742654 0.105284
0.524083 0.742654 0.105284
0.562712 0.742654 0.105284
0.599321 0.742654 0.105284
0.633924 0.742654 0.105284
0.666501 0.742654 0.105284
0.697011 0.742654 0.105284
0.725388 0.742654 0.105284
0.752518 0.743630 0.106260
0.778959 0.746245 0.108875
0.802674 0.748590 0.111220
0.823507 0.750651 0.113281
0.841279 0.752408 0.115039
0.855788 0.753843 0.116473
0.866795 0.754932 0.117562
0.873985 0.755643 0.118273
0.876780 0.755919 0.118550
0.085710 0.770888 0.106064
0.088625 0.771177 0.106352
0.096088 0.771915 0.107090
0.107461 0.773040 0.108215
0.121022 0.773122 0.108298
0.137531 0.773122 0.108298
0.156915 0.773122 0.108298
0.179044 0.773122 0.108298
0.203802 0.773122 0.108298
0.231086 0.773122 0.108298
0.260805 0.773122 0.108298
0.292882 0.773122 0.108298
0.327255 0.773122 0.108298
0.363885 0.773122 0.108298
0.402756 0.773122 0.108298
0.443887 0.773122 0.108298
0.486409 0.773122 0.108298
0.527096 0.773122 0.108298
0.565725 0.773122 0.108298
0.602335 0.773122 0.108298
0.636937 0.773122 0.108298
0.669514 0.773122 0.108298
0.700025 0.773122 0.108298
0.728401 0.773122 0.108298
0.754556 0.773122 0.108298
0.778959 0.773700 0.108875
0.802674 0.776045 0.111220
0.823507 0.778105 0.113281
0.841279 0.779863 0.115039
0.855788 0.781298 0.116473
0.866795 0.782387 0.117562
0.873985 0.783098 0.118273
0.876780 0.783374 0.118550
0.088459 0.798684 0.108813
0.091374 0.798973 0.109101
0.098837 0.799711 0.109839
0.110210 0.800836 0.110964
0.123771 0.800918 0.111047
0.140280 0.800918 0.111047
0.159664 0.800918 0.111047
0.181793 0.800918 0.111047
0.206551 0.800918 0.111047
0.233835 0.800918 0.111047
0.263554 0.800918 0.111047
0.295631 0.800918 0.111047
0.330004 0.800918 0.111047
0.366633 0.800918 0.111047
0.405505 0.800918 0.111047
0.446636 0.800918 0.111047
0.489158 0.800918 0.111047
0.529845 0.800918 0.111047
0.568474 0.800918 0.111047
0.605084 0.800918 0.111047
0.639686 0.800918 0.111047
0.672264 0.800918 0.111047
0.702774 0.800918 0.111047
0.731150 0.800918 0.111047
0.757305 0.800918 0.111047
0.781131 0.800918 0.111047
0.802674 0.801092 0.111220
0.823507 0.803153 0.113281
0.841279 0.804910 0.115039
0.855788 0.806345 0.116473
0.866795 0.807434 0.117562
0.873985 0.808145 0.118273
0.876780 0.808421 0.118550
0.090928 0.823649 0.111282
0.093843 0.823937 0.111570
0.101306 0.824675 0.112308
0.112679 0.825800 0.113433
0.126240 0.825883 0.113516
0.142749 0.825883 0.113516
0.162133 0.825883 0.113516
0.184262 0.825883 0.113516
0.209020 0.825883 0.113516
0.236304 0.825883 0.113516
0.266023 0.825883 0.113516
0.298100 0.825883 0.113516
0.332474 0.825883 0.113516
0.369103 0.825883 0.113516
0.407974 0.825883 0.113516
0.449106 0.825883 0.113516
0.491627 0.825883 0.113516
0.532314 0.825883 0.113516
0.570943 0.825883 0.113516
0.607553 0.825883 0.113516
0.642155 0.825883 0.113516
0.674733 0.825883 0.113516
0.705243 0.825883 0.113516
0.733619 0.825883 0.113516
0.759774 0.825883 0.113516
0.783599 0.825883 0.113516
0.804970 0.825883 0.113516
