crates/agx-e2e/fixtures/looks/luts/cinestill_800t.cube
TITLE "cinestill_800t"
LUT_3D_SIZE 9
DOMAIN_MIN 0.0 0.0 0.0
DOMAIN_MAX 1.0 1.0 1.0
0.012741 0.022949 0.033095
0.048336 0.025465 0.035612
0.140201 0.034551 0.044698
0.277205 0.048101 0.058248
0.453827 0.065569 0.075716
0.620876 0.082090 0.092237
0.751405 0.095000 0.105147
0.840165 0.103778 0.113925
0.875666 0.107289 0.117436
0.014982 0.055751 0.035336
0.050294 0.057985 0.037570
0.141315 0.066226 0.045811
0.278319 0.079776 0.059361
0.454941 0.097244 0.076829
0.621990 0.113766 0.093351
0.752518 0.126675 0.106260
0.841279 0.135454 0.115039
0.876780 0.138965 0.118550
0.023753 0.144438 0.044107
0.059065 0.146672 0.046341
0.141845 0.146672 0.046341
0.278319 0.159692 0.059361
0.454941 0.177160 0.076829
0.621990 0.193682 0.093351
0.752518 0.206591 0.106260
0.841279 0.215370 0.115039
0.876780 0.218881 0.118550
0.037262 0.281029 0.057616
0.072574 0.283263 0.059850
0.155354 0.283263 0.059850
0.278808 0.283263 0.059850
0.454941 0.300242 0.076829
0.621990 0.316764 0.093351
0.752518 0.329673 0.106260
0.841279 0.338452 0.115039
0.876780 0.341963 0.118550
0.055079 0.461180 0.075433
0.090391 0.463414 0.077667
0.173171 0.463414 0.077667
0.296625 0.463414 0.077667
0.455779 0.463414 0.077667
0.621990 0.479097 0.093351
0.752518 0.492006 0.106260
0.841279 0.500785 0.115039
0.876780 0.504296 0.118550
0.072199 0.634276 0.092553
0.107511 0.636510 0.094787
0.190290 0.636510 0.094787
0.313744 0.636510 0.094787
0.472898 0.636510 0.094787
0.623426 0.636510 0.094787
0.752518 0.647983 0.106260
0.841279 0.656762 0.115039
0.876780 0.660273 0.118550
0.085710 0.770888 0.106064
0.121022 0.773122 0.108298
0.203802 0.773122 0.108298
0.327255 0.773122 0.108298
0.486409 0.773122 0.108298
0.636937 0.773122 0.108298
0.754556 0.773122 0.108298
0.841279 0.779863 0.115039
0.876780 0.783374 0.118550
0.094953 0.864350 0.115307
0.130265 0.866584 0.117541
0.213045 0.866584 0.117541
0.336499 0.866584 0.117541
0.495653 0.866584 0.117541
0.646180 0.866584 0.117541
0.763800 0.866584 0.117541
0.843782 0.866584 0.117541
0.876780 0.867593 0.118550
0.098662 0.901846 0.119016
0.133974 0.904080 0.121250
0.216753 0.904080 0.121250
0.340207 0.904080 0.121250
0.499361 0.904080 0.121250
0.649889 0.904080 0.121250
0.767508 0.904080 0.121250
0.847490 0.904080 0.121250
0.879480 0.904080 0.121250
0.015999 0.026206 0.066037
0.050198 0.027327 0.067157
0.140201 0.034551 0.074381
0.277205 0.048101 0.087931
0.453827 0.065569 0.105399
0.620876 0.082090 0.121920
0.751405 0.095000 0.134830
0.840165 0.103778 0.143608
0.875666 0.107289 0.147120
0.015999 0.056768 0.066037
0.052708 0.060399 0.069667
0.143556 0.068467 0.077735
0.280559 0.082017 0.091285
0.457181 0.099485 0.108754
0.624230 0.116006 0.125275
0.754759 0.128916 0.138184
0.843520 0.137694 0.146963
0.879020 0.141205 0.150474
0.023753 0.144438 0.073791
0.060462 0.148069 0.077421
0.145103 0.149930 0.079283
0.281577 0.162950 0.092302
0.458199 0.180418 0.109771
0.625248 0.196940 0.126292
0.755776 0.209849 0.139201
0.844537 0.218628 0.147980
0.880038 0.222139 0.151491
0.037262 0.281029 0.087300
0.073971 0.284660 0.090930
0.158612 0.286521 0.092791
0.282066 0.286521 0.092791
0.458199 0.303500 0.109771
0.625248 0.320022 0.126292
0.755776 0.332931 0.139201
0.844537 0.341710 0.147980
0.880038 0.345221 0.151491
0.055079 0.461180 0.105117
0.091788 0.464810 0.108747
0.176429 0.466672 0.110609
0.299883 0.466672 0.110609
0.459037 0.466672 0.110609
0.625248 0.482355 0.126292
0.755776 0.495264 0.139201
0.844537 0.504043 0.147980
0.880038 0.507554 0.151491
0.072199 0.634276 0.122236
0.108907 0.637906 0.125867
0.193548 0.639768 0.127728
0.317002 0.639768 0.127728
0.476156 0.639768 0.127728
0.626684 0.639768 0.127728
0.755776 0.651241 0.139201
0.844537 0.660020 0.147980
0.880038 0.663531 0.151491
0.085710 0.770888 0.135747
0.122418 0.774519 0.139378
0.207059 0.776380 0.141239
0.330513 0.776380 0.141239
0.489667 0.776380 0.141239
0.640195 0.776380 0.141239
0.757814 0.776380 0.141239
0.844537 0.783121 0.147980
0.880038 0.786632 0.151491
0.094953 0.864350 0.144991
0.131662 0.867981 0.148621
0.216303 0.869842 0.150483
0.339757 0.869842 0.150483
0.498911 0.869842 0.150483
0.649438 0.869842 0.150483
0.767057 0.869842 0.150483
0.847040 0.869842 0.150483
0.880038 0.870851 0.151491
0.098662 0.901846 0.148699
0.135370 0.905476 0.152329
0.220011 0.907338 0.154191
0.343465 0.907338 0.154191
0.502619 0.907338 0.154191
0.653147 0.907338 0.154191
0.770766 0.907338 0.154191
0.850748 0.907338 0.154191
0.882738 0.907338 0.154191
0.024626 0.034833 0.153265
0.058825 0.035954 0.154385
0.141604 0.035954 0.154385
0.277205 0.048101 0.166532
0.453827 0.065569 0.184001
0.620876 0.082090 0.200522
0.751405 0.095000 0.213431
0.840165 0.103778 0.222210
0.875666 0.107289 0.225721
0.024626 0.065395 0.153265
0.061335 0.069026 0.156895
0.144959 0.069870 0.157740
0.280559 0.082017 0.169887
0.457181 0.099485 0.187355
0.624230 0.116006 0.203876
0.754759 0.128916 0.216785
0.843520 0.137694 0.225564
0.879020 0.141205 0.229075
0.024626 0.145311 0.153265
0.061335 0.148942 0.156895
0.153200 0.158027 0.165981
0.289331 0.170704 0.178658
0.465953 0.188172 0.196126
0.633002 0.204694 0.212647
0.763530 0.217603 0.225557
0.852291 0.226382 0.234335
0.887792 0.229893 0.237846
0.037262 0.281029 0.165901
0.073971 0.284660 0.169531
0.165836 0.293745 0.178617
0.290693 0.295148 0.180020
0.466826 0.312127 0.196999
0.633875 0.328649 0.213520
0.764403 0.341558 0.226430
0.853164 0.350337 0.235208
0.888665 0.353848 0.238719
0.055079 0.461180 0.183718
0.091788 0.464810 0.187348
0.183653 0.473896 0.196434
0.308510 0.475299 0.197837
0.467664 0.475299 0.197837
0.633875 0.490982 0.213520
0.764403 0.503891 0.226430
0.853164 0.512670 0.235208
0.888665 0.516181 0.238719
0.072199 0.634276 0.200837
0.108907 0.637906 0.204468
0.200773 0.646992 0.213553
0.325629 0.648395 0.214956
0.484783 0.648395 0.214956
0.635311 0.648395 0.214956
0.764403 0.659868 0.226430
0.853164 0.668647 0.235208
0.888665 0.672158 0.238719
0.085710 0.770888 0.214349
0.122418 0.774519 0.217979
0.214284 0.783604 0.227065
0.339140 0.785007 0.228467
0.498294 0.785007 0.228467
0.648822 0.785007 0.228467
0.766441 0.785007 0.228467
0.853164 0.791748 0.235208
0.888665 0.795259 0.238719
0.094953 0.864350 0.223592
0.131662 0.867981 0.227222
0.223527 0.877066 0.236308
0.348384 0.878469 0.237711
0.507538 0.878469 0.237711
0.658065 0.878469 0.237711
0.775684 0.878469 0.237711
0.855667 0.878469 0.237711
0.888665 0.879477 0.238719
0.098662 0.901846 0.227300
0.135370 0.905476 0.230931
0.227235 0.914562 0.240016
0.352092 0.915965 0.241419
0.511246 0.915965 0.241419
0.661774 0.915965 0.241419
0.779393 0.915965 0.241419
0.859375 0.915965 0.241419
0.891365 0.915965 0.241419
0.038090 0.048297 0.289397
0.072288 0.049417 0.290517
0.155068 0.049417 0.290517
0.278522 0.049417 0.290517
0.453827 0.065569 0.306669
0.620876 0.082090 0.323190
0.751405 0.095000 0.336100
0.840165 0.103778 0.344878
0.875666 0.107289 0.348389
0.038090 0.078859 0.289397
0.074798 0.082489 0.293028
0.158422 0.083333 0.293872
0.281876 0.083333 0.293872
0.457181 0.099485 0.310023
0.624230 0.116006 0.326545
0.754759 0.128916 0.339454
0.843520 0.137694 0.348232
0.879020 0.141205 0.351744
0.038090 0.158775 0.289397
0.074798 0.162406 0.293028
0.166664 0.171491 0.302113
0.290647 0.172021 0.302643
0.465953 0.188172 0.318794
0.633002 0.204694 0.335316
0.763530 0.217603 0.348225
0.852291 0.226382 0.357003
0.887792 0.229893 0.360515
0.038090 0.281857 0.289397
0.074798 0.285487 0.293028
0.166664 0.294573 0.302113
0.303667 0.308123 0.315663
0.479462 0.324763 0.332303
0.646511 0.341285 0.348825
0.777039 0.354194 0.361734
0.865800 0.362972 0.370513
0.901301 0.366484 0.374024
0.055079 0.461180 0.306386
0.091788 0.464810 0.310017
0.183653 0.473896 0.319103
0.320657 0.487446 0.332652
0.481127 0.488762 0.333969
0.647338 0.504446 0.349652
0.777867 0.517355 0.362562
0.866628 0.526134 0.371340
0.902128 0.529645 0.374851
0.072199 0.634276 0.323506
0.108907 0.637906 0.327136
0.200773 0.646992 0.336222
0.337776 0.660542 0.349772
0.498247 0.661858 0.351088
0.648774 0.661858 0.351088
0.777867 0.673332 0.362562
0.866628 0.682110 0.371340
0.902128 0.685621 0.374851
0.085710 0.770888 0.337017
0.122418 0.774519 0.340647
0.214284 0.783604 0.349733
0.351287 0.797154 0.363283
0.511758 0.798471 0.364599
0.662286 0.798471 0.364599
0.779905 0.798471 0.364599
0.866628 0.805212 0.371340
0.902128 0.808723 0.374851
0.094953 0.864350 0.346260
0.131662 0.867981 0.349891
0.223527 0.877066 0.358976
0.360531 0.890616 0.372526
0.521001 0.891933 0.373843
0.671529 0.891933 0.373843
0.789148 0.891933 0.373843
0.869130 0.891933 0.373843
0.902128 0.892941 0.374851
0.098662 0.901846 0.349969
0.135370 0.905476 0.353599
0.227235 0.914562 0.362685
0.364239 0.928112 0.376235
0.524710 0.929428 0.377551
0.675237 0.929428 0.377551
0.792856 0.929428 0.377551
0.872839 0.929428 0.377551
0.904828 0.929428 0.377551
0.056037 0.066245 0.470866
0.090236 0.067365 0.471986
0.173015 0.067365 0.471986
0.296469 0.067365 0.471986
0.455623 0.067365 0.471986
0.620876 0.082090 0.486712
0.751405 0.095000 0.499621
0.840165 0.103778 0.508400
0.875666 0.107289 0.511910
0.056037 0.096806 0.470866
0.092746 0.100437 0.474496
0.176370 0.101281 0.475340
0.299824 0.101281 0.475340
0.458978 0.101281 0.475340
0.624230 0.116006 0.490066
0.754759 0.128916 0.502975
0.843520 0.137694 0.511754
0.879020 0.141205 0.515265
0.056037 0.176722 0.470866
0.092746 0.180353 0.474496
0.184611 0.189438 0.483582
0.308595 0.189968 0.484112
0.467749 0.189968 0.484112
0.633002 0.204694 0.498837
0.763530 0.217603 0.511746
0.852291 0.226382 0.520525
0.887792 0.229893 0.524036
0.056037 0.299804 0.470866
0.092746 0.303435 0.474496
0.184611 0.312520 0.483582
0.321615 0.326070 0.497132
0.481258 0.326559 0.497621
0.646511 0.341285 0.512346
0.777039 0.354194 0.525256
0.865800 0.362972 0.534034
0.901301 0.366484 0.537545
0.056037 0.462138 0.470866
0.092746 0.465768 0.474496
0.184611 0.474854 0.483582
0.321615 0.488404 0.497132
0.498237 0.505872 0.514600
0.664328 0.521435 0.530163
0.794856 0.534344 0.543073
0.883617 0.543123 0.551851
0.919118 0.546634 0.555362
0.072199 0.634276 0.487027
0.108907 0.637906 0.490658
0.200773 0.646992 0.499743
0.337776 0.660542 0.513293
0.514398 0.678010 0.530761
0.666722 0.679806 0.532557
0.795814 0.691279 0.544030
0.884575 0.700058 0.552809
0.920076 0.703569 0.556320
0.085710 0.770888 0.500538
0.122418 0.774519 0.504169
0.214284 0.783604 0.513254
0.351287 0.797154 0.526804
0.527909 0.814622 0.544272
0.680233 0.816418 0.546068
0.797852 0.816418 0.546068
0.884575 0.823159 0.552809
0.920076 0.826670 0.556320
0.094953 0.864350 0.509782
0.131662 0.867981 0.513412
0.223527 0.877066 0.522498
0.360531 0.890616 0.536048
0.537153 0.908084 0.553516
0.689476 0.909880 0.555312
0.807096 0.909880 0.555312
0.887078 0.909880 0.555312
0.920076 0.910888 0.556320
0.098662 0.901846 0.513490
0.135370 0.905476 0.517121
0.227235 0.914562 0.526206
0.364239 0.928112 0.539756
0.540861 0.945580 0.557224
0.693185 0.947376 0.559020
0.810804 0.947376 0.559020
0.890786 0.947376 0.559020
0.922776 0.947376 0.559020
0.073416 0.083623 0.646585
0.107614 0.084744 0.647705
0.190394 0.084744 0.647705
0.313848 0.084744 0.647705
0.473002 0.084744 0.647705
0.623529 0.084744 0.647705
0.751405 0.095000 0.657961
0.840165 0.103778 0.666740
0.875666 0.107289 0.670251
0.073416 0.114185 0.646585
0.110125 0.117816 0.650215
0.193748 0.118660 0.651059
0.317202 0.118660 0.651059
0.476356 0.118660 0.651059
0.626884 0.118660 0.651059
0.754759 0.128916 0.661315
0.843520 0.137694 0.670094
0.879020 0.141205 0.673605
0.073416 0.194101 0.646585
0.110125 0.197732 0.650215
0.201990 0.206817 0.659301
0.325974 0.207347 0.659831
0.485128 0.207347 0.659831
0.635655 0.207347 0.659831
0.763530 0.217603 0.670087
0.852291 0.226382 0.678865
0.887792 0.229893 0.682376
0.073416 0.317183 0.646585
0.110125 0.320814 0.650215
0.201990 0.329899 0.659301
0.338993 0.343449 0.672851
0.498636 0.343938 0.673340
0.649164 0.343938 0.673340
0.777039 0.354194 0.683596
0.865800 0.362972 0.692374
0.901301 0.366484 0.695885
0.073416 0.479517 0.646585
0.110125 0.483147 0.650215
0.201990 0.492232 0.659301
0.338993 0.505782 0.672851
0.515616 0.523251 0.690319
0.666981 0.524088 0.691157
0.794856 0.534344 0.701413
0.883617 0.543123 0.710191
0.919118 0.546634 0.713702
0.073416 0.635493 0.646585
0.110125 0.639124 0.650215
0.201990 0.648209 0.659301
0.338993 0.661759 0.672851
0.515616 0.679227 0.690319
0.682665 0.695748 0.706840
0.811976 0.707441 0.718532
0.900736 0.716219 0.727311
0.936237 0.719730 0.730822
0.085710 0.770888 0.658878
0.122418 0.774519 0.662509
0.214284 0.783604 0.671595
0.351287 0.797154 0.685144
0.527909 0.814622 0.702612
0.694958 0.831144 0.719134
0.815231 0.833797 0.721787
0.901954 0.840538 0.728528
0.937454 0.844049 0.732039
0.094953 0.864350 0.668122
0.131662 0.867981 0.671752
0.223527 0.877066 0.680838
0.360531 0.890616 0.694388
0.537153 0.908084 0.711856
0.704202 0.924606 0.728377
0.824474 0.927259 0.731031
0.904457 0.927259 0.731031
0.937454 0.928267 0.732039
0.098662 0.901846 0.671830
0.135370 0.905476 0.675461
0.227235 0.914562 0.684546
0.364239 0.928112 0.698096
0.540861 0.945580 0.715564
0.707910 0.962101 0.732086
0.828183 0.964754 0.734739
0.908165 0.964754 0.734739
0.940154 0.964754 0.734739
0.087201 0.097408 0.785965
0.121399 0.098528 0.787085
0.204179 0.098528 0.787085
0.327633 0.098528 0.787085
0.486787 0.098528 0.787085
0.637314 0.098528 0.787085
0.754934 0.098528 0.787085
0.840165 0.103778 0.792335
0.875666 0.107289 0.795846
0.087201 0.127970 0.785965
0.123910 0.131600 0.789595
0.207533 0.132444 0.790439
0.330987 0.132444 0.790439
0.490141 0.132444 0.790439
0.640669 0.132444 0.790439
0.758288 0.132444 0.790439
0.843520 0.137694 0.795689
0.879020 0.141205 0.799200
0.087201 0.207886 0.785965
0.123910 0.211517 0.789595
0.215775 0.220602 0.798681
0.339758 0.221132 0.799210
0.498912 0.221132 0.799210
0.649440 0.221132 0.799210
0.767059 0.221132 0.799210
0.852291 0.226382 0.804460
0.887792 0.229893 0.807971
0.087201 0.330968 0.785965
0.123910 0.334599 0.789595
0.215775 0.343684 0.798681
0.352778 0.357234 0.812230
0.512422 0.357723 0.812719
0.662949 0.357723 0.812719
0.780568 0.357723 0.812719
0.865800 0.362972 0.817969
0.901301 0.366484 0.821481
0.087201 0.493302 0.785965
0.123910 0.496932 0.789595
0.215775 0.506017 0.798681
0.352778 0.519567 0.812230
0.529400 0.537035 0.829699
0.680766 0.537873 0.830537
0.798385 0.537873 0.830537
0.883617 0.543123 0.835786
0.919118 0.546634 0.839297
0.087201 0.649278 0.785965
0.123910 0.652909 0.789595
0.215775 0.661994 0.798681
0.352778 0.675544 0.812230
0.529400 0.693012 0.829699
0.696449 0.709533 0.846220
0.815504 0.710969 0.847656
0.900736 0.716219 0.852906
0.936237 0.719730 0.856417
0.087201 0.772379 0.785965
0.123910 0.776010 0.789595
0.215775 0.785096 0.798681
0.352778 0.798645 0.812230
0.529400 0.816114 0.829699
0.696449 0.832635 0.846220
0.826978 0.845544 0.859129
0.914248 0.852832 0.866417
0.949748 0.856343 0.869928
0.094953 0.864350 0.793717
0.131662 0.867981 0.797348
0.223527 0.877066 0.806433
0.360531 0.890616 0.819983
0.537153 0.908084 0.837451
0.704202 0.924606 0.853972
0.834730 0.937515 0.866882
0.918241 0.941044 0.870411
0.951239 0.942052 0.871419
0.098662 0.901846 0.797425
0.135370 0.905476 0.801056
0.227235 0.914562 0.810142
0.364239 0.928112 0.823691
0.540861 0.945580 0.841159
0.707910 0.962101 0.857681
0.838439 0.975010 0.870590
0.921950 0.978539 0.874119
0.953939 0.978539 0.874119
0.096661 0.106868 0.881613
0.130859 0.107988 0.882733
0.213638 0.107988 0.882733
0.337093 0.107988 0.882733
0.496246 0.107988 0.882733
0.646774 0.107988 0.882733
0.764394 0.107988 0.882733
0.844375 0.107988 0.882733
0.876365 0.107988 0.882733
0.096661 0.137430 0.881613
0.133369 0.141060 0.885243
0.216993 0.141904 0.886088
0.340447 0.141904 0.886088
0.499600 0.141904 0.886088
0.650128 0.141904 0.886088
0.767747 0.141904 0.886088
0.847730 0.141904 0.886088
0.879720 0.141904 0.886088
0.096661 0.217346 0.881613
0.133369 0.220976 0.885243
0.225234 0.230062 0.894329
0.349218 0.230592 0.894859
0.508372 0.230592 0.894859
0.658900 0.230592 0.894859
0.776519 0.230592 0.894859
0.856501 0.230592 0.894859
0.888491 0.230592 0.894859
0.096661 0.340428 0.881613
0.133369 0.344058 0.885243
0.225234 0.353144 0.894329
0.362238 0.366694 0.907879
0.521881 0.367183 0.908368
0.672409 0.367183 0.908368
0.790028 0.367183 0.908368
0.870010 0.367183 0.908368
0.901999 0.367183 0.908368
0.096661 0.502761 0.881613
0.133369 0.506392 0.885243
0.225234 0.515477 0.894329
0.362238 0.529027 0.907879
0.538860 0.546495 0.925347
0.690226 0.547333 0.926185
0.807845 0.547333 0.926185
0.887827 0.547333 0.926185
0.919817 0.547333 0.926185
0.096661 0.658738 0.881613
0.133369 0.662368 0.885243
0.225234 0.671454 0.894329
0.362238 0.685004 0.907879
0.538860 0.702472 0.925347
0.705909 0.718993 0.941868
0.824964 0.720429 0.943304
0.904947 0.720429 0.943304
0.936936 0.720429 0.943304
0.096661 0.781839 0.881613
0.133369 0.785470 0.885243
0.225234 0.794555 0.894329
0.362238 0.808105 0.907879
0.538860 0.825573 0.925347
0.705909 0.842094 0.941868
0.836438 0.855004 0.954778
0.918458 0.857042 0.956815
0.950447 0.857042 0.956815
0.096661 0.866058 0.881613
0.133369 0.869688 0.885243
0.225234 0.878774 0.894329
0.362238 0.892323 0.907879
0.538860 0.909792 0.925347
0.705909 0.926313 0.941868
0.836438 0.939222 0.954778
0.925198 0.948001 0.963556
0.959691 0.950503 0.966059
0.098662 0.901846 0.883614
0.135370 0.905476 0.887245
0.227235 0.914562 0.896330
0.364239 0.928112 0.909880
0.540861 0.945580 0.927348
0.707910 0.962101 0.943869
0.838439 0.975010 0.956779
0.927199 0.983789 0.965557
0.962700 0.987300 0.969068
0.099562 0.109769 0.910946
0.133761 0.110889 0.912066
0.216540 0.110889 0.912066
0.339994 0.110889 0.912066
0.499148 0.110889 0.912066
0.649675 0.110889 0.912066
0.767294 0.110889 0.912066
0.847277 0.110889 0.912066
0.879266 0.110889 0.912066
0.099562 0.140331 0.910946
0.136270 0.143961 0.914576
0.219895 0.144805 0.915420
0.343348 0.144805 0.915420
0.502502 0.144805 0.915420
0.653029 0.144805 0.915420
0.770649 0.144805 0.915420
0.850631 0.144805 0.915420
0.882621 0.144805 0.915420
0.099562 0.220247 0.910946
0.136270 0.223878 0.914576
0.228135 0.232963 0.923662
0.352119 0.233493 0.924192
0.511273 0.233493 0.924192
0.661801 0.233493 0.924192
0.779420 0.233493 0.924192
0.859402 0.233493 0.924192
0.891392 0.233493 0.924192
0.099562 0.343329 0.910946
0.136270 0.346959 0.914576
0.228135 0.356045 0.923662
0.365139 0.369595 0.937212
0.524782 0.370084 0.937701
0.675310 0.370084 0.937701
0.792929 0.370084 0.937701
0.872911 0.370084 0.937701
0.904900 0.370084 0.937701
0.099562 0.505662 0.910946
0.136270 0.509293 0.914576
0.228135 0.518378 0.923662
0.365139 0.531928 0.937212
0.541761 0.549396 0.954680
0.693127 0.550234 0.955518
0.810746 0.550234 0.955518
0.890728 0.550234 0.955518
0.922718 0.550234 0.955518
0.099562 0.661639 0.910946
0.136270 0.665269 0.914576
0.228135 0.674355 0.923662
0.365139 0.687905 0.937212
0.541761 0.705373 0.954680
0.708810 0.721894 0.971201
0.827865 0.723330 0.972637
0.907848 0.723330 0.972637
0.939837 0.723330 0.972637
0.099562 0.784740 0.910946
0.136270 0.788371 0.914576
0.228135 0.797456 0.923662
0.365139 0.811006 0.937212
0.541761 0.828474 0.954680
0.708810 0.844996 0.971201
0.839339 0.857905 0.984110
0.921359 0.859943 0.986148
0.953348 0.859943 0.986148
0.099562 0.868958 0.910946
0.136270 0.872589 0.914576
0.228135 0.881675 0.923662
0.365139 0.895224 0.937212
0.541761 0.912693 0.954680
0.708810 0.929214 0.971201
0.839339 0.942123 0.984110
0.928099 0.950902 0.992889
0.962592 0.953405 0.995392
0.099562 0.902746 0.910946
0.136270 0.906376 0.914576
0.228135 0.915462 0.923662
0.365139 0.929012 0.937212
0.541761 0.946480 0.954680
0.708810 0.963001 0.971201
0.839339 0.975910 0.984110
0.928099 0.984689 0.992889
0.963600 0.988200 0.996400
