crates/agx-e2e/fixtures/looks/luts/kodachrome_64.cube
TITLE "kodachrome_64"
LUT_3D_SIZE 9
DOMAIN_MIN 0.0 0.0 0.0
DOMAIN_MAX 1.0 1.0 1.0
0.000000 0.000000 0.000000
0.015625 0.000469 0.000000
0.088388 0.002652 0.000000
0.243570 0.007307 0.000000
0.500000 0.015000 0.000000
0.756430 0.022693 0.000000
0.911612 0.027348 0.000000
0.984375 0.029531 0.000000
1.000000 0.030000 0.000000
0.000000 0.035897 0.000000
0.015625 0.036366 0.000000
0.088388 0.038548 0.000000
0.243570 0.043204 0.000000
0.500000 0.050897 0.000000
0.756430 0.058590 0.000000
0.911612 0.063245 0.000000
0.984375 0.065428 0.000000
1.000000 0.065897 0.000000
0.000000 0.133972 0.000000
0.015625 0.134440 0.000000
0.088388 0.136623 0.000000
0.243570 0.141279 0.000000
0.500000 0.148972 0.000000
0.756430 0.156665 0.000000
0.911612 0.161320 0.000000
0.984375 0.163503 0.000000
1.000000 0.163972 0.000000
0.000000 0.289459 0.000000
0.015625 0.289927 0.000000
0.088388 0.292110 0.000000
0.243570 0.296766 0.000000
0.500000 0.304459 0.000000
0.756430 0.312151 0.000000
0.911612 0.316807 0.000000
0.984375 0.318990 0.000000
1.000000 0.319459 0.000000
0.000000 0.500000 0.000000
0.015625 0.500469 0.000000
0.088388 0.502652 0.000000
0.243570 0.507307 0.000000
0.500000 0.515000 0.000000
0.756430 0.522693 0.000000
0.911612 0.527348 0.000000
0.984375 0.529531 0.000000
1.000000 0.530000 0.000000
0.000000 0.710541 0.000000
0.015625 0.711010 0.000000
0.088388 0.713193 0.000000
0.243569 0.717849 0.000000
0.500000 0.725541 0.000000
0.756430 0.733234 0.000000
0.911612 0.737890 0.000000
0.984375 0.740073 0.000000
1.000000 0.740541 0.000000
0.000000 0.866028 0.000000
0.015625 0.866497 0.000000
0.088389 0.868680 0.000000
0.243570 0.873335 0.000000
0.500000 0.881028 0.000000
0.756430 0.888721 0.000000
0.911612 0.893377 0.000000
0.984375 0.895560 0.000000
1.000000 0.896028 0.000000
0.000000 0.964103 0.000000
0.015625 0.964572 0.000000
0.088388 0.966755 0.000000
0.243570 0.971410 0.000000
0.500000 0.979103 0.000000
0.756431 0.986796 0.000000
0.911612 0.991452 0.000000
0.984375 0.993634 0.000000
1.000000 0.994103 0.000000
0.000000 1.000000 0.000000
0.015625 1.000000 0.000000
0.088388 1.000000 0.000000
0.243570 1.000000 0.000000
0.500000 1.000000 0.000000
0.756431 1.000000 0.000000
0.911612 1.000000 0.000000
0.984375 1.000000 0.000000
1.000000 1.000000 0.000000
0.000000 0.000000 0.015625
0.016094 0.000000 0.016094
0.091040 0.000000 0.013776
0.250877 0.000000 0.008832
0.515000 0.000000 0.000664
0.772055 0.007366 0.000000
0.927237 0.012132 0.000000
1.000000 0.014355 0.000000
1.000000 0.030000 0.015625
0.000000 0.035897 0.015625
0.014381 0.037610 0.014381
0.092754 0.036933 0.011259
0.257246 0.032837 0.001948
0.515625 0.037547 0.000000
0.772055 0.044777 0.000000
0.927237 0.049281 0.000000
1.000000 0.051410 0.000000
1.000000 0.065897 0.015625
0.000000 0.133972 0.015625
0.008496 0.141569 0.008496
0.089860 0.143883 0.008365
0.257246 0.142681 0.001948
0.515625 0.141950 0.000000
0.772055 0.146989 0.000000
0.927237 0.150777 0.000000
1.000000 0.152648 0.000000
1.000000 0.163972 0.015625
0.000000 0.289459 0.015625
0.000000 0.305552 0.000000
0.080988 0.307735 0.000000
0.253282 0.312391 0.000000
0.515625 0.307468 0.000000
0.772055 0.309035 0.000000
0.927237 0.311686 0.000000
1.000000 0.313151 0.000000
1.000000 0.319459 0.015625
0.000000 0.500000 0.015625
0.000000 0.516094 0.000000
0.077432 0.518277 0.000000
0.242432 0.522932 0.000000
0.514686 0.530625 0.000000
0.772055 0.528458 0.000000
0.927237 0.529571 0.000000
1.000000 0.530484 0.000000
1.000000 0.530000 0.015625
0.000000 0.710541 0.015625
0.000000 0.726635 0.000000
0.076023 0.728818 0.000000
0.238089 0.733474 0.000000
0.505697 0.741166 0.000000
0.772055 0.747881 0.000000
0.927237 0.747456 0.000000
1.000000 0.747817 0.000000
1.000000 0.740541 0.015625
0.000000 0.866028 0.015625
0.000000 0.882122 0.000000
0.075429 0.884305 0.000000
0.236250 0.888960 0.000000
0.501866 0.896653 0.000000
0.767321 0.904346 0.000000
0.927237 0.908366 0.000000
1.000000 0.908320 0.000000
1.000000 0.896028 0.015625
0.000000 0.964103 0.015625
0.000000 0.980197 0.000000
0.075154 0.982380 0.000000
0.235398 0.987035 0.000000
0.500086 0.994728 0.000000
0.763370 1.000000 0.002421
0.918761 1.000000 0.007077
0.990620 1.000000 0.009259
1.000000 0.994103 0.015625
0.000000 1.000000 0.015625
0.015625 1.000000 0.015625
0.088388 1.000000 0.015625
0.243570 1.000000 0.015625
0.500000 1.000000 0.015625
0.756430 1.000000 0.015625
0.911612 1.000000 0.015625
0.984375 1.000000 0.015625
1.000000 1.000000 0.015625
0.000000 0.000000 0.088388
0.015318 0.000000 0.088857
0.091040 0.000000 0.091040
0.250877 0.000000 0.086097
0.515000 0.000000 0.077928
0.779123 0.000000 0.069759
0.938960 0.000000 0.064816
1.000000 0.013906 0.074690
1.000000 0.030000 0.088388
0.000000 0.035897 0.088388
0.011259 0.034489 0.092754
0.091379 0.035558 0.091379
0.255592 0.031182 0.081789
0.526946 0.023951 0.065941
0.798301 0.016719 0.050094
0.962514 0.012343 0.040503
1.000000 0.049803 0.073544
1.000000 0.065897 0.088389
0.000000 0.133972 0.088388
0.008496 0.141569 0.089991
0.085494 0.139517 0.085494
0.252881 0.138315 0.079077
0.524697 0.131545 0.063692
0.796513 0.124775 0.048306
0.961005 0.120678 0.038995
1.000000 0.150498 0.072763
1.000000 0.163972 0.088388
0.000000 0.289459 0.088388
0.000000 0.305552 0.081053
0.076165 0.304334 0.076165
0.249689 0.309268 0.075886
0.524697 0.305690 0.063692
0.796513 0.298920 0.048306
0.961005 0.294824 0.038995
1.000000 0.311408 0.072763
1.000000 0.319459 0.088388
0.000000 0.500000 0.088388
0.000000 0.516094 0.077453
0.063533 0.527507 0.063533
0.237056 0.532442 0.063253
0.523797 0.540597 0.062792
0.796513 0.534727 0.048306
0.961005 0.530630 0.038995
1.000000 0.529292 0.072763
1.000000 0.530000 0.088388
0.000000 0.710541 0.088388
0.000000 0.726635 0.076033
0.050900 0.750681 0.050900
0.224424 0.755616 0.050621
0.511164 0.763771 0.050159
0.796513 0.770534 0.048306
0.961005 0.766437 0.038995
1.000000 0.747177 0.072763
1.000000 0.740541 0.088388
0.000000 0.866028 0.088388
0.000000 0.882122 0.075436
0.041571 0.915497 0.041571
0.215094 0.920432 0.041292
0.501835 0.928587 0.040830
0.788575 0.936741 0.040368
0.961005 0.940582 0.038995
1.000000 0.908087 0.072763
1.000000 0.896028 0.088388
0.000000 0.964103 0.088388
0.000000 0.980197 0.075160
0.055143 1.000000 0.055143
0.225028 1.000000 0.059799
0.498417 1.000000 0.067492
0.762863 1.000000 0.075185
0.918648 1.000000 0.079840
0.990610 1.000000 0.082023
1.000000 0.994103 0.088388
0.000000 1.000000 0.088388
0.015625 1.000000 0.088388
0.088388 1.000000 0.088388
0.243570 1.000000 0.088388
0.500000 1.000000 0.088388
0.756430 1.000000 0.088388
0.911612 1.000000 0.088388
0.984375 1.000000 0.088388
1.000000 1.000000 0.088388
0.000000 0.000000 0.243570
0.015215 0.000000 0.244038
0.087624 0.000000 0.246221
0.250877 0.000000 0.250877
0.515000 0.000000 0.242708
0.779123 0.000000 0.234539
0.938960 0.000000 0.229596
1.000000 0.013906 0.234950
1.000000 0.030000 0.243569
0.000000 0.035897 0.243570
0.001948 0.025178 0.257246
0.082068 0.026247 0.255871
0.255592 0.031182 0.255592
0.526946 0.023951 0.239744
0.798301 0.016719 0.223897
0.962514 0.012343 0.214307
1.000000 0.049803 0.234002
1.000000 0.065897 0.243570
0.000000 0.133972 0.243570
0.001948 0.135022 0.257246
0.079077 0.133101 0.252881
0.249707 0.135141 0.249707
0.521062 0.127910 0.233860
0.792416 0.120679 0.218013
0.956629 0.116303 0.208422
1.000000 0.147878 0.230993
1.000000 0.163972 0.243570
0.000000 0.289459 0.243570
0.000000 0.305552 0.253913
0.076165 0.304334 0.249968
0.240378 0.299957 0.240378
0.515386 0.296379 0.228184
0.787202 0.289610 0.212798
0.951694 0.285513 0.203487
1.000000 0.306546 0.227945
1.000000 0.319459 0.243570
0.000000 0.500000 0.243570
0.000000 0.516094 0.242637
0.063533 0.527507 0.237336
0.227745 0.523131 0.227745
0.514486 0.531286 0.227284
0.787202 0.525416 0.212798
0.951694 0.521319 0.203487
1.000000 0.525969 0.227945
1.000000 0.530000 0.243570
0.000000 0.710541 0.243569
0.000000 0.726635 0.238188
0.050900 0.750681 0.224703
0.215113 0.746305 0.215113
0.501853 0.754460 0.214651
0.787202 0.761222 0.212798
0.951694 0.757126 0.203487
1.000000 0.745392 0.227945
1.000000 0.740541 0.243570
0.000000 0.866028 0.243570
0.000000 0.882122 0.236316
0.041571 0.915497 0.215374
0.205784 0.911121 0.205784
0.492524 0.919276 0.205322
0.779265 0.927430 0.204861
0.951694 0.931271 0.203487
1.000000 0.907438 0.227945
1.000000 0.896028 0.243570
0.000000 0.964103 0.243570
0.000000 0.980197 0.235451
0.055143 1.000000 0.222071
0.214980 1.000000 0.214980
0.493674 1.000000 0.222673
0.761449 1.000000 0.230366
0.918335 1.000000 0.235021
0.990583 1.000000 0.237204
1.000000 0.994103 0.243570
0.000000 1.000000 0.243570
0.015625 1.000000 0.243570
0.088388 1.000000 0.243570
0.243570 1.000000 0.243570
0.500000 1.000000 0.243570
0.756430 1.000000 0.243570
0.911612 1.000000 0.243570
0.984375 1.000000 0.243570
1.000000 1.000000 0.243570
0.000000 0.000000 0.500000
0.015185 0.000000 0.500469
0.086651 0.000000 0.502652
0.243271 0.000000 0.507307
0.515000 0.000000 0.515000
0.779123 0.000000 0.506831
0.938960 0.000000 0.501888
1.000000 0.013906 0.499772
1.000000 0.030000 0.500001
0.000000 0.035897 0.500000
0.000000 0.022079 0.515625
0.066682 0.010861 0.527687
0.240206 0.015796 0.527408
0.526946 0.023951 0.526946
0.798301 0.016719 0.511099
0.962514 0.012343 0.501509
1.000000 0.049803 0.499153
1.000000 0.065897 0.500000
0.000000 0.133972 0.500000
0.000000 0.126481 0.515625
0.063692 0.117715 0.524697
0.234321 0.119755 0.521523
0.521062 0.127910 0.521062
0.792416 0.120679 0.505215
0.956629 0.116303 0.495624
1.000000 0.147878 0.497185
1.000000 0.163972 0.500000
0.000000 0.289458 0.500000
0.000000 0.291999 0.515625
0.063692 0.291860 0.524697
0.228184 0.287763 0.515386
0.511732 0.292726 0.511733
0.783087 0.285495 0.495885
0.947300 0.281119 0.486295
1.000000 0.303365 0.492876
1.000000 0.319458 0.500000
0.000000 0.500000 0.500000
0.000000 0.516094 0.515595
0.063533 0.527507 0.524538
0.227745 0.523131 0.514947
0.499100 0.515900 0.499100
0.771816 0.510030 0.484614
0.936308 0.505933 0.475303
1.000000 0.515812 0.484375
1.000000 0.530000 0.500000
0.000000 0.710541 0.500000
0.000000 0.726635 0.506142
0.050900 0.750681 0.511905
0.215113 0.746305 0.502315
0.486467 0.739074 0.486467
0.771816 0.745837 0.484614
0.936308 0.741740 0.475303
1.000000 0.739936 0.484375
1.000000 0.740541 0.500000
0.000000 0.866028 0.500000
0.000000 0.882122 0.502165
0.041571 0.915497 0.502576
0.205784 0.911121 0.492986
0.477138 0.903890 0.477138
0.763879 0.912045 0.476677
0.936308 0.915885 0.475303
1.000000 0.905455 0.484375
1.000000 0.896028 0.500000
0.000000 0.964103 0.500000
0.000000 0.980197 0.500326
0.055143 1.000000 0.497913
0.214980 1.000000 0.491556
0.479103 1.000000 0.479103
0.757137 1.000000 0.486796
0.917383 1.000000 0.491452
0.990502 1.000000 0.493634
1.000000 0.994103 0.500000
0.000000 1.000000 0.500000
0.015625 1.000000 0.500000
0.088388 1.000000 0.500000
0.243570 1.000000 0.500000
0.500000 1.000000 0.500000
0.756430 1.000000 0.500000
0.911612 1.000000 0.500000
0.984375 1.000000 0.500000
1.000000 1.000000 0.500000
0.000000 0.000000 0.756430
0.015175 0.000000 0.756899
0.086340 0.000000 0.759082
0.240872 0.000000 0.763737
0.504624 0.000000 0.771430
0.779123 0.000000 0.779123
0.938960 0.000000 0.774180
1.000000 0.013906 0.764595
1.000000 0.030000 0.756431
0.000000 0.035897 0.756430
0.000000 0.021616 0.772055
0.055192 0.000000 0.794979
0.224820 0.000410 0.799224
0.511561 0.008565 0.798762
0.798301 0.016719 0.798301
0.962514 0.012343 0.788710
1.000000 0.049803 0.764304
1.000000 0.065897 0.756431
0.000000 0.133972 0.756430
0.000000 0.123828 0.772055
0.048306 0.102329 0.796513
0.218935 0.104370 0.793339
0.505676 0.112524 0.792878
0.792416 0.120679 0.792416
0.956629 0.116303 0.782826
1.000000 0.147878 0.763378
1.000000 0.163972 0.756431
0.000000 0.289459 0.756430
0.000000 0.285873 0.772055
0.048306 0.276474 0.796513
0.212798 0.272377 0.787202
0.496347 0.277340 0.783549
0.783087 0.285495 0.783087
0.947300 0.281119 0.773497
1.000000 0.303365 0.761350
1.000000 0.319458 0.756431
0.000000 0.500000 0.756430
0.000000 0.505297 0.772055
0.048306 0.512281 0.796513
0.212798 0.508184 0.787202
0.484614 0.501414 0.771816
0.770455 0.508669 0.770455
0.934667 0.504293 0.760864
1.000000 0.513906 0.756395
1.000000 0.530000 0.756431
0.000000 0.710542 0.756430
0.000000 0.724719 0.772055
0.048306 0.748088 0.796513
0.212798 0.743991 0.787202
0.484614 0.737221 0.771816
0.757822 0.731843 0.757822
0.922035 0.727467 0.748232
0.999033 0.725415 0.743735
1.000000 0.740541 0.756430
0.000000 0.866028 0.756430
0.000000 0.882122 0.768013
0.041571 0.915497 0.789778
0.205784 0.911121 0.780188
0.477138 0.903890 0.764340
0.748493 0.896659 0.748493
0.920923 0.900499 0.747120
0.998052 0.898578 0.742754
1.000000 0.896028 0.756430
0.000000 0.964103 0.756430
0.000000 0.980197 0.765201
0.055143 1.000000 0.773754
0.214980 1.000000 0.768131
0.479103 1.000000 0.757903
0.743227 1.000000 0.743227
0.914352 1.000000 0.747882
0.990244 1.000000 0.750065
1.000000 0.994103 0.756430
0.000000 1.000000 0.756430
0.015625 1.000000 0.756430
0.088388 1.000000 0.756430
0.243570 1.000000 0.756430
0.500000 1.000000 0.756430
0.756430 1.000000 0.756430
0.911612 1.000000 0.756430
0.984375 1.000000 0.756430
1.000000 1.000000 0.756430
0.000000 0.000000 0.911612
0.015172 0.000000 0.912080
0.086237 0.000000 0.914263
0.240081 0.000000 0.918919
0.501228 0.000000 0.926612
0.771200 0.000000 0.934305
0.938960 0.000000 0.938960
1.000000 0.013906 0.924856
1.000000 0.030000 0.911612
0.000000 0.035897 0.911612
0.000000 0.021464 0.927237
0.054241 0.000000 0.950160
0.220303 0.000000 0.954816
0.502217 0.000000 0.962508
0.788990 0.007408 0.962793
0.962513 0.012343 0.962514
1.000000 0.049803 0.924762
1.000000 0.065897 0.911611
0.000000 0.133972 0.911612
0.000000 0.122960 0.927237
0.038995 0.093018 0.961005
0.209625 0.095059 0.957832
0.496365 0.103213 0.957370
0.783105 0.111368 0.956908
0.956629 0.116303 0.956629
1.000000 0.147878 0.924467
1.000000 0.163972 0.911612
0.000000 0.289459 0.911612
0.000000 0.283869 0.927237
0.038995 0.267164 0.961005
0.203487 0.263067 0.951694
0.487036 0.268029 0.948041
0.773776 0.276184 0.947579
0.947300 0.281119 0.947300
1.000000 0.303365 0.923819
1.000000 0.319458 0.911612
0.000000 0.500000 0.911612
0.000000 0.501754 0.927237
0.038995 0.502970 0.961005
0.203487 0.498873 0.951694
0.475303 0.492103 0.936308
0.761144 0.499358 0.934947
0.934667 0.504293 0.934667
1.000000 0.513906 0.922238
1.000000 0.530000 0.911611
0.000000 0.710542 0.911612
0.000000 0.719639 0.927237
0.038995 0.738777 0.961005
0.203487 0.734680 0.951694
0.475303 0.727910 0.936308
0.748511 0.722532 0.922314
0.922035 0.727467 0.922035
0.999033 0.725415 0.917538
1.000000 0.740541 0.911612
0.000000 0.866028 0.911612
0.000000 0.880549 0.927237
0.038995 0.912922 0.961005
0.203487 0.908825 0.951694
0.475303 0.902055 0.936308
0.747120 0.895285 0.920923
0.912706 0.892283 0.912706
0.989704 0.890231 0.908209
1.000000 0.896028 0.911612
0.000000 0.964103 0.911612
0.000000 0.980197 0.925492
0.055143 1.000000 0.940683
0.214980 1.000000 0.935504
0.479103 1.000000 0.926621
0.743227 1.000000 0.916197
0.906821 0.996242 0.906821
0.988185 0.998556 0.906690
1.000000 0.994103 0.911612
0.000000 1.000000 0.911611
0.015625 1.000000 0.911611
0.088388 1.000000 0.911612
0.243570 1.000000 0.911612
0.500000 1.000000 0.911612
0.756430 1.000000 0.911612
0.911612 1.000000 0.911612
0.984375 1.000000 0.911612
1.000000 1.000000 0.911612
0.000000 0.000000 0.984375
0.015171 0.000000 0.984844
0.086200 0.000000 0.987027
0.239797 0.000000 0.991682
0.500010 0.000000 0.999375
0.764649 0.007068 1.000000
0.924861 0.011723 1.000000
1.000000 0.013906 1.000000
1.000000 0.030000 0.984374
0.000000 0.035897 0.984375
0.000000 0.021410 1.000000
0.074410 0.022923 1.000000
0.234597 0.027579 1.000000
0.499410 0.035272 1.000000
0.764361 0.042965 1.000000
0.924768 0.047620 1.000000
1.000000 0.049803 1.000000
1.000000 0.065897 0.984375
0.000000 0.133972 0.984375
0.000000 0.122648 1.000000
0.072763 0.122681 1.000000
0.231737 0.125654 1.000000
0.497506 0.133347 1.000000
0.763450 0.141040 1.000000
0.924474 0.145695 1.000000
1.000000 0.147878 1.000000
1.000000 0.163972 0.984375
0.000000 0.289459 0.984375
0.000000 0.283151 1.000000
0.072763 0.283591 1.000000
0.227945 0.283385 1.000000
0.493362 0.288833 1.000000
0.761459 0.296526 1.000000
0.923831 0.301182 1.000000
1.000000 0.303365 1.000000
1.000000 0.319458 0.984375
0.000000 0.500000 0.984375
0.000000 0.500484 1.000000
0.072763 0.501475 1.000000
0.227945 0.502808 1.000000
0.484375 0.500343 1.000000
0.756626 0.507068 1.000000
0.922261 0.511723 1.000000
1.000000 0.513906 1.000000
1.000000 0.530000 0.984375
0.000000 0.710542 0.984375
0.000000 0.717817 1.000000
0.072763 0.719360 1.000000
0.227945 0.722230 1.000000
0.484375 0.724468 1.000000
0.744145 0.718166 0.999443
0.917669 0.723101 0.999164
0.999033 0.725415 0.999033
1.000000 0.740541 0.984375
0.000000 0.866028 0.984375
0.000000 0.878320 1.000000
0.072763 0.880270 1.000000
0.227945 0.884276 1.000000
0.484375 0.889986 1.000000
0.742754 0.890920 0.998052
0.908340 0.887917 0.989835
0.989704 0.890231 0.989704
1.000000 0.896028 0.984375
0.000000 0.964103 0.984375
0.000000 0.979558 1.000000
0.072763 0.981765 1.000000
0.227945 0.986488 1.000000
0.484375 0.994388 1.000000
0.743227 1.000000 0.997301
0.906821 0.996242 0.988316
0.983819 0.994190 0.983819
1.000000 0.994103 0.984375
0.000000 1.000000 0.984375
0.015625 1.000000 0.984375
0.088388 1.000000 0.984375
0.243570 1.000000 0.984375
0.500000 1.000000 0.984375
0.756430 1.000000 0.984375
0.911612 1.000000 0.984375
0.984375 1.000000 0.984375
1.000000 1.000000 0.984375
0.000000 0.000000 1.000000
0.015625 0.000469 1.000000
0.088388 0.002652 1.000000
0.243570 0.007307 1.000000
0.500000 0.015000 1.000000
0.756430 0.022693 1.000000
0.911612 0.027348 1.000000
0.984375 0.029531 1.000000
1.000000 0.030000 1.000000
0.000000 0.035897 1.000000
0.015625 0.036366 1.000000
0.088388 0.038548 1.000000
0.243570 0.043204 1.000000
0.500000 0.050897 1.000000
0.756431 0.058590 1.000000
0.911612 0.063245 1.000000
0.984375 0.065428 1.000000
1.000000 0.065897 1.000000
0.000000 0.133972 1.000000
0.015625 0.134441 1.000000
0.088388 0.136624 1.000000
0.243570 0.141279 1.000000
0.500000 0.148972 1.000000
0.756430 0.156665 1.000000
0.911612 0.161320 1.000000
0.984375 0.163503 1.000000
1.000000 0.163972 1.000000
0.000000 0.289459 1.000000
0.015625 0.289927 1.000000
0.088388 0.292111 1.000000
0.243570 0.296766 1.000000
0.500000 0.304458 1.000000
0.756431 0.312151 1.000000
0.911612 0.316807 1.000000
0.984375 0.318990 1.000000
1.000000 0.319458 1.000000
0.000000 0.500000 1.000000
0.015625 0.500469 1.000000
0.088388 0.502652 1.000000
0.243570 0.507307 1.000000
0.500000 0.515000 1.000000
0.756430 0.522693 1.000000
0.911612 0.527348 1.000000
0.984375 0.529531 1.000000
1.000000 0.530000 1.000000
0.000000 0.710541 1.000000
0.015625 0.711010 1.000000
0.088388 0.713193 1.000000
0.243570 0.717849 1.000000
0.500000 0.725541 1.000000
0.756430 0.733234 1.000000
0.911612 0.737890 1.000000
0.984375 0.740073 1.000000
1.000000 0.740541 1.000000
0.000000 0.866028 1.000000
0.015625 0.866497 1.000000
0.088388 0.868680 1.000000
0.243570 0.873336 1.000000
0.500000 0.881028 1.000000
0.756430 0.888721 1.000000
0.911612 0.893377 1.000000
0.984375 0.895560 1.000000
1.000000 0.896028 1.000000
0.000000 0.964103 1.000000
0.015625 0.964572 1.000000
0.088388 0.966755 1.000000
0.243570 0.971410 1.000000
0.500000 0.979103 1.000000
0.756430 0.986796 1.000000
0.911612 0.991452 1.000000
0.984375 0.993634 1.000000
1.000000 0.994103 1.000000
0.000000 1.000000 1.000000
0.015625 1.000000 1.000000
0.088388 1.000000 1.000000
0.243570 1.000000 1.000000
0.500000 1.000000 1.000000
0.756430 1.000000 1.000000
0.911612 1.000000 1.000000
0.984375 1.000000 1.000000
1.000000 1.000000 1.000000
