crates/agx-e2e/fixtures/looks/luts/kodachrome_64.cube
TITLE "kodachrome_64"
LUT_3D_SIZE 5
DOMAIN_MIN 0.0 0.0 0.0
DOMAIN_MAX 1.0 1.0 1.0
0.000000 0.000000 0.000000
0.088388 0.002652 0.000000
0.500000 0.015000 0.000000
0.911612 0.027348 0.000000
1.000000 0.030000 0.000000
0.000000 0.133972 0.000000
0.088388 0.136623 0.000000
0.500000 0.148972 0.000000
0.911612 0.161320 0.000000
1.000000 0.163972 0.000000
0.000000 0.500000 0.000000
0.088388 0.502652 0.000000
0.500000 0.515000 0.000000
0.911612 0.527348 0.000000
1.000000 0.530000 0.000000
0.000000 0.866028 0.000000
0.088389 0.868680 0.000000
0.500000 0.881028 0.000000
0.911612 0.893377 0.000000
1.000000 0.896028 0.000000
0.000000 1.000000 0.000000
0.088388 1.000000 0.000000
0.500000 1.000000 0.000000
0.911612 1.000000 0.000000
1.000000 1.000000 0.000000
0.000000 0.000000 0.088388
0.091040 0.000000 0.091040
0.515000 0.000000 0.077928
0.938960 0.000000 0.064816
1.000000 0.030000 0.088388
0.000000 0.133972 0.088388
0.085494 0.139517 0.085494
0.524697 0.131545 0.063692
0.961005 0.120678 0.038995
1.000000 0.163972 0.088388
0.000000 0.500000 0.088388
0.063533 0.527507 0.063533
0.523797 0.540597 0.062792
0.961005 0.530630 0.038995
1.000000 0.530000 0.088388
0.000000 0.866028 0.088388
0.041571 0.915497 0.041571
0.501835 0.928587 0.040830
0.961005 0.940582 0.038995
1.000000 0.896028 0.088388
0.000000 1.000000 0.088388
0.088388 1.000000 0.088388
0.500000 1.000000 0.088388
0.911612 1.000000 0.088388
1.000000 1.000000 0.088388
0.000000 0.000000 0.500000
0.086651 0.000000 0.502652
0.515000 0.000000 0.515000
0.938960 0.000000 0.501888
1.000000 0.030000 0.500001
0.000000 0.133972 0.500000
0.063692 0.117715 0.524697
0.521062 0.127910 0.521062
0.956629 0.116303 0.495624
1.000000 0.163972 0.500000
0.000000 0.500000 0.500000
0.063533 0.527507 0.524538
0.499100 0.515900 0.499100
0.936308 0.505933 0.475303
1.000000 0.530000 0.500000
0.000000 0.866028 0.500000
0.041571 0.915497 0.502576
0.477138 0.903890 0.477138
0.936308 0.915885 0.475303
1.000000 0.896028 0.500000
0.000000 1.000000 0.500000
0.088388 1.000000 0.500000
0.500000 1.000000 0.500000
0.911612 1.000000 0.500000
1.000000 1.000000 0.500000
0.000000 0.000000 0.911612
0.086237 0.000000 0.914263
0.501228 0.000000 0.926612
0.938960 0.000000 0.938960
1.000000 0.030000 0.911612
0.000000 0.133972 0.911612
0.038995 0.093018 0.961005
0.496365 0.103213 0.957370
0.956629 0.116303 0.956629
1.000000 0.163972 0.911612
0.000000 0.500000 0.911612
0.038995 0.502970 0.961005
0.475303 0.492103 0.936308
0.934667 0.504293 0.934667
1.000000 0.530000 0.911611
0.000000 0.866028 0.911612
0.038995 0.912922 0.961005
0.475303 0.902055 0.936308
0.912706 0.892283 0.912706
1.000000 0.896028 0.911612
0.000000 1.000000 0.911611
0.088388 1.000000 0.911612
0.500000 1.000000 0.911612
0.911612 1.000000 0.911612
1.000000 1.000000 0.911612
0.000000 0.000000 1.000000
0.088388 0.002652 1.000000
0.500000 0.015000 1.000000
0.911612 0.027348 1.000000
1.000000 0.030000 1.000000
0.000000 0.133972 1.000000
0.088388 0.136624 1.000000
0.500000 0.148972 1.000000
0.911612 0.161320 1.000000
1.000000 0.163972 1.000000
0.000000 0.500000 1.000000
0.088388 0.502652 1.000000
0.500000 0.515000 1.000000
0.911612 0.527348 1.000000
1.000000 0.530000 1.000000
0.000000 0.866028 1.000000
0.088388 0.868680 1.000000
0.500000 0.881028 1.000000
0.911612 0.893377 1.000000
1.000000 0.896028 1.000000
0.000000 1.000000 1.000000
0.088388 1.000000 1.000000
0.500000 1.000000 1.000000
0.911612 1.000000 1.000000
1.000000 1.000000 1.000000
