crates/agx-e2e/fixtures/looks/luts/kodachrome_64.cube
TITLE "kodachrome_64"
LUT_3D_SIZE 33
DOMAIN_MIN 0.0 0.0 0.0
DOMAIN_MAX 1.0 1.0 1.0
0.000000 0.000000 0.000000
0.000488 0.000015 0.000000
0.002762 0.000083 0.000000
0.007612 0.000228 0.000000
0.015625 0.000469 0.000000
0.027296 0.000819 0.000000
0.043057 0.001292 0.000000
0.063302 0.001899 0.000000
0.088388 0.002652 0.000000
0.118652 0.003560 0.000000
0.154408 0.004632 0.000000
0.195953 0.005879 0.000000
0.243570 0.007307 0.000000
0.297528 0.008926 0.000000
0.358088 0.010743 0.000000
0.425499 0.012765 0.000000
0.500000 0.015000 0.000000
0.574501 0.017235 0.000000
0.641912 0.019257 0.000000
0.702472 0.021074 0.000000
0.756430 0.022693 0.000000
0.804047 0.024121 0.000000
0.845592 0.025368 0.000000
0.881348 0.026440 0.000000
0.911612 0.027348 0.000000
0.936698 0.028101 0.000000
0.956943 0.028708 0.000000
0.972704 0.029181 0.000000
0.984375 0.029531 0.000000
0.992388 0.029772 0.000000
0.997238 0.029917 0.000000
0.999512 0.029985 0.000000
1.000000 0.030000 0.000000
0.000000 0.002577 0.000000
0.000488 0.002592 0.000000
0.002762 0.002660 0.000000
0.007612 0.002806 0.000000
0.015625 0.003046 0.000000
0.027296 0.003396 0.000000
0.043057 0.003869 0.000000
0.063302 0.004476 0.000000
0.088388 0.005229 0.000000
0.118652 0.006137 0.000000
0.154408 0.007209 0.000000
0.195953 0.008456 0.000000
0.243570 0.009884 0.000000
0.297528 0.011503 0.000000
0.358088 0.013320 0.000000
0.425499 0.015342 0.000000
0.500000 0.017577 0.000000
0.574501 0.019812 0.000000
0.641912 0.021835 0.000000
0.702472 0.023651 0.000000
0.756430 0.025270 0.000000
0.804047 0.026699 0.000000
0.845592 0.027945 0.000000
0.881348 0.029018 0.000000
0.911612 0.029926 0.000000
0.936698 0.030678 0.000000
0.956943 0.031285 0.000000
0.972704 0.031758 0.000000
0.984375 0.032108 0.000000
0.992388 0.032349 0.000000
0.997238 0.032494 0.000000
0.999512 0.032563 0.000000
1.000000 0.032577 0.000000
0.000000 0.009618 0.000000
0.000488 0.009633 0.000000
0.002762 0.009701 0.000000
0.007612 0.009847 0.000000
0.015625 0.010087 0.000000
0.027296 0.010437 0.000000
0.043057 0.010910 0.000000
0.063302 0.011517 0.000000
0.088388 0.012270 0.000000
0.118652 0.013178 0.000000
0.154408 0.014251 0.000000
0.195953 0.015497 0.000000
0.243570 0.016925 0.000000
0.297528 0.018544 0.000000
0.358088 0.020361 0.000000
0.425499 0.022383 0.000000
0.500000 0.024618 0.000000
0.574501 0.026853 0.000000
0.641912 0.028876 0.000000
0.702472 0.030692 0.000000
0.756430 0.032311 0.000000
0.804047 0.033740 0.000000
0.845592 0.034986 0.000000
0.881348 0.036059 0.000000
0.911612 0.036967 0.000000
0.936698 0.037719 0.000000
0.956943 0.038327 0.000000
0.972704 0.038799 0.000000
0.984375 0.039150 0.000000
0.992388 0.039390 0.000000
0.997238 0.039535 0.000000
0.999512 0.039604 0.000000
1.000000 0.039618 0.000000
0.000000 0.020781 0.000000
0.000488 0.020796 0.000000
0.002762 0.020864 0.000000
0.007612 0.021010 0.000000
0.015625 0.021250 0.000000
0.027296 0.021600 0.000000
0.043057 0.022073 0.000000
0.063302 0.022680 0.000000
0.088388 0.023433 0.000000
0.118652 0.024341 0.000000
0.154408 0.025414 0.000000
0.195953 0.026660 0.000000
0.243570 0.028088 0.000000
0.297528 0.029707 0.000000
0.358088 0.031524 0.000000
0.425499 0.033546 0.000000
0.500000 0.035781 0.000000
0.574501 0.038016 0.000000
0.641912 0.040039 0.000000
0.702472 0.041855 0.000000
0.756430 0.043474 0.000000
0.804047 0.044903 0.000000
0.845592 0.046149 0.000000
0.881348 0.047222 0.000000
0.911612 0.048130 0.000000
0.936698 0.048882 0.000000
0.956943 0.049490 0.000000
0.972704 0.049962 0.000000
0.984375 0.050313 0.000000
0.992388 0.050553 0.000000
0.997238 0.050698 0.000000
0.999512 0.050767 0.000000
1.000000 0.050781 0.000000
0.000000 0.035897 0.000000
0.000488 0.035911 0.000000
0.002762 0.035980 0.000000
0.007612 0.036125 0.000000
0.015625 0.036366 0.000000
0.027296 0.036716 0.000000
0.043057 0.037189 0.000000
0.063302 0.037796 0.000000
0.088388 0.038548 0.000000
0.118652 0.039456 0.000000
0.154408 0.040529 0.000000
0.195953 0.041775 0.000000
0.243570 0.043204 0.000000
0.297528 0.044823 0.000000
0.358088 0.046639 0.000000
0.425499 0.048662 0.000000
0.500000 0.050897 0.000000
0.574501 0.053132 0.000000
0.641912 0.055154 0.000000
0.702472 0.056971 0.000000
0.756430 0.058590 0.000000
0.804047 0.060018 0.000000
0.845592 0.061265 0.000000
0.881348 0.062337 0.000000
0.911612 0.063245 0.000000
0.936698 0.063998 0.000000
0.956943 0.064605 0.000000
0.972704 0.065078 0.000000
0.984375 0.065428 0.000000
0.992388 0.065668 0.000000
0.997238 0.065814 0.000000
0.999512 0.065882 0.000000
1.000000 0.065897 0.000000
0.000000 0.054851 0.000000
0.000488 0.054866 0.000000
0.002762 0.054934 0.000000
0.007612 0.055079 0.000000
0.015625 0.055320 0.000000
0.027296 0.055670 0.000000
0.043057 0.056143 0.000000
0.063302 0.056750 0.000000
0.088388 0.057503 0.000000
0.118652 0.058411 0.000000
0.154408 0.059483 0.000000
0.195953 0.060730 0.000000
0.243570 0.062158 0.000000
0.297528 0.063777 0.000000
0.358088 0.065594 0.000000
0.425499 0.067616 0.000000
0.500000 0.069851 0.000000
0.574501 0.072086 0.000000
0.641912 0.074108 0.000000
0.702472 0.075925 0.000000
0.756430 0.077544 0.000000
0.804047 0.078972 0.000000
0.845592 0.080219 0.000000
0.881348 0.081291 0.000000
0.911612 0.082199 0.000000
0.936698 0.082952 0.000000
0.956943 0.083559 0.000000
0.972704 0.084032 0.000000
0.984375 0.084382 0.000000
0.992388 0.084623 0.000000
0.997238 0.084768 0.000000
0.999512 0.084836 0.000000
1.000000 0.084851 0.000000
0.000000 0.077558 0.000000
0.000488 0.077573 0.000000
0.002762 0.077641 0.000000
0.007612 0.077787 0.000000
0.015625 0.078027 0.000000
0.027296 0.078377 0.000000
0.043057 0.078850 0.000000
0.063302 0.079458 0.000000
0.088388 0.080210 0.000000
0.118652 0.081118 0.000000
0.154408 0.082191 0.000000
0.195953 0.083437 0.000000
0.243570 0.084866 0.000000
0.297528 0.086484 0.000000
0.358088 0.088301 0.000000
0.425499 0.090323 0.000000
0.500000 0.092558 0.000000
0.574501 0.094794 0.000000
0.641912 0.096816 0.000000
0.702472 0.098633 0.000000
0.756430 0.100251 0.000000
0.804047 0.101680 0.000000
0.845592 0.102926 0.000000
0.881348 0.103999 0.000000
0.911612 0.104907 0.000000
0.936698 0.105659 0.000000
0.956943 0.106267 0.000000
0.972704 0.106740 0.000000
0.984375 0.107090 0.000000
0.992388 0.107330 0.000000
0.997238 0.107476 0.000000
0.999512 0.107544 0.000000
1.000000 0.107558 0.000000
0.000000 0.103951 0.000000
0.000488 0.103966 0.000000
0.002762 0.104034 0.000000
0.007612 0.104179 0.000000
0.015625 0.104420 0.000000
0.027296 0.104770 0.000000
0.043057 0.105243 0.000000
0.063302 0.105850 0.000000
0.088388 0.106603 0.000000
0.118652 0.107510 0.000000
0.154408 0.108583 0.000000
0.195953 0.109829 0.000000
0.243570 0.111258 0.000000
0.297528 0.112877 0.000000
0.358088 0.114694 0.000000
0.425499 0.116716 0.000000
0.500000 0.118951 0.000000
0.574501 0.121186 0.000000
0.641912 0.123208 0.000000
0.702472 0.125025 0.000000
0.756430 0.126644 0.000000
0.804047 0.128072 0.000000
0.845592 0.129319 0.000000
0.881348 0.130391 0.000000
0.911612 0.131299 0.000000
0.936698 0.132052 0.000000
0.956943 0.132659 0.000000
0.972704 0.133132 0.000000
0.984375 0.133482 0.000000
0.992388 0.133723 0.000000
0.997238 0.133868 0.000000
0.999512 0.133936 0.000000
1.000000 0.133951 0.000000
0.000000 0.133972 0.000000
0.000488 0.133986 0.000000
0.002762 0.134055 0.000000
0.007612 0.134200 0.000000
0.015625 0.134440 0.000000
0.027296 0.134791 0.000000
0.043057 0.135263 0.000000
0.063302 0.135871 0.000000
0.088388 0.136623 0.000000
0.118652 0.137531 0.000000
0.154408 0.138604 0.000000
0.195953 0.139850 0.000000
0.243570 0.141279 0.000000
0.297528 0.142898 0.000000
0.358088 0.144714 0.000000
0.425499 0.146737 0.000000
0.500000 0.148972 0.000000
0.574501 0.151207 0.000000
0.641912 0.153229 0.000000
0.702472 0.155046 0.000000
0.756430 0.156665 0.000000
0.804047 0.158093 0.000000
0.845592 0.159339 0.000000
0.881348 0.160412 0.000000
0.911612 0.161320 0.000000
0.936698 0.162073 0.000000
0.956943 0.162680 0.000000
0.972704 0.163153 0.000000
0.984375 0.163503 0.000000
0.992388 0.163743 0.000000
0.997238 0.163889 0.000000
0.999512 0.163957 0.000000
1.000000 0.163972 0.000000
0.000000 0.167573 0.000000
0.000488 0.167587 0.000000
0.002762 0.167655 0.000000
0.007612 0.167801 0.000000
0.015625 0.168041 0.000000
0.027296 0.168391 0.000000
0.043057 0.168864 0.000000
0.063302 0.169472 0.000000
0.088388 0.170224 0.000000
0.118652 0.171132 0.000000
0.154408 0.172205 0.000000
0.195953 0.173451 0.000000
0.243570 0.174880 0.000000
0.297528 0.176498 0.000000
0.358088 0.178315 0.000000
0.425499 0.180337 0.000000
0.500000 0.182572 0.000000
0.574501 0.184808 0.000000
0.641912 0.186830 0.000000
0.702472 0.188647 0.000000
0.756430 0.190265 0.000000
0.804047 0.191694 0.000000
0.845592 0.192940 0.000000
0.881348 0.194013 0.000000
0.911612 0.194921 0.000000
0.936698 0.195673 0.000000
0.956943 0.196281 0.000000
0.972704 0.196754 0.000000
0.984375 0.197104 0.000000
0.992388 0.197344 0.000000
0.997238 0.197490 0.000000
0.999512 0.197558 0.000000
1.000000 0.197573 0.000000
0.000000 0.204711 0.000000
0.000488 0.204726 0.000000
0.002762 0.204794 0.000000
0.007612 0.204940 0.000000
0.015625 0.205180 0.000000
0.027296 0.205530 0.000000
0.043057 0.206003 0.000000
0.063302 0.206610 0.000000
0.088388 0.207363 0.000000
0.118652 0.208271 0.000000
0.154408 0.209344 0.000000
0.195953 0.210590 0.000000
0.243570 0.212018 0.000000
0.297528 0.213637 0.000000
0.358088 0.215454 0.000000
0.425499 0.217476 0.000000
0.500000 0.219711 0.000000
0.574501 0.221946 0.000000
0.641912 0.223969 0.000000
0.702472 0.225786 0.000000
0.756430 0.227404 0.000000
0.804047 0.228833 0.000000
0.845592 0.230079 0.000000
0.881348 0.231152 0.000000
0.911612 0.232060 0.000000
0.936698 0.232812 0.000000
0.956943 0.233420 0.000000
0.972704 0.233893 0.000000
0.984375 0.234243 0.000000
0.992388 0.234483 0.000000
0.997238 0.234629 0.000000
0.999512 0.234697 0.000000
1.000000 0.234711 0.000000
0.000000 0.245351 0.000000
0.000488 0.245366 0.000000
0.002762 0.245434 0.000000
0.007612 0.245580 0.000000
0.015625 0.245820 0.000000
0.027296 0.246170 0.000000
0.043057 0.246643 0.000000
0.063302 0.247250 0.000000
0.088388 0.248003 0.000000
0.118652 0.248911 0.000000
0.154408 0.249983 0.000000
0.195953 0.251230 0.000000
0.243570 0.252658 0.000000
0.297528 0.254277 0.000000
0.358088 0.256094 0.000000
0.425499 0.258116 0.000000
0.500000 0.260351 0.000000
0.574501 0.262586 0.000000
0.641912 0.264609 0.000000
0.702472 0.266425 0.000000
0.756430 0.268044 0.000000
0.804047 0.269473 0.000000
0.845592 0.270719 0.000000
0.881348 0.271792 0.000000
0.911612 0.272700 0.000000
0.936698 0.273452 0.000000
0.956943 0.274059 0.000000
0.972704 0.274532 0.000000
0.984375 0.274882 0.000000
0.992388 0.275123 0.000000
0.997238 0.275268 0.000000
0.999512 0.275336 0.000000
1.000000 0.275351 0.000000
0.000000 0.289459 0.000000
0.000488 0.289473 0.000000
0.002762 0.289541 0.000000
0.007612 0.289687 0.000000
0.015625 0.289927 0.000000
0.027296 0.290277 0.000000
0.043058 0.290750 0.000000
0.063302 0.291358 0.000000
0.088388 0.292110 0.000000
0.118652 0.293018 0.000000
0.154408 0.294091 0.000000
0.195953 0.295337 0.000000
0.243570 0.296766 0.000000
0.297528 0.298384 0.000000
0.358088 0.300201 0.000000
0.425499 0.302223 0.000000
0.500000 0.304459 0.000000
0.574501 0.306694 0.000000
0.641912 0.308716 0.000000
0.702472 0.310533 0.000000
0.756430 0.312151 0.000000
0.804047 0.313580 0.000000
0.845592 0.314826 0.000000
0.881348 0.315899 0.000000
0.911612 0.316807 0.000000
0.936698 0.317559 0.000000
0.956943 0.318167 0.000000
0.972704 0.318640 0.000000
0.984375 0.318990 0.000000
0.992388 0.319230 0.000000
0.997238 0.319376 0.000000
0.999512 0.319444 0.000000
1.000000 0.319459 0.000000
0.000000 0.337003 0.000000
0.000488 0.337018 0.000000
0.002762 0.337086 0.000000
0.007612 0.337232 0.000000
0.015625 0.337472 0.000000
0.027296 0.337822 0.000000
0.043058 0.338295 0.000000
0.063302 0.338903 0.000000
0.088388 0.339655 0.000000
0.118652 0.340563 0.000000
0.154408 0.341636 0.000000
0.195953 0.342882 0.000000
0.243570 0.344311 0.000000
0.297528 0.345929 0.000000
0.358088 0.347746 0.000000
0.425499 0.349768 0.000000
0.500000 0.352003 0.000000
0.574501 0.354239 0.000000
0.641912 0.356261 0.000000
0.702472 0.358078 0.000000
0.756430 0.359696 0.000000
0.804047 0.361125 0.000000
0.845592 0.362371 0.000000
0.881348 0.363444 0.000000
0.911612 0.364352 0.000000
0.936698 0.365104 0.000000
0.956943 0.365712 0.000000
0.972704 0.366185 0.000000
0.984375 0.366535 0.000000
0.992388 0.366775 0.000000
0.997238 0.366921 0.000000
0.999512 0.366989 0.000000
1.000000 0.367004 0.000000
0.000000 0.387959 0.000000
0.000488 0.387973 0.000000
0.002762 0.388041 0.000000
0.007612 0.388187 0.000000
0.015625 0.388427 0.000000
0.027296 0.388777 0.000000
0.043057 0.389250 0.000000
0.063302 0.389858 0.000000
0.088388 0.390610 0.000000
0.118652 0.391518 0.000000
0.154408 0.392591 0.000000
0.195953 0.393837 0.000000
0.243570 0.395266 0.000000
0.297528 0.396884 0.000000
0.358088 0.398701 0.000000
0.425499 0.400723 0.000000
0.500000 0.402959 0.000000
0.574501 0.405194 0.000000
0.641912 0.407216 0.000000
0.702472 0.409033 0.000000
0.756430 0.410651 0.000000
0.804047 0.412080 0.000000
0.845592 0.413326 0.000000
0.881348 0.414399 0.000000
0.911612 0.415307 0.000000
0.936698 0.416059 0.000000
0.956943 0.416667 0.000000
0.972704 0.417140 0.000000
0.984375 0.417490 0.000000
0.992388 0.417730 0.000000
0.997238 0.417876 0.000000
0.999512 0.417944 0.000000
1.000000 0.417959 0.000000
0.000000 0.442298 0.000000
0.000488 0.442313 0.000000
0.002762 0.442381 0.000000
0.007612 0.442527 0.000000
0.015625 0.442767 0.000000
0.027296 0.443117 0.000000
0.043057 0.443590 0.000000
0.063302 0.444198 0.000000
0.088388 0.444950 0.000000
0.118652 0.445858 0.000000
0.154408 0.446931 0.000000
0.195953 0.448177 0.000000
0.243570 0.449606 0.000000
0.297528 0.451224 0.000000
0.358088 0.453041 0.000000
0.425499 0.455063 0.000000
0.500000 0.457298 0.000000
0.574501 0.459534 0.000000
0.641912 0.461556 0.000000
0.702472 0.463373 0.000000
0.756430 0.464991 0.000000
0.804047 0.466420 0.000000
0.845592 0.467666 0.000000
0.881348 0.468739 0.000000
0.911612 0.469647 0.000000
0.936698 0.470399 0.000000
0.956943 0.471007 0.000000
0.972704 0.471480 0.000000
0.984375 0.471830 0.000000
0.992388 0.472070 0.000000
0.997238 0.472216 0.000000
0.999512 0.472284 0.000000
1.000000 0.472298 0.000000
0.000000 0.500000 0.000000
0.000488 0.500015 0.000000
0.002762 0.500083 0.000000
0.007611 0.500228 0.000000
0.015625 0.500469 0.000000
0.027296 0.500819 0.000000
0.043057 0.501292 0.000000
0.063302 0.501899 0.000000
0.088388 0.502652 0.000000
0.118652 0.503560 0.000000
0.154408 0.504632 0.000000
0.195953 0.505879 0.000000
0.243570 0.507307 0.000000
0.297528 0.508926 0.000000
0.358088 0.510743 0.000000
0.425499 0.512765 0.000000
0.500000 0.515000 0.000000
0.574501 0.517235 0.000000
0.641912 0.519257 0.000000
0.702472 0.521074 0.000000
0.756430 0.522693 0.000000
0.804047 0.524121 0.000000
0.845592 0.525368 0.000000
0.881348 0.526440 0.000000
0.911612 0.527348 0.000000
0.936698 0.528101 0.000000
0.956943 0.528708 0.000000
0.972704 0.529181 0.000000
0.984375 0.529531 0.000000
0.992388 0.529772 0.000000
0.997238 0.529917 0.000000
0.999512 0.529985 0.000000
1.000000 0.530000 0.000000
0.000000 0.557702 0.000000
0.000488 0.557716 0.000000
0.002762 0.557784 0.000000
0.007612 0.557930 0.000000
0.015625 0.558170 0.000000
0.027296 0.558520 0.000000
0.043058 0.558993 0.000000
0.063302 0.559601 0.000000
0.088389 0.560353 0.000000
0.118652 0.561261 0.000000
0.154408 0.562334 0.000000
0.195953 0.563580 0.000000
0.243570 0.565009 0.000000
0.297528 0.566627 0.000000
0.358088 0.568444 0.000000
0.425499 0.570466 0.000000
0.500000 0.572702 0.000000
0.574501 0.574937 0.000000
0.641912 0.576959 0.000000
0.702472 0.578776 0.000000
0.756430 0.580394 0.000000
0.804047 0.581823 0.000000
0.845592 0.583069 0.000000
0.881348 0.584142 0.000000
0.911612 0.585050 0.000000
0.936698 0.585802 0.000000
0.956943 0.586410 0.000000
0.972704 0.586883 0.000000
0.984375 0.587233 0.000000
0.992388 0.587473 0.000000
0.997238 0.587619 0.000000
0.999512 0.587687 0.000000
1.000000 0.587701 0.000000
0.000000 0.612041 0.000000
0.000488 0.612056 0.000000
0.002762 0.612124 0.000000
0.007612 0.612270 0.000000
0.015625 0.612510 0.000000
0.027296 0.612860 0.000000
0.043058 0.613333 0.000000
0.063302 0.613941 0.000000
0.088388 0.614693 0.000000
0.118652 0.615601 0.000000
0.154408 0.616674 0.000000
0.195953 0.617920 0.000000
0.243570 0.619349 0.000000
0.297528 0.620967 0.000000
0.358088 0.622784 0.000000
0.425499 0.624806 0.000000
0.500000 0.627041 0.000000
0.574501 0.629277 0.000000
0.641912 0.631299 0.000000
0.702472 0.633116 0.000000
0.756430 0.634734 0.000000
0.804047 0.636163 0.000000
0.845592 0.637409 0.000000
0.881348 0.638482 0.000000
0.911612 0.639390 0.000000
0.936698 0.640142 0.000000
0.956943 0.640750 0.000000
0.972704 0.641223 0.000000
0.984375 0.641573 0.000000
0.992388 0.641813 0.000000
0.997238 0.641959 0.000000
0.999512 0.642027 0.000000
1.000000 0.642041 0.000000
0.000000 0.662997 0.000000
0.000488 0.663011 0.000000
0.002762 0.663079 0.000000
0.007612 0.663225 0.000000
0.015625 0.663465 0.000000
0.027296 0.663815 0.000000
0.043058 0.664288 0.000000
0.063302 0.664896 0.000000
0.088388 0.665648 0.000000
0.118652 0.666556 0.000000
0.154408 0.667629 0.000000
0.195953 0.668875 0.000000
0.243570 0.670304 0.000000
0.297528 0.671922 0.000000
0.358088 0.673739 0.000000
0.425499 0.675761 0.000000
0.500000 0.677997 0.000000
0.574502 0.680232 0.000000
0.641912 0.682254 0.000000
0.702472 0.684071 0.000000
0.756430 0.685689 0.000000
0.804047 0.687118 0.000000
0.845592 0.688364 0.000000
0.881348 0.689437 0.000000
0.911612 0.690345 0.000000
0.936698 0.691097 0.000000
0.956943 0.691705 0.000000
0.972704 0.692178 0.000000
0.984375 0.692528 0.000000
0.992388 0.692768 0.000000
0.997238 0.692914 0.000000
0.999512 0.692982 0.000000
1.000000 0.692997 0.000000
0.000000 0.710541 0.000000
0.000488 0.710556 0.000000
0.002762 0.710624 0.000000
0.007612 0.710770 0.000000
0.015625 0.711010 0.000000
0.027296 0.711360 0.000000
0.043057 0.711833 0.000000
0.063302 0.712441 0.000000
0.088388 0.713193 0.000000
0.118652 0.714101 0.000000
0.154408 0.715174 0.000000
0.195953 0.716420 0.000000
0.243569 0.717849 0.000000
0.297528 0.719467 0.000000
0.358088 0.721284 0.000000
0.425499 0.723306 0.000000
0.500000 0.725541 0.000000
0.574501 0.727777 0.000000
0.641912 0.729799 0.000000
0.702471 0.731616 0.000000
0.756430 0.733234 0.000000
0.804047 0.734663 0.000000
0.845592 0.735909 0.000000
0.881348 0.736982 0.000000
0.911612 0.737890 0.000000
0.936698 0.738642 0.000000
0.956943 0.739250 0.000000
0.972704 0.739723 0.000000
0.984375 0.740073 0.000000
0.992388 0.740313 0.000000
0.997238 0.740459 0.000000
0.999512 0.740527 0.000000
1.000000 0.740541 0.000000
0.000000 0.754649 0.000000
0.000488 0.754663 0.000000
0.002762 0.754732 0.000000
0.007612 0.754877 0.000000
0.015625 0.755118 0.000000
0.027296 0.755468 0.000000
0.043058 0.755941 0.000000
0.063302 0.756548 0.000000
0.088388 0.757300 0.000000
0.118652 0.758208 0.000000
0.154408 0.759281 0.000000
0.195953 0.760527 0.000000
0.243570 0.761956 0.000000
0.297528 0.763575 0.000000
0.358088 0.765391 0.000000
0.425499 0.767414 0.000000
0.500000 0.769649 0.000000
0.574501 0.771884 0.000000
0.641912 0.773906 0.000000
0.702472 0.775723 0.000000
0.756430 0.777342 0.000000
0.804047 0.778770 0.000000
0.845592 0.780017 0.000000
0.881348 0.781089 0.000000
0.911612 0.781997 0.000000
0.936698 0.782750 0.000000
0.956943 0.783357 0.000000
0.972704 0.783830 0.000000
0.984375 0.784180 0.000000
0.992388 0.784420 0.000000
0.997238 0.784566 0.000000
0.999512 0.784634 0.000000
1.000000 0.784649 0.000000
0.000000 0.795289 0.000000
0.000488 0.795303 0.000000
0.002762 0.795371 0.000000
0.007612 0.795517 0.000000
0.015625 0.795757 0.000000
0.027296 0.796107 0.000000
0.043058 0.796580 0.000000
0.063302 0.797188 0.000000
0.088388 0.797940 0.000000
0.118652 0.798848 0.000000
0.154408 0.799921 0.000000
0.195953 0.801167 0.000000
0.243570 0.802596 0.000000
0.297528 0.804214 0.000000
0.358088 0.806031 0.000000
0.425499 0.808054 0.000000
0.500000 0.810289 0.000000
0.574501 0.812524 0.000000
0.641912 0.814546 0.000000
0.702472 0.816363 0.000000
0.756430 0.817982 0.000000
0.804047 0.819410 0.000000
0.845592 0.820656 0.000000
0.881348 0.821729 0.000000
0.911612 0.822637 0.000000
0.936698 0.823390 0.000000
0.956943 0.823997 0.000000
0.972704 0.824470 0.000000
0.984375 0.824820 0.000000
0.992388 0.825060 0.000000
0.997238 0.825206 0.000000
0.999512 0.825274 0.000000
1.000000 0.825289 0.000000
0.000000 0.832428 0.000000
0.000488 0.832442 0.000000
0.002762 0.832510 0.000000
0.007612 0.832656 0.000000
0.015625 0.832896 0.000000
0.027296 0.833246 0.000000
0.043057 0.833719 0.000000
0.063302 0.834327 0.000000
0.088388 0.835079 0.000000
0.118652 0.835987 0.000000
0.154408 0.837060 0.000000
0.195953 0.838306 0.000000
0.243570 0.839735 0.000000
0.297528 0.841353 0.000000
0.358088 0.843170 0.000000
0.425499 0.845192 0.000000
0.500000 0.847427 0.000000
0.574501 0.849663 0.000000
0.641912 0.851685 0.000000
0.702472 0.853502 0.000000
0.756430 0.855120 0.000000
0.804047 0.856549 0.000000
0.845592 0.857795 0.000000
0.881348 0.858868 0.000000
0.911612 0.859776 0.000000
0.936698 0.860528 0.000000
0.956943 0.861136 0.000000
0.972704 0.861609 0.000000
0.984375 0.861959 0.000000
0.992388 0.862199 0.000000
0.997238 0.862345 0.000000
0.999512 0.862413 0.000000
1.000000 0.862427 0.000000
0.000000 0.866028 0.000000
0.000488 0.866043 0.000000
0.002762 0.866111 0.000000
0.007611 0.866257 0.000000
0.015625 0.866497 0.000000
0.027296 0.866847 0.000000
0.043057 0.867320 0.000000
0.063302 0.867927 0.000000
0.088389 0.868680 0.000000
0.118653 0.869588 0.000000
0.154408 0.870661 0.000000
0.195953 0.871907 0.000000
0.243570 0.873335 0.000000
0.297528 0.874954 0.000000
0.358088 0.876771 0.000000
0.425499 0.878793 0.000000
0.500000 0.881028 0.000000
0.574501 0.883263 0.000000
0.641912 0.885286 0.000000
0.702472 0.887102 0.000000
0.756430 0.888721 0.000000
0.804047 0.890150 0.000000
0.845592 0.891396 0.000000
0.881348 0.892469 0.000000
0.911612 0.893377 0.000000
0.936698 0.894129 0.000000
0.956943 0.894737 0.000000
0.972704 0.895209 0.000000
0.984375 0.895560 0.000000
0.992388 0.895800 0.000000
0.997238 0.895945 0.000000
0.999512 0.896014 0.000000
1.000000 0.896028 0.000000
0.000000 0.896049 0.000000
0.000488 0.896064 0.000000
0.002762 0.896132 0.000000
0.007612 0.896277 0.000000
0.015625 0.896518 0.000000
0.027296 0.896868 0.000000
0.043057 0.897341 0.000000
0.063302 0.897948 0.000000
0.088389 0.898701 0.000000
0.118653 0.899609 0.000000
0.154408 0.900681 0.000000
0.195953 0.901928 0.000000
0.243570 0.903356 0.000000
0.297528 0.904975 0.000000
0.358088 0.906792 0.000000
0.425499 0.908814 0.000000
0.500000 0.911049 0.000000
0.574502 0.913284 0.000000
0.641912 0.915306 0.000000
0.702472 0.917123 0.000000
0.756430 0.918742 0.000000
0.804047 0.920170 0.000000
0.845592 0.921417 0.000000
0.881348 0.922490 0.000000
0.911611 0.923397 0.000000
0.936698 0.924150 0.000000
0.956943 0.924757 0.000000
0.972704 0.925230 0.000000
0.984375 0.925580 0.000000
0.992388 0.925821 0.000000
0.997238 0.925966 0.000000
0.999512 0.926034 0.000000
1.000000 0.926049 0.000000
0.000000 0.922441 0.000000
0.000488 0.922456 0.000000
0.002762 0.922524 0.000000
0.007611 0.922670 0.000000
0.015625 0.922910 0.000000
0.027296 0.923260 0.000000
0.043058 0.923733 0.000000
0.063302 0.924341 0.000000
0.088389 0.925093 0.000000
0.118652 0.926001 0.000000
0.154408 0.927074 0.000000
0.195953 0.928320 0.000000
0.243569 0.929749 0.000000
0.297529 0.931367 0.000000
0.358088 0.933184 0.000000
0.425498 0.935206 0.000000
0.500000 0.937441 0.000000
0.574501 0.939677 0.000000
0.641912 0.941699 0.000000
0.702472 0.943516 0.000000
0.756430 0.945134 0.000000
0.804047 0.946563 0.000000
0.845592 0.947809 0.000000
0.881348 0.948882 0.000000
0.911612 0.949790 0.000000
0.936698 0.950542 0.000000
0.956943 0.951150 0.000000
