crates/agx-e2e/fixtures/looks/luts/linear_demo.cube
TITLE "Linear Demo"
LUT_3D_SIZE 2
0.05 0.05 0.05
0.95 0.10 0.10
0.10 0.95 0.10
0.95 0.95 0.10
0.10 0.10 0.95
0.95 0.10 0.95
0.10 0.95 0.95
0.95 0.95 0.95
