crates/agx-e2e/fixtures/looks/luts/neo_noir.cube
TITLE "neo_noir"
LUT_3D_SIZE 9
DOMAIN_MIN 0.0 0.0 0.0
DOMAIN_MAX 1.0 1.0 1.0
0.015439 0.015335 0.024065
0.018469 0.015335 0.024065
0.051855 0.025876 0.033433
0.157107 0.083981 0.065799
0.368875 0.227558 0.146125
0.580643 0.226451 0.235181
0.685895 0.266374 0.275104
0.722868 0.280398 0.289128
0.727750 0.282250 0.290980
0.015335 0.018261 0.024065
0.020309 0.020217 0.025917
0.053707 0.030758 0.035241
0.158959 0.092141 0.070681
0.370727 0.231916 0.151007
0.582495 0.231332 0.237032
0.687746 0.271255 0.276955
0.724720 0.285280 0.290980
0.729602 0.287132 0.292832
0.025876 0.051855 0.035779
0.030758 0.053707 0.037675
0.055995 0.057190 0.039941
0.162442 0.124492 0.079864
0.374210 0.257308 0.160190
0.585978 0.257765 0.240516
0.691230 0.297688 0.280439
0.728203 0.311713 0.294463
0.733085 0.313564 0.296315
0.065799 0.157107 0.101441
0.070681 0.158959 0.103541
0.079864 0.162442 0.089993
0.135063 0.162442 0.079864
0.374210 0.322636 0.160190
0.585978 0.323094 0.240516
0.691230 0.363017 0.280439
0.728203 0.377041 0.294463
0.733085 0.378893 0.296315
0.146125 0.368875 0.245018
0.151007 0.370727 0.243316
0.160190 0.374210 0.222809
0.162899 0.374210 0.160190
0.294342 0.374210 0.160190
0.585978 0.454536 0.240516
0.691230 0.494459 0.280439
0.728203 0.508483 0.294463
0.733085 0.510335 0.296315
0.226451 0.580643 0.235181
0.231332 0.582495 0.237032
0.257765 0.585978 0.240516
0.323094 0.585978 0.240516
0.454536 0.585978 0.240516
0.585978 0.585978 0.240516
0.691230 0.625901 0.280439
0.728203 0.639926 0.294463
0.733085 0.641777 0.296315
0.266374 0.685895 0.275104
0.271255 0.687746 0.276955
0.297688 0.691230 0.280439
0.363017 0.691230 0.280439
0.494459 0.691230 0.280439
0.625901 0.691230 0.280439
0.691230 0.691230 0.280439
0.728203 0.705254 0.294463
0.733085 0.707106 0.296315
0.280398 0.722868 0.289128
0.285280 0.724720 0.290980
0.311713 0.728203 0.294463
0.377041 0.728203 0.294463
0.508483 0.728203 0.294463
0.639926 0.728203 0.294463
0.705254 0.728203 0.294463
0.728204 0.728203 0.294463
0.733085 0.730055 0.296315
0.282250 0.727750 0.290980
0.287132 0.729602 0.292832
0.313564 0.733085 0.296315
0.378893 0.733085 0.296315
0.510335 0.733085 0.296315
0.641777 0.733085 0.296315
0.707106 0.733085 0.296315
0.730055 0.733085 0.296315
0.733085 0.733085 0.296315
0.017300 0.017113 0.028752
0.020330 0.017113 0.028752
0.051855 0.025876 0.036342
0.157107 0.081071 0.065799
0.368875 0.224649 0.146125
0.580643 0.226451 0.238091
0.685895 0.266374 0.278013
0.722868 0.280398 0.292038
0.727750 0.282250 0.293889
0.017113 0.019956 0.028752
0.022176 0.021994 0.030604
0.053707 0.030758 0.038150
0.158959 0.089232 0.070681
0.370727 0.229006 0.151007
0.582495 0.231332 0.239942
0.687746 0.271255 0.279865
0.724720 0.285280 0.293889
0.729602 0.287132 0.295742
0.025876 0.051855 0.038689
0.030758 0.053707 0.040584
0.057846 0.058968 0.044628
0.164220 0.126252 0.084551
0.375988 0.255635 0.164877
0.587756 0.259543 0.245203
0.693008 0.299466 0.285126
0.729981 0.313490 0.299151
0.734863 0.315342 0.301002
0.065799 0.157107 0.104350
0.070681 0.158959 0.106451
0.084551 0.164220 0.097573
0.136859 0.164220 0.084551
0.375988 0.320964 0.164877
0.587756 0.324871 0.245203
0.693008 0.364795 0.285126
0.729981 0.378819 0.299151
0.734863 0.380671 0.301002
0.146125 0.368875 0.247928
0.151007 0.370727 0.246225
0.164877 0.375988 0.226956
0.168128 0.375988 0.164877
0.299570 0.375988 0.164877
0.587756 0.456314 0.245203
0.693008 0.496237 0.285126
0.729981 0.510261 0.299151
0.734863 0.512113 0.301002
0.226451 0.580643 0.238090
0.231332 0.582495 0.239942
0.259543 0.587756 0.245203
0.324871 0.587756 0.245203
0.456314 0.587756 0.245203
0.587756 0.587756 0.245203
0.693008 0.627679 0.285126
0.729981 0.641704 0.299151
0.734863 0.643555 0.301002
0.266374 0.685895 0.278013
0.271255 0.687746 0.279865
0.299466 0.693008 0.285126
0.364795 0.693008 0.285126
0.496237 0.693008 0.285126
0.627679 0.693008 0.285126
0.693008 0.693008 0.285126
0.729981 0.707032 0.299151
0.734863 0.708884 0.301002
0.280398 0.722868 0.292038
0.285280 0.724720 0.293889
0.313490 0.729981 0.299151
0.378819 0.729981 0.299151
0.510261 0.729981 0.299151
0.641704 0.729981 0.299151
0.707032 0.729981 0.299151
0.729981 0.729981 0.299151
0.734863 0.731833 0.301002
0.282250 0.727750 0.293889
0.287132 0.729602 0.295741
0.315342 0.734863 0.301002
0.380671 0.734863 0.301002
0.512113 0.734863 0.301002
0.643555 0.734863 0.301002
0.708884 0.734863 0.301002
0.731833 0.734863 0.301002
0.734863 0.734863 0.301002
0.032809 0.030579 0.064255
0.035838 0.030579 0.064255
0.058788 0.030579 0.064255
0.157107 0.065799 0.072563
0.368875 0.202613 0.146125
0.580643 0.226451 0.260126
0.685895 0.266374 0.300049
0.722868 0.280398 0.314074
0.727750 0.282250 0.315925
0.030579 0.031380 0.064255
0.037772 0.035461 0.066106
0.060721 0.035461 0.066106
0.158959 0.070681 0.074165
0.370727 0.206970 0.151007
0.582495 0.231332 0.261978
0.687746 0.271255 0.301901
0.724720 0.285280 0.315925
0.729602 0.287132 0.317777
0.030579 0.054329 0.064255
0.035461 0.056099 0.066106
0.073658 0.072435 0.080131
0.172983 0.125956 0.107654
0.384751 0.239932 0.187980
0.596519 0.268306 0.276002
0.701771 0.308229 0.315925
0.738745 0.322254 0.329950
0.743626 0.324105 0.331801
0.065799 0.157107 0.126386
0.070681 0.158959 0.128487
0.107654 0.172983 0.141349
0.153272 0.177686 0.120054
0.389454 0.309051 0.200380
0.601222 0.338338 0.280705
0.706474 0.378261 0.320628
0.743448 0.392285 0.334653
0.748329 0.394137 0.336505
0.146125 0.368875 0.269964
0.151007 0.370727 0.268261
0.187980 0.384751 0.255324
0.206973 0.389454 0.200380
0.338415 0.389454 0.200380
0.601222 0.469780 0.280705
0.706474 0.509703 0.320628
0.743448 0.523728 0.334653
0.748329 0.525579 0.336505
0.226451 0.580643 0.260126
0.231332 0.582495 0.261978
0.268306 0.596519 0.276002
0.338338 0.601222 0.280705
0.469780 0.601222 0.280705
0.601223 0.601222 0.280705
0.706474 0.641145 0.320628
0.743448 0.655170 0.334653
0.748329 0.657022 0.336505
0.266374 0.685895 0.300049
0.271255 0.687746 0.301901
0.308229 0.701771 0.315925
0.378261 0.706474 0.320628
0.509703 0.706474 0.320628
0.641145 0.706474 0.320628
0.706474 0.706474 0.320628
0.743448 0.720499 0.334653
0.748329 0.722350 0.336505
0.280398 0.722868 0.314073
0.285280 0.724720 0.315925
0.322254 0.738745 0.329950
0.392285 0.743448 0.334653
0.523728 0.743448 0.334653
0.655170 0.743448 0.334653
0.720499 0.743448 0.334653
0.743448 0.743448 0.334653
0.748329 0.745299 0.336505
0.282250 0.727750 0.315925
0.287132 0.729602 0.317777
0.324105 0.743626 0.331801
0.394137 0.748329 0.336505
0.525580 0.748329 0.336505
0.657022 0.748329 0.336505
0.722350 0.748329 0.336505
0.745299 0.748329 0.336505
0.748329 0.748329 0.336505
0.099416 0.068913 0.165317
0.102446 0.068913 0.165317
0.125395 0.068913 0.165317
0.165317 0.068913 0.139911
0.368875 0.146125 0.152366
0.580643 0.226451 0.322855
0.685895 0.266374 0.362778
0.722868 0.280398 0.376802
0.727750 0.282250 0.378654
0.096386 0.068913 0.165317
0.104520 0.073795 0.167169
0.127469 0.073795 0.167169
0.167169 0.073795 0.141540
0.370727 0.151007 0.157771
0.582495 0.231332 0.324706
0.687746 0.271255 0.364629
0.724720 0.285280 0.378654
0.729602 0.287132 0.380506
0.073437 0.068913 0.165317
0.081571 0.073795 0.167169
0.140014 0.110769 0.181194
0.181194 0.110769 0.157044
0.384751 0.187980 0.198757
0.596519 0.268306 0.338731
0.701771 0.308229 0.378654
0.738745 0.322254 0.392679
0.743626 0.324105 0.394530
0.068913 0.129719 0.165317
0.073795 0.131348 0.167169
0.110769 0.146852 0.181194
0.218515 0.216020 0.221117
0.424674 0.294733 0.293232
0.636442 0.373558 0.378654
0.741694 0.413481 0.418577
0.778668 0.427505 0.432602
0.783549 0.429357 0.434453
0.146125 0.368875 0.332692
0.151007 0.370727 0.330990
0.187980 0.384751 0.318053
0.293232 0.424674 0.304925
0.423034 0.427788 0.301442
0.639557 0.508114 0.381768
0.744808 0.548037 0.421691
0.781782 0.562062 0.435716
0.786664 0.563913 0.437567
0.226451 0.580643 0.322855
0.231332 0.582495 0.324706
0.268306 0.596519 0.338731
0.373558 0.636442 0.378654
0.508114 0.639557 0.381768
0.639557 0.639557 0.381768
0.744808 0.679480 0.421691
0.781782 0.693504 0.435716
0.786664 0.695356 0.437567
0.266374 0.685895 0.362778
0.271255 0.687746 0.364629
0.308229 0.701771 0.378654
0.413481 0.741694 0.418577
0.548037 0.744808 0.421691
0.679480 0.744808 0.421691
0.744808 0.744808 0.421691
0.781782 0.758833 0.435716
0.786664 0.760684 0.437567
0.280398 0.722868 0.376802
0.285280 0.724720 0.378654
0.322254 0.738745 0.392678
0.427505 0.778668 0.432601
0.562062 0.781782 0.435716
0.693504 0.781782 0.435716
0.758833 0.781782 0.435716
0.781782 0.781782 0.435716
0.786664 0.783634 0.437567
0.282250 0.727750 0.378654
0.287132 0.729602 0.380505
0.324105 0.743626 0.394530
0.429357 0.783549 0.434453
0.563914 0.786664 0.437567
0.695356 0.786664 0.437567
0.760684 0.786664 0.437567
0.783634 0.786664 0.437567
0.786664 0.786663 0.437568
0.236254 0.146042 0.368657
0.239284 0.146042 0.368657
0.262233 0.146042 0.368657
0.327562 0.146042 0.368657
0.368875 0.146125 0.278577
0.580643 0.226451 0.449066
0.685895 0.266374 0.488989
0.722868 0.280398 0.503013
0.727750 0.282250 0.504865
0.233224 0.146042 0.368657
0.237586 0.150924 0.370509
0.260535 0.150924 0.370509
0.325863 0.150924 0.370509
0.370727 0.151007 0.283982
0.582495 0.231332 0.450917
0.687746 0.271255 0.490840
0.724720 0.285280 0.504865
0.729602 0.287132 0.506717
0.210275 0.146042 0.368657
0.214636 0.150924 0.370509
0.247618 0.187898 0.384534
0.312946 0.187898 0.384534
0.384751 0.187980 0.324968
0.596519 0.268306 0.464942
0.701771 0.308229 0.504865
0.738745 0.322254 0.518890
0.743626 0.324105 0.520741
0.146042 0.147139 0.368657
0.150924 0.152540 0.370509
0.187898 0.193506 0.384534
0.299786 0.293149 0.424457
0.424674 0.293232 0.417942
0.636442 0.373558 0.504865
0.741694 0.413481 0.544788
0.778668 0.427505 0.558813
0.783549 0.429357 0.560664
0.146125 0.278847 0.368875
0.151007 0.284252 0.370727
0.187980 0.325238 0.384751
0.293232 0.418212 0.424674
0.504918 0.504918 0.504782
0.716686 0.585243 0.585108
0.821937 0.625166 0.625031
0.858911 0.639191 0.639056
0.863792 0.641043 0.640908
0.226451 0.580643 0.449066
0.231332 0.582495 0.450917
0.268306 0.596519 0.464942
0.373558 0.636442 0.504865
0.585243 0.716686 0.585108
0.716686 0.716686 0.585108
0.821937 0.756609 0.625031
0.858911 0.770633 0.639056
0.863792 0.772485 0.640908
0.266374 0.685895 0.488989
0.271255 0.687746 0.490840
0.308229 0.701771 0.504865
0.413481 0.741694 0.544788
0.625166 0.821937 0.625031
0.756609 0.821937 0.625031
0.821937 0.821937 0.625031
0.858911 0.835962 0.639056
0.863792 0.837813 0.640908
0.280398 0.722868 0.503013
0.285280 0.724720 0.504865
0.322254 0.738745 0.518889
0.427505 0.778668 0.558813
0.639191 0.858911 0.639056
0.770633 0.858911 0.639056
0.835962 0.858911 0.639056
0.858911 0.858911 0.639056
0.863792 0.860762 0.640908
0.282250 0.727750 0.504865
0.287132 0.729602 0.506717
0.324105 0.743626 0.520741
0.429357 0.783549 0.560664
0.641042 0.863792 0.640908
0.772485 0.863792 0.640908
0.837813 0.863792 0.640908
0.860763 0.863792 0.640908
0.863792 0.863792 0.640908
0.223234 0.223172 0.571998
0.226264 0.223172 0.571998
0.249214 0.223172 0.571998
0.314542 0.223172 0.571998
0.445984 0.223172 0.571998
0.580643 0.226451 0.575277
0.685895 0.266374 0.615200
0.722868 0.280398 0.629225
0.727750 0.282250 0.631077
0.223172 0.226139 0.571998
0.228053 0.228053 0.573849
0.251002 0.228053 0.573849
0.316331 0.228053 0.573849
0.447773 0.228053 0.573849
0.582495 0.231332 0.577128
0.687746 0.271255 0.617052
0.724720 0.285280 0.631076
0.729602 0.287132 0.632928
0.223172 0.249088 0.571998
0.228053 0.251002 0.573849
0.265027 0.265027 0.587874
0.330355 0.265027 0.587874
0.461798 0.265027 0.587874
0.596519 0.268306 0.591153
0.701771 0.308229 0.631076
0.738745 0.322254 0.645101
0.743626 0.324105 0.646952
0.223172 0.314417 0.571998
0.228053 0.316331 0.573849
0.265027 0.330356 0.587874
0.370278 0.370278 0.627797
0.501721 0.370278 0.627797
0.636442 0.373558 0.631076
0.741694 0.413481 0.670999
0.778668 0.427505 0.685024
0.783549 0.429357 0.686875
0.223172 0.445859 0.571998
0.228053 0.447773 0.573849
0.265027 0.461798 0.587874
0.370278 0.501721 0.627797
0.582047 0.582047 0.708123
0.716768 0.585326 0.711402
0.822020 0.625249 0.751325
0.858993 0.639273 0.765350
0.863875 0.641125 0.767201
0.226451 0.580643 0.575277
0.231332 0.582495 0.577129
0.268306 0.596519 0.591153
0.373558 0.636442 0.631076
0.585326 0.716768 0.711402
0.793815 0.793815 0.788448
0.899066 0.833738 0.828372
0.936040 0.847762 0.842396
0.940922 0.849614 0.844248
0.266374 0.685895 0.615200
0.271255 0.687746 0.617052
0.308229 0.701771 0.631076
0.413481 0.741694 0.670999
0.625249 0.822020 0.751325
0.833738 0.899066 0.828372
0.899066 0.899066 0.828372
0.936040 0.913091 0.842396
0.940922 0.914942 0.844248
0.280398 0.722868 0.629224
0.285280 0.724720 0.631076
0.322254 0.738745 0.645101
0.427505 0.778668 0.685024
0.639273 0.858993 0.765350
0.847762 0.936040 0.842396
0.913091 0.936040 0.842396
0.936040 0.936040 0.842396
0.940922 0.937892 0.844248
0.282250 0.727750 0.631076
0.287132 0.729602 0.632928
0.324105 0.743626 0.646952
0.429357 0.783549 0.686875
0.641125 0.863875 0.767201
0.849614 0.940922 0.844248
0.914942 0.940922 0.844248
0.937892 0.940922 0.844248
0.940922 0.940922 0.844248
0.261506 0.261506 0.673061
0.264536 0.261506 0.673061
0.287485 0.261506 0.673061
0.352814 0.261506 0.673061
0.484256 0.261506 0.673061
0.615698 0.261506 0.673061
0.685895 0.266374 0.677929
0.722868 0.280398 0.691953
0.727750 0.282250 0.693805
0.261506 0.264536 0.673061
0.266387 0.266387 0.674912
0.289336 0.266387 0.674912
0.354665 0.266387 0.674912
0.486107 0.266387 0.674912
0.617550 0.266387 0.674912
0.687746 0.271255 0.679780
0.724720 0.285280 0.693805
0.729602 0.287132 0.695657
0.261506 0.287485 0.673061
0.266387 0.289337 0.674912
0.303361 0.303361 0.688937
0.368690 0.303361 0.688937
0.500132 0.303361 0.688937
0.631574 0.303361 0.688937
0.701771 0.308229 0.693805
0.738745 0.322254 0.707829
0.743626 0.324105 0.709681
0.261506 0.352813 0.673061
0.266387 0.354665 0.674912
0.303361 0.368690 0.688937
0.408613 0.408613 0.728860
0.540055 0.408613 0.728860
0.671497 0.408613 0.728860
0.741694 0.413481 0.733728
0.778668 0.427505 0.747752
0.783549 0.429357 0.749604
0.261506 0.484256 0.673061
0.266387 0.486107 0.674912
0.303361 0.500132 0.688937
0.408613 0.540055 0.728860
0.620381 0.620381 0.809186
0.751823 0.620381 0.809186
0.822020 0.625249 0.814054
0.858993 0.639273 0.828078
0.863875 0.641125 0.829930
0.261506 0.615698 0.673061
0.266387 0.617550 0.674912
0.303361 0.631574 0.688937
0.408613 0.671497 0.728860
0.620381 0.751823 0.809186
0.832149 0.832149 0.889511
0.902346 0.837017 0.894379
0.939319 0.851041 0.908404
0.944201 0.852893 0.910256
0.266374 0.685895 0.677929
0.271255 0.687746 0.679780
0.308229 0.701771 0.693805
0.413481 0.741694 0.733728
0.625249 0.822020 0.814054
0.837017 0.902346 0.894379
0.937400 0.937400 0.929434
0.974374 0.951425 0.943459
0.979256 0.953277 0.945310
0.280398 0.722868 0.691953
0.285280 0.724720 0.693805
0.322254 0.738745 0.707829
0.427505 0.778668 0.747752
0.639273 0.858993 0.828078
0.851041 0.939319 0.908404
0.951425 0.974374 0.943459
0.974374 0.974374 0.943459
0.979256 0.976226 0.945310
0.282250 0.727750 0.693805
0.287132 0.729602 0.695656
0.324105 0.743626 0.709681
0.429357 0.783549 0.749604
0.641125 0.863875 0.829930
0.852893 0.944201 0.910256
0.953277 0.979256 0.945310
0.976226 0.979256 0.945310
0.979256 0.979256 0.945310
0.274972 0.274972 0.708563
0.278002 0.274972 0.708563
0.300951 0.274972 0.708563
0.366280 0.274972 0.708563
0.497722 0.274972 0.708563
0.629165 0.274972 0.708563
0.694493 0.274972 0.708563
0.722868 0.280398 0.713989
0.727750 0.282250 0.715841
0.274972 0.278002 0.708563
0.279854 0.279854 0.710414
0.302803 0.279854 0.710414
0.368132 0.279854 0.710414
0.499573 0.279854 0.710414
0.631016 0.279854 0.710414
0.696345 0.279854 0.710414
0.724720 0.285280 0.715841
0.729602 0.287132 0.717693
0.274972 0.300951 0.708563
0.279854 0.302803 0.710414
0.316827 0.316827 0.724439
0.382156 0.316827 0.724439
0.513598 0.316827 0.724439
0.645040 0.316827 0.724439
0.710369 0.316827 0.724439
0.738745 0.322254 0.729865
0.743626 0.324105 0.731717
0.274972 0.366280 0.708563
0.279854 0.368132 0.710414
0.316827 0.382156 0.724439
0.422079 0.422079 0.764362
0.553521 0.422079 0.764362
0.684963 0.422079 0.764362
0.750292 0.422079 0.764362
0.778668 0.427505 0.769788
0.783549 0.429357 0.771640
0.274972 0.497722 0.708563
0.279854 0.499574 0.710414
0.316827 0.513598 0.724439
0.422079 0.553521 0.764362
0.633847 0.633847 0.844688
0.765289 0.633847 0.844688
0.830618 0.633847 0.844688
0.858993 0.639273 0.850114
0.863875 0.641125 0.851966
0.274972 0.629164 0.708563
0.279854 0.631016 0.710414
0.316827 0.645040 0.724439
0.422079 0.684964 0.764362
0.633847 0.765289 0.844688
0.845615 0.845615 0.925014
0.910944 0.845615 0.925014
0.939319 0.851041 0.930440
0.944201 0.852893 0.932292
0.274972 0.694493 0.708563
0.279854 0.696345 0.710414
0.316827 0.710369 0.724439
0.422079 0.750292 0.764362
0.633847 0.830618 0.844688
0.845615 0.910944 0.925014
0.950867 0.950867 0.964937
0.979242 0.956293 0.970363
0.984124 0.958145 0.972215
0.280398 0.722868 0.713989
0.285280 0.724720 0.715841
0.322254 0.738745 0.729865
0.427505 0.778668 0.769788
0.639273 0.858993 0.850114
0.851041 0.939319 0.930440
0.956293 0.979242 0.970363
0.987841 0.987841 0.978961
0.992722 0.989692 0.980813
0.282250 0.727750 0.715841
0.287132 0.729602 0.717692
0.324105 0.743626 0.731717
0.429357 0.783549 0.771640
0.641125 0.863875 0.851966
0.852893 0.944201 0.932292
0.958145 0.984124 0.972215
0.989692 0.992722 0.980813
0.992722 0.992722 0.980813
0.276750 0.276750 0.713250
0.279780 0.276750 0.713250
0.302729 0.276750 0.713250
0.368058 0.276750 0.713250
0.499500 0.276750 0.713250
0.630942 0.276750 0.713250
0.696271 0.276750 0.713250
0.722868 0.280398 0.716898
0.727750 0.282250 0.718750
0.276750 0.279780 0.713250
0.281632 0.281632 0.715102
0.304581 0.281632 0.715102
0.369910 0.281632 0.715102
0.501351 0.281632 0.715102
0.632794 0.281632 0.715102
0.698122 0.281632 0.715102
0.724720 0.285280 0.718750
0.729602 0.287132 0.720602
0.276750 0.302729 0.713250
0.281632 0.304581 0.715102
0.318605 0.318605 0.729126
0.383934 0.318605 0.729126
0.515376 0.318605 0.729126
0.646818 0.318605 0.729126
0.712147 0.318605 0.729126
0.738745 0.322254 0.732775
0.743626 0.324105 0.734627
0.276750 0.368058 0.713250
0.281632 0.369909 0.715102
0.318605 0.383934 0.729126
0.423857 0.423857 0.769049
0.555299 0.423857 0.769049
0.686742 0.423857 0.769049
0.752070 0.423857 0.769049
0.778668 0.427505 0.772698
0.783549 0.429357 0.774549
0.276750 0.499500 0.713250
0.281632 0.501352 0.715102
0.318605 0.515376 0.729126
0.423857 0.555299 0.769049
0.635625 0.635625 0.849375
0.767067 0.635625 0.849375
0.832396 0.635625 0.849375
0.858993 0.639273 0.853023
0.863875 0.641125 0.854875
0.276750 0.630942 0.713250
0.281632 0.632794 0.715102
0.318605 0.646819 0.729126
0.423857 0.686741 0.769049
0.635625 0.767067 0.849375
0.847393 0.847393 0.929701
0.912722 0.847393 0.929701
0.939319 0.851041 0.933349
0.944201 0.852893 0.935201
0.276750 0.696271 0.713250
0.281632 0.698123 0.715102
0.318605 0.712147 0.729126
0.423857 0.752070 0.769049
0.635625 0.832396 0.849375
0.847393 0.912722 0.929701
0.952645 0.952645 0.969624
0.979242 0.956293 0.973272
0.984124 0.958145 0.975124
0.280398 0.722868 0.716898
0.285280 0.724720 0.718750
0.322254 0.738745 0.732774
0.427505 0.778668 0.772697
0.639273 0.858993 0.853023
0.851041 0.939319 0.933349
0.956293 0.979242 0.973272
0.989618 0.989618 0.983648
0.994500 0.991470 0.985500
0.282250 0.727750 0.718750
0.287132 0.729602 0.720602
0.324105 0.743626 0.734626
0.429357 0.783549 0.774549
0.641125 0.863875 0.854875
0.852893 0.944201 0.935201
0.958145 0.984124 0.975124
0.991470 0.994500 0.985500
0.994500 0.994500 0.985500
