crates/agx-e2e/fixtures/looks/luts/neo_noir.cube
TITLE "neo_noir"
LUT_3D_SIZE 5
DOMAIN_MIN 0.0 0.0 0.0
DOMAIN_MAX 1.0 1.0 1.0
0.015439 0.015335 0.024065
0.051855 0.025876 0.033433
0.368875 0.227558 0.146125
0.685895 0.266374 0.275104
0.727750 0.282250 0.290980
0.025876 0.051855 0.035779
0.055995 0.057190 0.039941
0.374210 0.257308 0.160190
0.691230 0.297688 0.280439
0.733085 0.313564 0.296315
0.146125 0.368875 0.245018
0.160190 0.374210 0.222809
0.294342 0.374210 0.160190
0.691230 0.494459 0.280439
0.733085 0.510335 0.296315
0.266374 0.685895 0.275104
0.297688 0.691230 0.280439
0.494459 0.691230 0.280439
0.691230 0.691230 0.280439
0.733085 0.707106 0.296315
0.282250 0.727750 0.290980
0.313564 0.733085 0.296315
0.510335 0.733085 0.296315
0.707106 0.733085 0.296315
0.733085 0.733085 0.296315
0.032809 0.030579 0.064255
0.058788 0.030579 0.064255
0.368875 0.202613 0.146125
0.685895 0.266374 0.300049
0.727750 0.282250 0.315925
0.030579 0.054329 0.064255
0.073658 0.072435 0.080131
0.384751 0.239932 0.187980
0.701771 0.308229 0.315925
0.743626 0.324105 0.331801
0.146125 0.368875 0.269964
0.187980 0.384751 0.255324
0.338415 0.389454 0.200380
0.706474 0.509703 0.320628
0.748329 0.525579 0.336505
0.266374 0.685895 0.300049
0.308229 0.701771 0.315925
0.509703 0.706474 0.320628
0.706474 0.706474 0.320628
0.748329 0.722350 0.336505
0.282250 0.727750 0.315925
0.324105 0.743626 0.331801
0.525580 0.748329 0.336505
0.722350 0.748329 0.336505
0.748329 0.748329 0.336505
0.236254 0.146042 0.368657
0.262233 0.146042 0.368657
0.368875 0.146125 0.278577
0.685895 0.266374 0.488989
0.727750 0.282250 0.504865
0.210275 0.146042 0.368657
0.247618 0.187898 0.384534
0.384751 0.187980 0.324968
0.701771 0.308229 0.504865
0.743626 0.324105 0.520741
0.146125 0.278847 0.368875
0.187980 0.325238 0.384751
0.504918 0.504918 0.504782
0.821937 0.625166 0.625031
0.863792 0.641043 0.640908
0.266374 0.685895 0.488989
0.308229 0.701771 0.504865
0.625166 0.821937 0.625031
0.821937 0.821937 0.625031
0.863792 0.837813 0.640908
0.282250 0.727750 0.504865
0.324105 0.743626 0.520741
0.641042 0.863792 0.640908
0.837813 0.863792 0.640908
0.863792 0.863792 0.640908
0.261506 0.261506 0.673061
0.287485 0.261506 0.673061
0.484256 0.261506 0.673061
0.685895 0.266374 0.677929
0.727750 0.282250 0.693805
0.261506 0.287485 0.673061
0.303361 0.303361 0.688937
0.500132 0.303361 0.688937
0.701771 0.308229 0.693805
0.743626 0.324105 0.709681
0.261506 0.484256 0.673061
0.303361 0.500132 0.688937
0.620381 0.620381 0.809186
0.822020 0.625249 0.814054
0.863875 0.641125 0.829930
0.266374 0.685895 0.677929
0.308229 0.701771 0.693805
0.625249 0.822020 0.814054
0.937400 0.937400 0.929434
0.979256 0.953277 0.945310
0.282250 0.727750 0.693805
0.324105 0.743626 0.709681
0.641125 0.863875 0.829930
0.953277 0.979256 0.945310
0.979256 0.979256 0.945310
0.276750 0.276750 0.713250
0.302729 0.276750 0.713250
0.499500 0.276750 0.713250
0.696271 0.276750 0.713250
0.727750 0.282250 0.718750
0.276750 0.302729 0.713250
0.318605 0.318605 0.729126
0.515376 0.318605 0.729126
0.712147 0.318605 0.729126
0.743626 0.324105 0.734627
0.276750 0.499500 0.713250
0.318605 0.515376 0.729126
0.635625 0.635625 0.849375
0.832396 0.635625 0.849375
0.863875 0.641125 0.854875
0.276750 0.696271 0.713250
0.318605 0.712147 0.729126
0.635625 0.832396 0.849375
0.952645 0.952645 0.969624
0.984124 0.958145 0.975124
0.282250 0.727750 0.718750
0.324105 0.743626 0.734626
0.641125 0.863875 0.854875
0.958145 0.984124 0.975124
0.994500 0.994500 0.985500
