crates/agx-e2e/fixtures/looks/luts/neo_noir.cube
TITLE "neo_noir"
LUT_3D_SIZE 33
DOMAIN_MIN 0.0 0.0 0.0
DOMAIN_MAX 1.0 1.0 1.0
0.015439 0.015335 0.024065
0.015480 0.015335 0.024065
0.015792 0.015335 0.024065
0.016681 0.015335 0.024065
0.018469 0.015335 0.024065
0.021490 0.015335 0.024065
0.027157 0.016508 0.025083
0.037668 0.020495 0.028784
0.051855 0.025876 0.033433
0.070301 0.032873 0.038695
0.093593 0.041708 0.043778
0.122328 0.057898 0.052607
0.157107 0.083981 0.065799
0.198537 0.119245 0.081514
0.247229 0.161758 0.099983
0.303802 0.202999 0.121442
0.368875 0.227558 0.146125
0.433948 0.225406 0.170808
0.490521 0.212963 0.192267
0.539213 0.210736 0.213203
0.580643 0.226451 0.235181
0.615422 0.239643 0.248373
0.644157 0.250542 0.259272
0.667449 0.259377 0.268108
0.685895 0.266374 0.275104
0.700082 0.271755 0.280485
0.710593 0.275742 0.284473
0.718001 0.278552 0.287282
0.722868 0.280398 0.289128
0.725749 0.281491 0.290221
0.727181 0.282034 0.290764
0.727684 0.282225 0.290955
0.727750 0.282250 0.290980
0.015397 0.015335 0.024065
0.015505 0.015401 0.024090
0.015817 0.015401 0.024090
0.016706 0.015401 0.024090
0.018494 0.015401 0.024090
0.021515 0.015401 0.024090
0.027182 0.016574 0.025108
0.037693 0.020561 0.028809
0.051880 0.025943 0.033457
0.070326 0.032939 0.038719
0.093618 0.041774 0.043800
0.122353 0.058010 0.052674
0.157132 0.084092 0.065866
0.198562 0.119353 0.081580
0.247254 0.161856 0.100050
0.303827 0.203079 0.121508
0.368900 0.227618 0.146191
0.433974 0.225457 0.170874
0.490546 0.213024 0.192333
0.539239 0.210802 0.213251
0.580668 0.226517 0.235206
0.615447 0.239709 0.248398
0.644182 0.250609 0.259297
0.667474 0.259444 0.268133
0.685920 0.266440 0.275129
0.700107 0.271822 0.280511
0.710618 0.275809 0.284498
0.718026 0.278618 0.287307
0.722894 0.280465 0.289154
0.725774 0.281557 0.290246
0.727206 0.282100 0.290789
0.727709 0.282291 0.290980
0.727775 0.282316 0.291005
0.015335 0.015585 0.024065
0.015401 0.015610 0.024090
0.016008 0.015904 0.024281
0.016896 0.015904 0.024281
0.018684 0.015904 0.024281
0.021706 0.015904 0.024281
0.027373 0.017077 0.025298
0.037884 0.021064 0.028998
0.052071 0.026445 0.033642
0.070517 0.033442 0.038897
0.093809 0.042277 0.043970
0.122544 0.058855 0.053177
0.157323 0.084937 0.066369
0.198753 0.120173 0.082083
0.247445 0.162602 0.100553
0.304018 0.203690 0.122011
0.369091 0.228068 0.146694
0.434164 0.225839 0.171377
0.490737 0.213486 0.192836
0.539429 0.211305 0.213618
0.580859 0.227020 0.235397
0.615638 0.240212 0.248589
0.644373 0.251112 0.259488
0.667665 0.259947 0.268323
0.686111 0.266943 0.275320
0.700298 0.272325 0.280702
0.710809 0.276312 0.284688
0.718217 0.279121 0.287498
0.723084 0.280968 0.289344
0.725965 0.282060 0.290437
0.727397 0.282603 0.290981
0.727900 0.282794 0.291171
0.727966 0.282819 0.291196
0.015335 0.016473 0.024065
0.015401 0.016499 0.024090
0.015904 0.016690 0.024281
0.017438 0.017336 0.024824
0.019226 0.017336 0.024824
0.022247 0.017336 0.024824
0.027916 0.018509 0.025842
0.038427 0.022496 0.029536
0.052614 0.027877 0.034170
0.071060 0.034874 0.039407
0.094352 0.043709 0.044455
0.123087 0.061256 0.054608
0.157866 0.087337 0.067800
0.199296 0.122498 0.083515
0.247988 0.164717 0.101985
0.304561 0.205423 0.123443
0.369634 0.229348 0.148126
0.434707 0.226933 0.172809
0.491280 0.214813 0.194268
0.539972 0.212737 0.214647
0.581402 0.228452 0.235940
0.616181 0.241644 0.249132
0.644916 0.252543 0.260031
0.668208 0.261378 0.268866
0.686654 0.268375 0.275863
0.700841 0.273756 0.281244
0.711352 0.277743 0.285231
0.718760 0.280553 0.288041
0.723627 0.282399 0.289888
0.726508 0.283492 0.290980
0.727940 0.284035 0.291523
0.728443 0.284226 0.291714
0.728509 0.284251 0.291739
0.015335 0.018261 0.024065
0.015401 0.018286 0.024090
0.015904 0.018477 0.024281
0.017336 0.019022 0.024824
0.020309 0.020217 0.025917
0.023330 0.020217 0.025917
0.029009 0.021389 0.026942
0.039519 0.025376 0.030627
0.053707 0.030758 0.035241
0.072152 0.037754 0.040445
0.095445 0.047733 0.046589
0.124180 0.066069 0.057489
0.158959 0.092141 0.070681
0.200388 0.127148 0.086395
0.249081 0.168940 0.104865
0.305653 0.208882 0.126324
0.370727 0.231916 0.151007
0.435800 0.229157 0.175690
0.492372 0.217533 0.197148
0.541065 0.215618 0.216654
0.582495 0.231332 0.237032
0.617273 0.244524 0.250225
0.646008 0.255424 0.261124
0.669301 0.264259 0.269959
0.687746 0.271255 0.276955
0.701934 0.276637 0.282337
0.712445 0.280624 0.286324
0.719852 0.283433 0.289134
0.724720 0.285280 0.290980
0.727601 0.286372 0.292073
0.729032 0.286916 0.292616
0.729535 0.287106 0.292806
0.729602 0.287132 0.292832
0.015335 0.021283 0.024065
0.015401 0.021308 0.024090
0.015904 0.021499 0.024281
0.017336 0.022044 0.024824
0.020217 0.023145 0.025917
0.025141 0.025084 0.027763
0.030855 0.026257 0.028822
0.041366 0.030244 0.032494
0.055553 0.035626 0.037080
0.073999 0.043010 0.042622
0.097291 0.055748 0.051457
0.126026 0.074145 0.062357
0.160805 0.100187 0.075549
0.202235 0.134918 0.091263
0.250927 0.175980 0.109733
0.307500 0.214647 0.131191
0.372573 0.236238 0.155874
0.437646 0.232993 0.180557
0.494219 0.222283 0.202016
0.542911 0.221115 0.220486
0.584341 0.236200 0.238879
0.619120 0.249392 0.252071
0.647855 0.260292 0.262970
0.671147 0.269127 0.271805
0.689593 0.276123 0.278802
0.703780 0.281505 0.284184
0.714291 0.285492 0.288170
0.721699 0.288301 0.290980
0.726567 0.290148 0.292827
0.729447 0.291240 0.293919
0.730879 0.291783 0.294462
0.731382 0.291974 0.294653
0.731448 0.291999 0.294678
0.016508 0.027157 0.025393
0.016574 0.027182 0.025418
0.017077 0.027373 0.025609
0.018509 0.027916 0.026151
0.021389 0.029009 0.027237
0.026257 0.030855 0.029050
0.032434 0.032492 0.030573
0.043003 0.036859 0.034560
0.057190 0.043055 0.039941
0.075636 0.051932 0.046938
0.098928 0.064723 0.055773
0.127663 0.083161 0.066672
0.162442 0.109162 0.079864
0.203872 0.143632 0.095579
0.252564 0.184042 0.114048
0.309137 0.221600 0.135507
0.374210 0.241978 0.160190
0.439283 0.238400 0.184873
0.495856 0.228579 0.206331
0.544548 0.229025 0.224801
0.585978 0.242435 0.240516
0.620757 0.255627 0.253708
0.649492 0.266526 0.264607
0.672784 0.275361 0.273442
0.691230 0.282358 0.280439
0.705417 0.287739 0.285820
0.715928 0.291726 0.289807
0.723336 0.294536 0.292617
0.728203 0.296383 0.294463
0.731084 0.297475 0.295556
0.732516 0.298018 0.296099
0.733019 0.298209 0.296290
0.733085 0.298234 0.296315
0.020495 0.037668 0.029665
0.020561 0.037693 0.029690
0.021064 0.037884 0.029883
0.022496 0.038427 0.030431
0.025376 0.039519 0.031526
0.030244 0.041366 0.033351
0.036099 0.043003 0.034560
0.042623 0.043003 0.034560
0.057190 0.049579 0.039941
0.075636 0.058456 0.046938
0.098928 0.071247 0.055773
0.127663 0.089685 0.066672
0.162442 0.115686 0.079864
0.203872 0.150156 0.095579
0.252564 0.190566 0.114048
0.309137 0.228124 0.135507
0.374210 0.248502 0.160190
0.439283 0.244924 0.184873
0.495856 0.235103 0.206331
0.544548 0.235549 0.224801
0.585978 0.248959 0.240516
0.620757 0.262151 0.253708
0.649492 0.273050 0.264607
0.672784 0.281885 0.273442
0.691230 0.288882 0.280439
0.705417 0.294263 0.285820
0.715928 0.298250 0.289807
0.723336 0.301060 0.292617
0.728203 0.302907 0.294463
0.731084 0.303999 0.295556
0.732516 0.304542 0.296099
0.733019 0.304733 0.296290
0.733085 0.304758 0.296315
0.025876 0.051855 0.035779
0.025943 0.051880 0.035805
0.026445 0.052071 0.036002
0.027877 0.052614 0.036560
0.030758 0.053707 0.037675
0.035626 0.055553 0.039528
0.040665 0.057190 0.039941
0.047189 0.057190 0.039941
0.055995 0.057190 0.039941
0.075636 0.067262 0.046938
0.098928 0.080053 0.055773
0.127663 0.098491 0.066672
0.162442 0.124492 0.079864
0.203872 0.158962 0.095579
0.252564 0.199372 0.114048
0.309137 0.236930 0.135507
0.374210 0.257308 0.160190
0.439283 0.253730 0.184873
0.495856 0.243909 0.206331
0.544548 0.244355 0.224801
0.585978 0.257765 0.240516
0.620757 0.270957 0.253708
0.649492 0.281856 0.264607
0.672784 0.290691 0.273442
0.691230 0.297688 0.280439
0.705417 0.303069 0.285820
0.715928 0.307056 0.289807
0.723336 0.309866 0.292617
0.728203 0.311713 0.294463
0.731084 0.312805 0.295556
0.732516 0.313348 0.296099
0.733019 0.313539 0.296290
0.733085 0.313564 0.296315
0.032873 0.070301 0.044510
0.032939 0.070326 0.044537
0.033442 0.070517 0.044740
0.034874 0.071060 0.045316
0.037754 0.072152 0.046464
0.042622 0.073999 0.048367
0.046938 0.075636 0.048094
0.052305 0.075636 0.046938
0.061111 0.075636 0.046938
0.072560 0.075636 0.046938
0.098928 0.091502 0.055773
0.127663 0.109940 0.066672
0.162442 0.135941 0.079864
0.203872 0.170411 0.095579
0.252564 0.210821 0.114048
0.309137 0.248379 0.135507
0.374210 0.268756 0.160190
0.439283 0.265179 0.184873
0.495856 0.255358 0.206331
0.544548 0.255804 0.224801
0.585978 0.269214 0.240516
0.620757 0.282406 0.253708
0.649492 0.293305 0.264607
0.672784 0.302140 0.273442
0.691230 0.309137 0.280439
0.705417 0.314518 0.285820
0.715928 0.318505 0.289807
0.723336 0.321315 0.292617
0.728203 0.323161 0.294463
0.731084 0.324254 0.295556
0.732516 0.324797 0.296099
0.733019 0.324988 0.296290
0.733085 0.325013 0.296315
0.041708 0.093593 0.057098
0.041774 0.093618 0.057126
0.042277 0.093809 0.057338
0.043709 0.094352 0.057939
0.046589 0.095445 0.059133
0.051457 0.097291 0.061106
0.055773 0.098928 0.060885
0.057185 0.098928 0.055773
0.065991 0.098928 0.055773
0.077440 0.098928 0.055773
0.091897 0.098928 0.055773
0.127663 0.124397 0.066672
0.162442 0.150398 0.079864
0.203872 0.184868 0.095579
0.252564 0.225278 0.114048
0.309137 0.262836 0.135507
0.374210 0.283214 0.160190
0.439283 0.279636 0.184873
0.495856 0.269815 0.206331
0.544548 0.270262 0.224801
0.585978 0.283671 0.240516
0.620757 0.296863 0.253708
0.649492 0.307763 0.264607
0.672784 0.316598 0.273442
0.691230 0.323594 0.280439
0.705417 0.328976 0.285820
0.715928 0.332963 0.289807
0.723336 0.335773 0.292617
0.728203 0.337619 0.294463
0.731084 0.338712 0.295556
0.732516 0.339255 0.296099
0.733019 0.339445 0.296290
0.733085 0.339470 0.296315
0.052607 0.122328 0.075358
0.052674 0.122353 0.075388
0.053177 0.122544 0.075608
0.054608 0.123087 0.076232
0.057489 0.124180 0.077469
0.062357 0.126026 0.079502
0.066672 0.127663 0.079323
0.066672 0.127663 0.072799
0.069352 0.127663 0.066672
0.080801 0.127663 0.066672
0.095258 0.127663 0.066672
0.113094 0.127663 0.066672
0.156650 0.162442 0.079864
0.203872 0.202704 0.095579
0.252564 0.243114 0.114048
0.309137 0.280672 0.135507
0.374210 0.301049 0.160190
0.439283 0.297472 0.184873
0.495856 0.287651 0.206331
0.544548 0.288097 0.224801
0.585978 0.301507 0.240516
0.620757 0.314699 0.253708
0.649492 0.325598 0.264607
0.672784 0.334433 0.273442
0.691230 0.341430 0.280439
0.705417 0.346811 0.285820
0.715928 0.350798 0.289807
0.723336 0.353608 0.292617
0.728203 0.355454 0.294463
0.731084 0.356547 0.295556
0.732516 0.357090 0.296099
0.733019 0.357281 0.296290
0.733085 0.357306 0.296315
0.065799 0.157107 0.101441
0.065866 0.157132 0.101470
0.066369 0.157323 0.101690
0.067800 0.157866 0.102313
0.070681 0.158959 0.103541
0.075549 0.160805 0.105545
0.079864 0.162442 0.105324
0.079864 0.162442 0.098800
0.079864 0.162442 0.089993
0.081184 0.162442 0.079864
0.095641 0.162442 0.079864
0.113477 0.162442 0.079864
0.135063 0.162442 0.079864
0.183453 0.203872 0.095579
0.240428 0.252564 0.114048
0.309137 0.302258 0.135507
0.374210 0.322636 0.160190
0.439283 0.319059 0.184873
0.495856 0.309238 0.206331
0.544548 0.309684 0.224801
0.585978 0.323094 0.240516
0.620757 0.336286 0.253708
0.649492 0.347185 0.264607
0.672784 0.356020 0.273442
0.691230 0.363017 0.280439
0.705417 0.368398 0.285820
0.715928 0.372385 0.289807
0.723336 0.375195 0.292617
0.728203 0.377041 0.294463
0.731084 0.378134 0.295556
0.732516 0.378677 0.296099
0.733019 0.378868 0.296290
0.733085 0.378893 0.296315
0.081514 0.198537 0.136705
0.081580 0.198562 0.136731
0.082083 0.198753 0.136926
0.083515 0.199296 0.137474
0.086395 0.200388 0.138549
0.091263 0.202235 0.140275
0.095579 0.203872 0.139794
0.095579 0.203872 0.133270
0.095579 0.203872 0.124464
0.095579 0.203872 0.113015
0.095579 0.203872 0.098557
0.110436 0.203872 0.095579
0.132023 0.203872 0.095579
0.157738 0.203872 0.095579
0.214713 0.252564 0.114048
0.290300 0.309137 0.135507
0.374210 0.348351 0.160190
0.439283 0.344774 0.184873
0.495856 0.334953 0.206331
0.544548 0.335399 0.224801
0.585978 0.348809 0.240516
0.620757 0.362000 0.253708
0.649492 0.372900 0.264607
0.672784 0.381735 0.273442
0.691230 0.388732 0.280439
0.705417 0.394113 0.285820
0.715928 0.398100 0.289807
0.723336 0.400910 0.292617
0.728203 0.402756 0.294463
0.731084 0.403849 0.295556
0.732516 0.404392 0.296099
0.733019 0.404583 0.296290
0.733085 0.404608 0.296315
0.099983 0.247229 0.179218
0.100050 0.247254 0.179234
0.100553 0.247445 0.179355
0.101985 0.247988 0.179693
0.104865 0.249081 0.180340
0.109733 0.250927 0.181337
0.114048 0.252564 0.180203
0.114048 0.252564 0.173679
0.114048 0.252564 0.164873
0.114048 0.252564 0.153425
0.114048 0.252564 0.138967
0.114048 0.252564 0.121132
0.128552 0.252564 0.114048
0.154267 0.252564 0.114048
0.184490 0.252564 0.114048
0.260077 0.309137 0.135507
0.369846 0.374210 0.160190
0.439283 0.374997 0.184873
0.495856 0.365175 0.206331
0.544548 0.365622 0.224801
0.585978 0.379032 0.240516
0.620757 0.392223 0.253708
0.649492 0.403123 0.264607
0.672784 0.411958 0.273442
0.691230 0.418955 0.280439
0.705417 0.424336 0.285820
0.715928 0.428323 0.289807
0.723336 0.431133 0.292617
0.728203 0.432979 0.294463
0.731084 0.434072 0.295556
0.732516 0.434615 0.296099
0.733019 0.434806 0.296290
0.733085 0.434831 0.296315
0.121442 0.303802 0.220459
0.121508 0.303827 0.220457
0.122011 0.304018 0.220444
0.123443 0.304561 0.220399
0.126324 0.305653 0.220282
0.131191 0.307500 0.220005
0.135507 0.309137 0.217762
0.135507 0.309137 0.211238
0.135507 0.309137 0.202432
0.135507 0.309137 0.190983
0.135507 0.309137 0.176525
0.135507 0.309137 0.158690
0.135507 0.309137 0.137103
0.159626 0.309137 0.135507
0.189849 0.309137 0.135507
0.224963 0.309137 0.135507
0.334732 0.374210 0.160190
0.439283 0.410111 0.184873
0.495856 0.400289 0.206331
0.544548 0.400736 0.224801
0.585978 0.414145 0.240516
0.620757 0.427337 0.253708
0.649492 0.438237 0.264607
0.672784 0.447072 0.273442
0.691230 0.454068 0.280439
0.705417 0.459450 0.285820
0.715928 0.463437 0.289807
0.723336 0.466247 0.292617
0.728203 0.468093 0.294463
0.731084 0.469186 0.295556
0.732516 0.469729 0.296099
0.733019 0.469919 0.296290
0.733085 0.469945 0.296315
0.146125 0.368875 0.245018
0.146191 0.368900 0.244995
0.146694 0.369091 0.244821
0.148126 0.369634 0.244324
0.151007 0.370727 0.243316
0.155874 0.372573 0.241595
0.160190 0.374210 0.238139
0.160190 0.374210 0.231615
0.160190 0.374210 0.222809
0.160190 0.374210 0.211360
0.160190 0.374210 0.196903
0.160190 0.374210 0.179067
0.162899 0.374210 0.160190
0.188614 0.374210 0.160190
0.218837 0.374210 0.160190
0.253951 0.374210 0.160190
0.294342 0.374210 0.160190
0.428066 0.439283 0.184873
0.495856 0.440680 0.206331
0.544548 0.441126 0.224801
0.585978 0.454536 0.240516
0.620757 0.467728 0.253708
0.649492 0.478627 0.264607
0.672784 0.487462 0.273442
0.691230 0.494459 0.280439
0.705417 0.499840 0.285820
0.715928 0.503827 0.289807
0.723336 0.506637 0.292617
0.728203 0.508483 0.294463
0.731084 0.509576 0.295556
0.732516 0.510119 0.296099
0.733019 0.510310 0.296290
0.733085 0.510335 0.296315
0.170808 0.433948 0.242866
0.170874 0.433974 0.242834
0.171377 0.434164 0.242592
0.172809 0.434707 0.241909
0.175690 0.435800 0.240557
0.180557 0.437646 0.238350
0.184873 0.439283 0.234562
0.184873 0.439283 0.228038
0.184873 0.439283 0.219232
0.184873 0.439283 0.207783
0.184873 0.439283 0.193325
0.194256 0.439283 0.184873
0.215843 0.439283 0.184873
0.241558 0.439283 0.184873
0.271781 0.439283 0.184873
0.306895 0.439283 0.184873
0.347285 0.439283 0.184873
0.387676 0.439283 0.184873
0.495856 0.481070 0.206331
0.544548 0.481517 0.224801
0.585978 0.494926 0.240516
0.620757 0.508118 0.253708
0.649492 0.519018 0.264607
0.672784 0.527853 0.273442
0.691230 0.534849 0.280439
0.705417 0.540231 0.285820
0.715928 0.544218 0.289807
0.723336 0.547027 0.292617
0.728203 0.548874 0.294463
0.731084 0.549966 0.295556
0.732516 0.550509 0.296099
0.733019 0.550700 0.296290
0.733085 0.550725 0.296315
0.192267 0.490521 0.230423
0.192333 0.490546 0.230401
0.192836 0.490737 0.230239
0.194268 0.491280 0.229789
0.197148 0.492372 0.228933
0.202016 0.494219 0.227640
0.206331 0.495856 0.224741
0.206331 0.495856 0.218217
0.206331 0.495856 0.209411
0.214701 0.495856 0.206331
0.229159 0.495856 0.206331
0.246994 0.495856 0.206331
0.268581 0.495856 0.206331
0.294296 0.495856 0.206331
0.324519 0.495856 0.206331
0.359633 0.495856 0.206331
0.400023 0.495856 0.206331
0.440414 0.495856 0.206331
0.475528 0.495856 0.206331
0.544548 0.516630 0.224801
0.585978 0.530040 0.240516
0.620757 0.543232 0.253708
0.649492 0.554132 0.264607
0.672784 0.562967 0.273442
0.691230 0.569963 0.280439
0.705417 0.575345 0.285820
0.715928 0.579332 0.289807
0.723336 0.582141 0.292617
0.728203 0.583988 0.294463
0.731084 0.585080 0.295556
0.732516 0.585623 0.296099
0.733019 0.585814 0.296290
0.733085 0.585839 0.296315
0.210736 0.539213 0.225730
0.210802 0.539239 0.225731
0.211305 0.539429 0.225746
0.212737 0.539972 0.225803
0.215618 0.541065 0.225981
0.220486 0.542911 0.226472
0.224801 0.544548 0.225187
0.230939 0.544548 0.224801
0.239745 0.544548 0.224801
0.251194 0.544548 0.224801
0.265652 0.544548 0.224801
0.283487 0.544548 0.224801
0.305074 0.544548 0.224801
0.330789 0.544548 0.224801
0.361012 0.544548 0.224801
0.396126 0.544548 0.224801
0.436516 0.544548 0.224801
0.476907 0.544548 0.224801
0.512020 0.544548 0.224801
0.542243 0.544548 0.224801
0.585978 0.560263 0.240516
0.620757 0.573455 0.253708
0.649492 0.584354 0.264607
0.672784 0.593190 0.273442
0.691230 0.600186 0.280439
0.705417 0.605568 0.285820
0.715928 0.609555 0.289807
0.723336 0.612364 0.292617
0.728203 0.614211 0.294463
0.731084 0.615303 0.295556
0.732516 0.615846 0.296099
0.733019 0.616037 0.296290
0.733085 0.616062 0.296315
0.226451 0.580643 0.235181
0.226517 0.580668 0.235206
0.227020 0.580859 0.235397
0.228452 0.581402 0.235940
0.231332 0.582495 0.237032
0.236200 0.584341 0.238879
0.242435 0.585978 0.240516
0.248959 0.585978 0.240516
0.257765 0.585978 0.240516
0.269214 0.585978 0.240516
0.283671 0.585978 0.240516
0.301507 0.585978 0.240516
0.323094 0.585978 0.240516
0.348809 0.585978 0.240516
0.379032 0.585978 0.240516
0.414145 0.585978 0.240516
0.454536 0.585978 0.240516
0.494926 0.585978 0.240516
0.530040 0.585978 0.240516
0.560263 0.585978 0.240516
0.585978 0.585978 0.240516
0.620757 0.599170 0.253708
0.649492 0.610069 0.264607
0.672784 0.618905 0.273442
0.691230 0.625901 0.280439
0.705417 0.631283 0.285820
0.715928 0.635269 0.289807
0.723336 0.638079 0.292617
0.728203 0.639926 0.294463
0.731084 0.641018 0.295556
0.732516 0.641561 0.296099
0.733019 0.641752 0.296290
0.733085 0.641777 0.296315
0.239643 0.615422 0.248373
0.239709 0.615447 0.248398
0.240212 0.615638 0.248589
0.241644 0.616181 0.249132
0.244524 0.617273 0.250224
0.249392 0.619120 0.252071
0.255627 0.620757 0.253708
0.262151 0.620757 0.253708
0.270957 0.620757 0.253708
0.282406 0.620757 0.253708
0.296863 0.620757 0.253708
0.314699 0.620757 0.253708
0.336286 0.620757 0.253708
0.362001 0.620757 0.253708
0.392223 0.620757 0.253708
0.427337 0.620757 0.253708
0.467728 0.620757 0.253708
0.508118 0.620757 0.253708
0.543232 0.620757 0.253708
0.573455 0.620757 0.253708
0.599170 0.620757 0.253708
0.620757 0.620757 0.253708
0.649492 0.631656 0.264607
0.672784 0.640491 0.273442
0.691230 0.647488 0.280439
0.705417 0.652869 0.285820
0.715928 0.656856 0.289807
0.723336 0.659666 0.292617
0.728203 0.661512 0.294463
0.731084 0.662605 0.295556
0.732516 0.663148 0.296099
0.733019 0.663339 0.296290
0.733085 0.663364 0.296315
0.250542 0.644157 0.259272
0.250609 0.644182 0.259297
0.251112 0.644373 0.259488
0.252543 0.644916 0.260031
0.255424 0.646008 0.261124
0.260292 0.647855 0.262970
0.266526 0.649492 0.264607
0.273051 0.649492 0.264607
0.281856 0.649492 0.264607
0.293305 0.649492 0.264607
0.307763 0.649492 0.264607
0.325598 0.649492 0.264607
0.347185 0.649492 0.264607
0.372900 0.649492 0.264607
0.403123 0.649492 0.264607
0.438237 0.649492 0.264607
0.478627 0.649492 0.264607
0.519018 0.649492 0.264607
0.554132 0.649492 0.264607
0.584355 0.649492 0.264607
0.610069 0.649492 0.264607
0.631656 0.649492 0.264607
0.649492 0.649492 0.264607
0.672784 0.658327 0.273442
0.691230 0.665323 0.280439
0.705417 0.670705 0.285820
0.715928 0.674692 0.289807
0.723336 0.677501 0.292617
0.728203 0.679348 0.294463
0.731084 0.680441 0.295556
0.732516 0.680984 0.296099
0.733019 0.681174 0.296290
0.733085 0.681200 0.296315
0.259377 0.667449 0.268107
0.259444 0.667474 0.268132
0.259947 0.667665 0.268323
0.261378 0.668208 0.268866
0.264259 0.669301 0.269959
0.269127 0.671147 0.271805
0.275361 0.672784 0.273442
0.281885 0.672784 0.273442
0.290691 0.672784 0.273442
0.302140 0.672784 0.273442
0.316598 0.672784 0.273442
0.334433 0.672784 0.273442
0.356020 0.672784 0.273442
0.381735 0.672784 0.273442
0.411958 0.672784 0.273442
0.447072 0.672784 0.273442
0.487462 0.672784 0.273442
0.527853 0.672784 0.273442
0.562967 0.672784 0.273442
0.593190 0.672784 0.273442
0.618905 0.672784 0.273442
0.640491 0.672784 0.273442
0.658327 0.672784 0.273442
0.672784 0.672784 0.273442
0.691230 0.679781 0.280439
0.705417 0.685162 0.285820
0.715928 0.689149 0.289807
0.723336 0.691959 0.292617
0.728203 0.693805 0.294463
0.731084 0.694898 0.295556
0.732516 0.695441 0.296099
0.733019 0.695632 0.296290
0.733085 0.695657 0.296315
0.266374 0.685895 0.275104
0.266440 0.685920 0.275129
0.266943 0.686111 0.275320
0.268375 0.686654 0.275863
0.271255 0.687746 0.276955
0.276123 0.689593 0.278802
0.282358 0.691230 0.280439
0.288882 0.691230 0.280439
0.297688 0.691230 0.280439
0.309137 0.691230 0.280439
0.323594 0.691230 0.280439
0.341430 0.691230 0.280439
0.363017 0.691230 0.280439
0.388732 0.691230 0.280439
0.418955 0.691230 0.280439
0.454068 0.691230 0.280439
0.494459 0.691230 0.280439
0.534849 0.691230 0.280439
0.569963 0.691230 0.280439
0.600186 0.691230 0.280439
0.625901 0.691230 0.280439
0.647488 0.691230 0.280439
0.665323 0.691230 0.280439
0.679781 0.691230 0.280439
0.691230 0.691230 0.280439
0.705417 0.696611 0.285820
0.715928 0.700598 0.289807
0.723336 0.703408 0.292617
0.728203 0.705254 0.294463
0.731084 0.706347 0.295556
0.732516 0.706890 0.296099
0.733019 0.707081 0.296290
0.733085 0.707106 0.296315
0.271755 0.700082 0.280485
0.271822 0.700107 0.280511
0.272325 0.700298 0.280701
0.273756 0.700841 0.281244
0.276637 0.701934 0.282337
0.281505 0.703780 0.284183
0.287739 0.705417 0.285820
0.294263 0.705417 0.285820
0.303070 0.705417 0.285820
0.314518 0.705417 0.285820
0.328976 0.705417 0.285820
0.346811 0.705417 0.285820
0.368398 0.705417 0.285820
0.394113 0.705417 0.285820
0.424336 0.705417 0.285820
0.459450 0.705417 0.285820
0.499840 0.705417 0.285820
0.540231 0.705417 0.285820
0.575345 0.705417 0.285820
0.605568 0.705417 0.285820
0.631283 0.705417 0.285820
0.652869 0.705417 0.285820
0.670705 0.705417 0.285820
0.685162 0.705417 0.285820
0.696611 0.705417 0.285820
0.705417 0.705417 0.285820
0.715928 0.709404 0.289807
0.723336 0.712214 0.292617
0.728203 0.714060 0.294463
0.731084 0.715153 0.295556
0.732516 0.715696 0.296099
0.733019 0.715887 0.296290
0.733085 0.715912 0.296315
0.275742 0.710593 0.284472
0.275809 0.710618 0.284497
0.276312 0.710809 0.284688
0.277743 0.711352 0.285231
0.280624 0.712445 0.286324
0.285492 0.714291 0.288170
0.291726 0.715928 0.289807
0.298251 0.715928 0.289807
0.307056 0.715928 0.289807
0.318505 0.715928 0.289807
0.332963 0.715928 0.289807
0.350798 0.715928 0.289807
0.372385 0.715928 0.289807
0.398100 0.715928 0.289807
0.428323 0.715928 0.289807
0.463437 0.715928 0.289807
0.503827 0.715928 0.289807
0.544218 0.715928 0.289807
0.579332 0.715928 0.289807
0.609555 0.715928 0.289807
0.635269 0.715928 0.289807
0.656856 0.715928 0.289807
0.674692 0.715928 0.289807
0.689149 0.715928 0.289807
0.700598 0.715928 0.289807
0.709404 0.715928 0.289807
0.715928 0.715928 0.289807
0.723336 0.718738 0.292617
