crates/agx-e2e/fixtures/looks/luts/nordic_fade.cube
TITLE "nordic_fade"
LUT_3D_SIZE 5
DOMAIN_MIN 0.0 0.0 0.0
DOMAIN_MAX 1.0 1.0 1.0
0.084647 0.074589 0.084647
0.243047 0.114189 0.127221
0.401447 0.153789 0.189391
0.559847 0.193389 0.275186
0.718247 0.232989 0.363253
0.123682 0.222803 0.121701
0.246400 0.225368 0.127600
0.404800 0.241861 0.167200
0.563200 0.235772 0.206800
0.721600 0.246400 0.263629
0.182598 0.381122 0.161280
0.301398 0.381122 0.161280
0.404800 0.360601 0.167200
0.563200 0.354511 0.206800
0.721600 0.347910 0.246400
0.268705 0.545341 0.202335
0.387505 0.545341 0.202335
0.506305 0.545341 0.202335
0.563200 0.477675 0.206800
0.721600 0.471074 0.246400
0.361009 0.713818 0.244454
0.479809 0.713818 0.244454
0.598609 0.713818 0.244454
0.713818 0.710226 0.244454
0.721600 0.597432 0.246400
0.121273 0.114189 0.243047
0.240073 0.114189 0.243047
0.401447 0.153789 0.308191
0.559847 0.193389 0.393986
0.718247 0.232989 0.482053
0.127600 0.232036 0.246400
0.278384 0.262403 0.280101
0.438501 0.302003 0.345707
0.596901 0.341603 0.422199
0.755301 0.381203 0.485866
0.161280 0.381122 0.258763
0.338927 0.420722 0.319680
0.444400 0.402598 0.325600
0.602800 0.407076 0.365200
0.761200 0.425877 0.404800
0.202335 0.545341 0.254765
0.416151 0.584941 0.360735
0.534951 0.584941 0.360735
0.602800 0.530240 0.365200
0.761200 0.549041 0.404800
0.244454 0.713818 0.246700
0.482500 0.753418 0.402854
0.601300 0.753418 0.402854
0.720100 0.753418 0.402854
0.761200 0.675398 0.404800
0.153789 0.169274 0.401447
0.257104 0.153789 0.401447
0.375904 0.153789 0.401447
0.559847 0.193389 0.512786
0.718247 0.232989 0.600853
0.167200 0.294743 0.404800
0.302003 0.310311 0.438501
0.412495 0.302003 0.438501
0.596901 0.341603 0.540999
0.755301 0.381203 0.604666
0.167200 0.404800 0.396118
0.325600 0.444400 0.438115
0.473705 0.460322 0.478080
0.636480 0.499922 0.549429
0.794881 0.539522 0.597332
0.202335 0.545341 0.373565
0.360735 0.584941 0.424119
0.543445 0.624541 0.519135
0.642400 0.602351 0.523600
0.800800 0.634721 0.563200
0.244454 0.713818 0.365500
0.402854 0.753418 0.442009
0.595399 0.793018 0.561254
0.714199 0.793018 0.561254
0.800800 0.761079 0.563200
0.193389 0.255069 0.559847
0.250509 0.193389 0.559847
0.369309 0.193389 0.559847
0.488109 0.193389 0.559847
0.716841 0.232989 0.718247
0.206800 0.380033 0.563200
0.341603 0.386803 0.596901
0.415202 0.341603 0.596901
0.534002 0.341603 0.596901
0.755301 0.381203 0.723466
0.206800 0.498772 0.563200
0.365200 0.525407 0.602800
0.499922 0.513912 0.636480
0.604732 0.499922 0.636480
0.794881 0.539522 0.716132
0.206800 0.563200 0.504464
0.365200 0.602800 0.557028
0.523600 0.642400 0.629139
0.675481 0.664141 0.677535
0.835935 0.703741 0.725044
0.244454 0.713818 0.484299
0.402854 0.753418 0.560809
0.561254 0.793018 0.645910
0.725825 0.832618 0.719654
0.840400 0.828536 0.721600
0.232989 0.343136 0.718247
0.241641 0.232989 0.718247
0.360441 0.232989 0.718247
0.479242 0.232989 0.718247
0.598041 0.232989 0.718247
0.246400 0.465834 0.721600
0.381203 0.450471 0.755301
0.430736 0.381203 0.755301
0.549536 0.381203 0.755301
0.668336 0.381203 0.755301
0.246400 0.584573 0.721600
0.404800 0.585806 0.761200
0.539522 0.561815 0.794881
0.636029 0.539522 0.794881
0.754829 0.539522 0.794881
0.246400 0.707737 0.721600
0.404800 0.708971 0.761200
0.563200 0.702491 0.800800
0.709227 0.703741 0.835935
0.828027 0.703741 0.835935
0.246400 0.721600 0.609105
0.404800 0.761200 0.687072
0.563200 0.800800 0.772752
0.721600 0.840400 0.840209
0.878041 0.872218 0.878054
