crates/agx-e2e/fixtures/looks/luts/nordic_fade.cube
TITLE "nordic_fade"
LUT_3D_SIZE 33
DOMAIN_MIN 0.0 0.0 0.0
DOMAIN_MAX 1.0 1.0 1.0
0.084647 0.074589 0.084647
0.104447 0.079539 0.089597
0.124247 0.084489 0.094550
0.144047 0.089439 0.099556
0.163847 0.094389 0.104673
0.183647 0.099339 0.109952
0.203447 0.104289 0.115440
0.223247 0.109239 0.121183
0.243047 0.114189 0.127221
0.262847 0.119139 0.133593
0.282647 0.124089 0.140328
0.302447 0.129039 0.147453
0.322247 0.133989 0.154989
0.342047 0.138939 0.162947
0.361847 0.143889 0.171335
0.381647 0.148839 0.180152
0.401447 0.153789 0.189391
0.421247 0.158739 0.199034
0.441047 0.163689 0.209062
0.460847 0.168639 0.219443
0.480647 0.173589 0.230143
0.500447 0.178539 0.241118
0.520247 0.183489 0.252320
0.540047 0.188439 0.263695
0.559847 0.193389 0.275186
0.579647 0.198339 0.286728
0.599447 0.203289 0.298257
0.619247 0.208239 0.309704
0.639047 0.213189 0.320998
0.658847 0.218139 0.332070
0.678647 0.223089 0.342849
0.698447 0.228039 0.353266
0.718247 0.232989 0.363253
0.089052 0.092207 0.089052
0.107800 0.096106 0.092950
0.127600 0.101037 0.097900
0.147400 0.105897 0.102850
0.167200 0.110636 0.107800
0.187000 0.115203 0.112750
0.206800 0.119551 0.117700
0.226600 0.123637 0.122650
0.246400 0.127600 0.127778
0.266200 0.132550 0.134230
0.286000 0.137500 0.141047
0.305800 0.142450 0.148253
0.325600 0.147400 0.155865
0.345400 0.152350 0.163895
0.365200 0.157300 0.172344
0.385000 0.162250 0.181212
0.404800 0.167200 0.190485
0.424600 0.172150 0.200148
0.444400 0.177100 0.210175
0.464200 0.182050 0.220534
0.484000 0.187000 0.231187
0.503800 0.191950 0.242090
0.523600 0.196900 0.253193
0.543400 0.201850 0.264441
0.563200 0.206800 0.275775
0.583000 0.211750 0.287132
0.602800 0.216700 0.298444
0.622600 0.221650 0.309647
0.642400 0.226600 0.320668
0.662200 0.231550 0.331439
0.682000 0.236500 0.341892
0.701800 0.241450 0.351959
0.721600 0.246400 0.361576
0.093542 0.110168 0.093542
0.108392 0.110168 0.093542
0.127600 0.114508 0.097900
0.147400 0.119368 0.102850
0.167200 0.124107 0.107800
0.187000 0.128673 0.112750
0.206800 0.133021 0.117700
0.226600 0.137108 0.122650
0.246400 0.140892 0.127600
0.266200 0.144341 0.132550
0.286000 0.147424 0.137500
0.305800 0.150118 0.142450
0.325600 0.152406 0.147400
0.345400 0.154276 0.152350
0.365200 0.157300 0.158874
0.385000 0.162250 0.167741
0.404800 0.167200 0.177015
0.424600 0.172150 0.186677
0.444400 0.177100 0.196704
0.464200 0.182050 0.207063
0.484000 0.187000 0.217716
0.503800 0.191950 0.228619
0.523600 0.196900 0.239722
0.543400 0.201850 0.250971
0.563200 0.206800 0.262304
0.583000 0.211750 0.273661
0.602800 0.216700 0.284974
0.622600 0.221650 0.296175
0.642400 0.226600 0.307197
0.662200 0.231550 0.317968
0.682000 0.236500 0.328421
0.701800 0.241450 0.338488
0.721600 0.246400 0.348105
0.098124 0.128414 0.098104
0.112974 0.128414 0.098104
0.127824 0.128414 0.098104
0.147400 0.133053 0.102850
0.167200 0.137791 0.107800
0.187000 0.142358 0.112750
0.206800 0.146706 0.117700
0.226600 0.150792 0.122650
0.246400 0.154577 0.127600
0.266200 0.158025 0.132550
0.286000 0.161108 0.137500
0.305800 0.163802 0.142450
0.325600 0.166090 0.147400
0.345400 0.167961 0.152350
0.365200 0.169411 0.157300
0.385000 0.170443 0.162250
0.404800 0.171070 0.167200
0.424600 0.172150 0.172993
0.444400 0.177100 0.183020
0.464200 0.182050 0.193379
0.484000 0.187000 0.204032
0.503800 0.191950 0.214935
0.523600 0.196900 0.226038
0.543400 0.201850 0.237286
0.563200 0.206800 0.248620
0.583000 0.211750 0.259976
0.602800 0.216700 0.271290
0.622600 0.221650 0.282491
0.642400 0.226600 0.293512
0.662200 0.231550 0.304284
0.682000 0.236500 0.314737
0.701800 0.241450 0.324804
0.721600 0.246400 0.334421
0.102831 0.146904 0.102726
0.117681 0.146904 0.102726
0.132531 0.146904 0.102726
0.147400 0.146920 0.102850
0.167200 0.151659 0.107800
0.187000 0.156225 0.112750
0.206800 0.160574 0.117700
0.226600 0.164660 0.122650
0.246400 0.168444 0.127600
0.266200 0.171893 0.132550
0.286000 0.174976 0.137500
0.305800 0.177670 0.142450
0.325600 0.179958 0.147400
0.345400 0.181828 0.152350
0.365200 0.183278 0.157300
0.385000 0.184311 0.162250
0.404800 0.184937 0.167200
0.424600 0.185175 0.172150
0.444400 0.185048 0.177100
0.464200 0.184589 0.182050
0.484000 0.187000 0.190164
0.503800 0.191950 0.201067
0.523600 0.196900 0.212170
0.543400 0.201850 0.223418
0.563200 0.206800 0.234752
0.583000 0.211750 0.246109
0.602800 0.216700 0.257422
0.622600 0.221650 0.268623
0.642400 0.226600 0.279645
0.662200 0.231550 0.290416
0.682000 0.236500 0.300869
0.701800 0.241450 0.310937
0.721600 0.246400 0.320554
0.107699 0.165609 0.107402
0.122549 0.165609 0.107402
0.137399 0.165609 0.107402
0.152249 0.165609 0.107402
0.167200 0.165687 0.107800
0.187000 0.170254 0.112750
0.206800 0.174602 0.117700
0.226600 0.178688 0.122650
0.246400 0.182473 0.127600
0.266200 0.185922 0.132550
0.286000 0.189005 0.137500
0.305800 0.191699 0.142450
0.325600 0.193986 0.147400
0.345400 0.195857 0.152350
0.365200 0.197307 0.157300
0.385000 0.198340 0.162250
0.404800 0.198966 0.167200
0.424600 0.199204 0.172150
0.444400 0.199077 0.177100
0.464200 0.198618 0.182050
0.484000 0.197865 0.187000
0.503800 0.196861 0.191950
0.523600 0.196900 0.198142
0.543400 0.201850 0.209390
0.563200 0.206800 0.220723
0.583000 0.211750 0.232080
0.602800 0.216700 0.243393
0.622600 0.221650 0.254595
0.642400 0.226600 0.265616
0.662200 0.231550 0.276387
0.682000 0.236500 0.286840
0.701800 0.241450 0.296907
0.721600 0.246400 0.306525
0.112770 0.184506 0.112126
0.127620 0.184506 0.112126
0.142470 0.184506 0.112126
0.157320 0.184506 0.112126
0.172170 0.184506 0.112126
0.187000 0.184426 0.112750
0.206800 0.188775 0.117700
0.226600 0.192861 0.122650
0.246400 0.196646 0.127600
0.266200 0.200094 0.132550
0.286000 0.203177 0.137500
0.305800 0.205871 0.142450
0.325600 0.208159 0.147400
0.345400 0.210029 0.152350
0.365200 0.211479 0.157300
0.385000 0.212512 0.162250
0.404800 0.213139 0.167200
0.424600 0.213376 0.172150
0.444400 0.213249 0.177100
0.464200 0.212790 0.182050
0.484000 0.212037 0.187000
0.503800 0.211034 0.191950
0.523600 0.209831 0.196900
0.543400 0.208483 0.201850
0.563200 0.207049 0.206800
0.583000 0.211750 0.217908
0.602800 0.216700 0.229221
0.622600 0.221650 0.240422
0.642400 0.226600 0.251444
0.662200 0.231550 0.262215
0.682000 0.236500 0.272668
0.701800 0.241450 0.282735
0.721600 0.246400 0.292352
0.118084 0.203575 0.116894
0.132934 0.203575 0.116894
0.147784 0.203575 0.116894
0.162634 0.203575 0.116894
0.177484 0.203575 0.116894
0.192334 0.203575 0.116894
0.206800 0.203077 0.117700
0.226600 0.207163 0.122650
0.246400 0.210948 0.127600
0.266200 0.214396 0.132550
0.286000 0.217479 0.137500
0.305800 0.220173 0.142450
0.325600 0.222461 0.147400
0.345400 0.224332 0.152350
0.365200 0.225782 0.157300
0.385000 0.226814 0.162250
0.404800 0.227441 0.167200
0.424600 0.227678 0.172150
0.444400 0.227551 0.177100
0.464200 0.227092 0.182050
0.484000 0.226339 0.187000
0.503800 0.225336 0.191950
0.523600 0.224133 0.196900
0.543400 0.222785 0.201850
0.563200 0.221351 0.206800
0.583000 0.219895 0.211750
0.602800 0.218482 0.216700
0.622600 0.221650 0.226120
0.642400 0.226600 0.237141
0.662200 0.231550 0.247913
0.682000 0.236500 0.258366
0.701800 0.241450 0.268433
0.721600 0.246400 0.278050
0.123682 0.222803 0.121701
0.138531 0.222803 0.121701
0.153381 0.222803 0.121701
0.168232 0.222803 0.121701
0.183081 0.222803 0.121701
0.197931 0.222803 0.121701
0.212781 0.222803 0.121701
0.226600 0.221584 0.122650
0.246400 0.225368 0.127600
0.266200 0.228817 0.132550
0.286000 0.231900 0.137500
0.305800 0.234594 0.142450
0.325600 0.236881 0.147400
0.345400 0.238752 0.152350
0.365200 0.240202 0.157300
0.385000 0.241235 0.162250
0.404800 0.241861 0.167200
0.424600 0.242099 0.172150
0.444400 0.241972 0.177100
0.464200 0.241513 0.182050
0.484000 0.240760 0.187000
0.503800 0.239757 0.191950
0.523600 0.238553 0.196900
0.543400 0.237205 0.201850
0.563200 0.235772 0.206800
0.583000 0.234315 0.211750
0.602800 0.232902 0.216700
0.622600 0.231600 0.221650
0.642400 0.230479 0.226600
0.662200 0.231550 0.233492
0.682000 0.236500 0.243945
0.701800 0.241450 0.254012
0.721600 0.246400 0.263629
0.129602 0.242176 0.126544
0.144452 0.242176 0.126544
0.159302 0.242176 0.126544
0.174152 0.242176 0.126544
0.189002 0.242176 0.126544
0.203852 0.242176 0.126544
0.218702 0.242176 0.126544
0.233552 0.242176 0.126544
0.246400 0.239898 0.127600
0.266200 0.243347 0.132550
0.286000 0.246430 0.137500
0.305800 0.249124 0.142450
0.325600 0.251411 0.147400
0.345400 0.253282 0.152350
0.365200 0.254732 0.157300
0.385000 0.255765 0.162250
0.404800 0.256391 0.167200
0.424600 0.256628 0.172150
0.444400 0.256502 0.177100
0.464200 0.256043 0.182050
0.484000 0.255289 0.187000
0.503800 0.254286 0.191950
0.523600 0.253083 0.196900
0.543400 0.251735 0.201850
0.563200 0.250301 0.206800
0.583000 0.248845 0.211750
0.602800 0.247432 0.216700
0.622600 0.246130 0.221650
0.642400 0.245009 0.226600
0.662200 0.244138 0.231550
0.682000 0.243585 0.236500
0.701800 0.243417 0.241450
0.721600 0.246400 0.249100
0.135883 0.261683 0.131421
0.150732 0.261683 0.131421
0.165582 0.261683 0.131421
0.180432 0.261683 0.131421
0.195283 0.261683 0.131421
0.210132 0.261683 0.131421
0.224982 0.261683 0.131421
0.239832 0.261683 0.131421
0.254682 0.261683 0.131421
0.266200 0.257977 0.132550
0.286000 0.261060 0.137500
0.305800 0.263754 0.142450
0.325600 0.266042 0.147400
0.345400 0.267913 0.152350
0.365200 0.269363 0.157300
0.385000 0.270395 0.162250
0.404800 0.271022 0.167200
0.424600 0.271259 0.172150
0.444400 0.271132 0.177100
0.464200 0.270673 0.182050
0.484000 0.269920 0.187000
0.503800 0.268917 0.191950
0.523600 0.267714 0.196900
0.543400 0.266366 0.201850
0.563200 0.264932 0.206800
0.583000 0.263476 0.211750
0.602800 0.262063 0.216700
0.622600 0.260761 0.221650
0.642400 0.259640 0.226600
0.662200 0.258768 0.231550
0.682000 0.258215 0.236500
0.701800 0.258048 0.241450
0.721600 0.258331 0.246400
0.142556 0.281317 0.136329
0.157406 0.281317 0.136329
0.172256 0.281317 0.136329
0.187106 0.281317 0.136329
0.201956 0.281317 0.136329
0.216806 0.281317 0.136329
0.231656 0.281317 0.136329
0.246506 0.281317 0.136329
0.261356 0.281317 0.136329
0.276206 0.281317 0.136329
0.286000 0.275785 0.137500
0.305800 0.278479 0.142450
0.325600 0.280767 0.147400
0.345400 0.282638 0.152350
0.365200 0.284088 0.157300
0.385000 0.285120 0.162250
0.404800 0.285747 0.167200
0.424600 0.285984 0.172150
0.444400 0.285857 0.177100
0.464200 0.285398 0.182050
0.484000 0.284645 0.187000
0.503800 0.283642 0.191950
0.523600 0.282439 0.196900
0.543400 0.281091 0.201850
0.563200 0.279657 0.206800
0.583000 0.278201 0.211750
0.602800 0.276788 0.216700
0.622600 0.275486 0.221650
0.642400 0.274365 0.226600
0.662200 0.273493 0.231550
0.682000 0.272940 0.236500
0.701800 0.272773 0.241450
0.721600 0.273056 0.246400
0.149650 0.301068 0.141267
0.164500 0.301068 0.141267
0.179350 0.301068 0.141267
0.194200 0.301068 0.141267
0.209050 0.301068 0.141267
0.223900 0.301068 0.141267
0.238750 0.301068 0.141267
0.253600 0.301068 0.141267
0.268450 0.301068 0.141267
0.283300 0.301068 0.141267
0.298150 0.301068 0.141267
0.305800 0.293293 0.142450
0.325600 0.295580 0.147400
0.345400 0.297451 0.152350
0.365200 0.298901 0.157300
0.385000 0.299934 0.162250
0.404800 0.300560 0.167200
0.424600 0.300797 0.172150
0.444400 0.300671 0.177100
0.464200 0.300212 0.182050
0.484000 0.299458 0.187000
0.503800 0.298455 0.191950
0.523600 0.297252 0.196900
0.543400 0.295904 0.201850
0.563200 0.294470 0.206800
0.583000 0.293014 0.211750
0.602800 0.291601 0.216700
0.622600 0.290299 0.221650
0.642400 0.289178 0.226600
0.662200 0.288307 0.231550
0.682000 0.287754 0.236500
0.701800 0.287586 0.241450
0.721600 0.287869 0.246400
0.157188 0.320930 0.146232
0.172038 0.320930 0.146232
0.186888 0.320930 0.146232
0.201738 0.320930 0.146232
0.216588 0.320930 0.146232
0.231438 0.320930 0.146232
0.246288 0.320930 0.146232
0.261138 0.320930 0.146232
0.275988 0.320930 0.146232
0.290838 0.320930 0.146232
0.305688 0.320930 0.146232
0.320538 0.320930 0.146232
0.325600 0.310477 0.147400
0.345400 0.312347 0.152350
0.365200 0.313797 0.157300
0.385000 0.314830 0.162250
0.404800 0.315456 0.167200
0.424600 0.315694 0.172150
0.444400 0.315567 0.177100
0.464200 0.315108 0.182050
0.484000 0.314355 0.187000
0.503800 0.313352 0.191950
0.523600 0.312149 0.196900
0.543400 0.310800 0.201850
0.563200 0.309367 0.206800
0.583000 0.307910 0.211750
0.602800 0.306497 0.216700
0.622600 0.305196 0.221650
0.642400 0.304074 0.226600
0.662200 0.303203 0.231550
0.682000 0.302650 0.236500
0.701800 0.302483 0.241450
0.721600 0.302766 0.246400
0.165187 0.340896 0.151224
0.180037 0.340896 0.151224
0.194887 0.340896 0.151224
0.209737 0.340896 0.151224
0.224587 0.340896 0.151224
0.239437 0.340896 0.151224
0.254287 0.340896 0.151224
0.269137 0.340896 0.151224
0.283987 0.340896 0.151224
0.298837 0.340896 0.151224
0.313687 0.340896 0.151224
0.328537 0.340896 0.151224
0.340896 0.338406 0.151224
0.345400 0.327322 0.152350
0.365200 0.328772 0.157300
0.385000 0.329805 0.162250
0.404800 0.330431 0.167200
0.424600 0.330669 0.172150
0.444400 0.330542 0.177100
0.464200 0.330083 0.182050
0.484000 0.329330 0.187000
0.503800 0.328327 0.191950
0.523600 0.327123 0.196900
0.543400 0.325775 0.201850
0.563200 0.324342 0.206800
0.583000 0.322885 0.211750
0.602800 0.321472 0.216700
0.622600 0.320171 0.221650
0.642400 0.319049 0.226600
0.662200 0.318178 0.231550
0.682000 0.317625 0.236500
0.701800 0.317458 0.241450
0.721600 0.317741 0.246400
0.173656 0.360962 0.156240
0.188506 0.360962 0.156240
0.203356 0.360962 0.156240
0.218206 0.360962 0.156240
0.233056 0.360962 0.156240
0.247906 0.360962 0.156240
0.262756 0.360962 0.156240
0.277606 0.360962 0.156240
0.292456 0.360962 0.156240
0.307306 0.360962 0.156240
0.322156 0.360962 0.156240
0.337006 0.360962 0.156240
0.351856 0.360962 0.156240
0.360962 0.355218 0.156240
0.365200 0.343822 0.157300
0.385000 0.344854 0.162250
0.404800 0.345481 0.167200
0.424600 0.345718 0.172150
0.444400 0.345591 0.177100
0.464200 0.345132 0.182050
0.484000 0.344379 0.187000
0.503800 0.343376 0.191950
0.523600 0.342173 0.196900
0.543400 0.340825 0.201850
0.563200 0.339391 0.206800
0.583000 0.337934 0.211750
0.602800 0.336521 0.216700
0.622600 0.335220 0.221650
0.642400 0.334099 0.226600
0.662200 0.333227 0.231550
0.682000 0.332674 0.236500
0.701800 0.332507 0.241450
0.721600 0.332790 0.246400
0.182598 0.381122 0.161280
0.197448 0.381122 0.161280
0.212298 0.381122 0.161280
0.227148 0.381122 0.161280
0.241998 0.381122 0.161280
0.256848 0.381122 0.161280
0.271698 0.381122 0.161280
0.286548 0.381122 0.161280
0.301398 0.381122 0.161280
0.316248 0.381122 0.161280
0.331098 0.381122 0.161280
0.345948 0.381122 0.161280
0.360798 0.381122 0.161280
0.375648 0.381122 0.161280
0.381122 0.371746 0.161280
0.385000 0.359974 0.162250
0.404800 0.360601 0.167200
0.424600 0.360838 0.172150
0.444400 0.360711 0.177100
0.464200 0.360252 0.182050
0.484000 0.359499 0.187000
0.503800 0.358496 0.191950
0.523600 0.357293 0.196900
0.543400 0.355945 0.201850
0.563200 0.354511 0.206800
0.583000 0.353054 0.211750
0.602800 0.351641 0.216700
0.622600 0.350340 0.221650
0.642400 0.349219 0.226600
0.662200 0.348347 0.231550
0.682000 0.347794 0.236500
0.701800 0.347627 0.241450
0.721600 0.347910 0.246400
0.192007 0.401372 0.166343
0.206857 0.401372 0.166343
0.221707 0.401372 0.166343
0.236557 0.401372 0.166343
0.251407 0.401372 0.166343
0.266257 0.401372 0.166343
0.281107 0.401372 0.166343
0.295957 0.401372 0.166343
0.310807 0.401372 0.166343
0.325657 0.401372 0.166343
0.340507 0.401372 0.166343
0.355357 0.401372 0.166343
0.370207 0.401372 0.166343
0.385057 0.401372 0.166343
0.399907 0.401372 0.166343
0.401372 0.387987 0.166343
0.404800 0.375788 0.167200
0.424600 0.376025 0.172150
0.444400 0.375899 0.177100
0.464200 0.375440 0.182050
0.484000 0.374686 0.187000
0.503800 0.373683 0.191950
0.523600 0.372480 0.196900
0.543400 0.371132 0.201850
0.563200 0.369698 0.206800
0.583000 0.368242 0.211750
0.602800 0.366829 0.216700
0.622600 0.365527 0.221650
0.642400 0.364406 0.226600
0.662200 0.363535 0.231550
0.682000 0.362982 0.236500
0.701800 0.362814 0.241450
0.721600 0.363097 0.246400
0.201869 0.421708 0.171427
0.216719 0.421708 0.171427
0.231569 0.421708 0.171427
0.246419 0.421708 0.171427
0.261269 0.421708 0.171427
0.276119 0.421708 0.171427
0.290969 0.421708 0.171427
0.305819 0.421708 0.171427
0.320669 0.421708 0.171427
0.335519 0.421708 0.171427
0.350369 0.421708 0.171427
0.365219 0.421708 0.171427
0.380069 0.421708 0.171427
0.394919 0.421708 0.171427
0.409769 0.421708 0.171427
0.421708 0.418797 0.171427
0.421708 0.403947 0.171427
0.424600 0.391277 0.172150
0.444400 0.391150 0.177100
0.464200 0.390691 0.182050
0.484000 0.389938 0.187000
0.503800 0.388935 0.191950
0.523600 0.387732 0.196900
0.543400 0.386384 0.201850
0.563200 0.384950 0.206800
0.583000 0.383494 0.211750
0.602800 0.382081 0.216700
0.622600 0.380779 0.221650
0.642400 0.379658 0.226600
0.662200 0.378786 0.231550
0.682000 0.378234 0.236500
0.701800 0.378066 0.241450
0.721600 0.378349 0.246400
0.212161 0.442126 0.176531
0.227011 0.442126 0.176531
0.241861 0.442126 0.176531
0.256711 0.442126 0.176531
0.271561 0.442126 0.176531
0.286411 0.442126 0.176531
0.301261 0.442126 0.176531
0.316111 0.442126 0.176531
0.330961 0.442126 0.176531
0.345811 0.442126 0.176531
0.360661 0.442126 0.176531
0.375511 0.442126 0.176531
0.390361 0.442126 0.176531
0.405211 0.442126 0.176531
0.420061 0.442126 0.176531
0.434911 0.442126 0.176531
0.442126 0.434490 0.176531
0.442126 0.419640 0.176531
0.444400 0.406464 0.177100
0.464200 0.406005 0.182050
0.484000 0.405252 0.187000
0.503800 0.404249 0.191950
0.523600 0.403045 0.196900
0.543400 0.401697 0.201850
0.563200 0.400264 0.206800
0.583000 0.398807 0.211750
0.602800 0.397394 0.216700
0.622600 0.396093 0.221650
0.642400 0.394971 0.226600
0.662200 0.394100 0.231550
0.682000 0.393547 0.236500
0.701800 0.393380 0.241450
0.721600 0.393663 0.246400
0.222853 0.462622 0.181656
0.237703 0.462622 0.181656
0.252553 0.462622 0.181656
0.267403 0.462622 0.181656
0.282253 0.462622 0.181656
0.297103 0.462622 0.181656
0.311953 0.462622 0.181656
0.326803 0.462622 0.181656
0.341653 0.462622 0.181656
0.356503 0.462622 0.181656
0.371353 0.462622 0.181656
0.386203 0.462622 0.181656
0.401052 0.462622 0.181656
0.415903 0.462622 0.181656
0.430753 0.462622 0.181656
0.445603 0.462622 0.181656
0.460453 0.462622 0.181656
0.462622 0.449942 0.181656
0.462622 0.435092 0.181656
0.464200 0.421378 0.182050
0.484000 0.420624 0.187000
0.503800 0.419621 0.191950
0.523600 0.418418 0.196900
0.543400 0.417070 0.201850
0.563200 0.415636 0.206800
0.583000 0.414180 0.211750
0.602800 0.412767 0.216700
0.622600 0.411465 0.221650
0.642400 0.410344 0.226600
0.662200 0.409473 0.231550
0.682000 0.408920 0.236500
0.701800 0.408752 0.241450
0.721600 0.409035 0.246400
0.233904 0.483195 0.186799
0.248754 0.483195 0.186799
0.263604 0.483195 0.186799
0.278454 0.483195 0.186799
0.293304 0.483195 0.186799
0.308154 0.483195 0.186799
0.323004 0.483195 0.186799
0.337854 0.483195 0.186799
0.352704 0.483195 0.186799
0.367554 0.483195 0.186799
0.382404 0.483195 0.186799
0.397254 0.483195 0.186799
0.412104 0.483195 0.186799
0.426954 0.483195 0.186799
0.441804 0.483195 0.186799
0.456654 0.483195 0.186799
0.471504 0.483195 0.186799
0.483195 0.480036 0.186799
0.483195 0.465186 0.186799
0.483195 0.450336 0.186799
0.484000 0.436054 0.187000
0.503800 0.435051 0.191950
0.523600 0.433848 0.196900
0.543400 0.432499 0.201850
0.563200 0.431066 0.206800
0.583000 0.429609 0.211750
0.602800 0.428196 0.216700
0.622600 0.426895 0.221650
0.642400 0.425773 0.226600
0.662200 0.424902 0.231550
0.682000 0.424349 0.236500
0.701800 0.424182 0.241450
0.721600 0.424465 0.246400
0.245268 0.503841 0.191960
0.260118 0.503841 0.191960
0.274968 0.503841 0.191960
0.289818 0.503841 0.191960
0.304668 0.503841 0.191960
0.319518 0.503841 0.191960
0.334368 0.503841 0.191960
0.349218 0.503841 0.191960
0.364068 0.503841 0.191960
0.378918 0.503841 0.191960
0.393768 0.503841 0.191960
0.408618 0.503841 0.191960
0.423468 0.503841 0.191960
0.438318 0.503841 0.191960
0.453168 0.503841 0.191960
0.468018 0.503841 0.191960
0.482868 0.503841 0.191960
0.497718 0.503841 0.191960
0.503841 0.495113 0.191960
0.503841 0.480263 0.191960
0.503841 0.465413 0.191960
0.503841 0.450563 0.191960
0.523600 0.449332 0.196900
0.543400 0.447984 0.201850
0.563200 0.446550 0.206800
0.583000 0.445094 0.211750
0.602800 0.443681 0.216700
0.622600 0.442379 0.221650
0.642400 0.441258 0.226600
0.662200 0.440386 0.231550
0.682000 0.439833 0.236500
0.701800 0.439666 0.241450
0.721600 0.439949 0.246400
0.256889 0.524557 0.197139
0.271740 0.524557 0.197139
0.286590 0.524557 0.197139
0.301440 0.524557 0.197139
0.316289 0.524557 0.197139
0.331140 0.524557 0.197139
0.345990 0.524557 0.197139
0.360840 0.524557 0.197139
0.375689 0.524557 0.197139
0.390539 0.524557 0.197139
0.405390 0.524557 0.197139
0.420239 0.524557 0.197139
0.435090 0.524557 0.197139
0.449939 0.524557 0.197139
0.464790 0.524557 0.197139
0.479639 0.524557 0.197139
0.494489 0.524557 0.197139
0.509339 0.524557 0.197139
0.524189 0.524557 0.197139
0.524557 0.510074 0.197139
0.524557 0.495224 0.197139
0.524557 0.480374 0.197139
0.524557 0.465524 0.197139
0.543400 0.463521 0.201850
0.563200 0.462087 0.206800
0.583000 0.460631 0.211750
0.602800 0.459218 0.216700
0.622600 0.457916 0.221650
0.642400 0.456795 0.226600
0.662200 0.455923 0.231550
0.682000 0.455371 0.236500
0.701800 0.455203 0.241450
0.721600 0.455486 0.246400
0.268705 0.545341 0.202335
0.283555 0.545341 0.202335
0.298405 0.545341 0.202335
0.313255 0.545341 0.202335
0.328105 0.545341 0.202335
0.342955 0.545341 0.202335
0.357805 0.545341 0.202335
0.372655 0.545341 0.202335
0.387505 0.545341 0.202335
0.402355 0.545341 0.202335
0.417205 0.545341 0.202335
0.432055 0.545341 0.202335
0.446905 0.545341 0.202335
0.461755 0.545341 0.202335
0.476605 0.545341 0.202335
0.491455 0.545341 0.202335
0.506305 0.545341 0.202335
0.521155 0.545341 0.202335
0.536005 0.545341 0.202335
0.545341 0.539827 0.202335
0.545341 0.524977 0.202335
0.545341 0.510127 0.202335
0.545341 0.495277 0.202335
0.545341 0.480427 0.202335
0.563200 0.477675 0.206800
0.583000 0.476219 0.211750
0.602800 0.474806 0.216700
0.622600 0.473504 0.221650
0.642400 0.472383 0.226600
0.662200 0.471511 0.231550
0.682000 0.470959 0.236500
0.701800 0.470791 0.241450
0.721600 0.471074 0.246400
0.280646 0.566191 0.207548
0.295496 0.566191 0.207548
0.310346 0.566191 0.207548
0.325196 0.566191 0.207548
0.340046 0.566191 0.207548
0.354896 0.566191 0.207548
0.369746 0.566191 0.207548
0.384596 0.566191 0.207548
0.399446 0.566191 0.207548
0.414296 0.566191 0.207548
0.429146 0.566191 0.207548
0.443996 0.566191 0.207548
0.458846 0.566191 0.207548
0.473696 0.566191 0.207548
0.488546 0.566191 0.207548
0.503396 0.566191 0.207548
0.518246 0.566191 0.207548
0.533096 0.566191 0.207548
0.547946 0.566191 0.207548
0.562796 0.566191 0.207548
0.566191 0.554735 0.207548
0.566191 0.539886 0.207548
0.566191 0.525036 0.207548
0.566191 0.510185 0.207548
0.566191 0.495335 0.207548
0.583000 0.491856 0.211750
0.602800 0.490443 0.216700
0.622600 0.489141 0.221650
0.642400 0.488020 0.226600
0.662200 0.487149 0.231550
0.682000 0.486596 0.236500
0.701800 0.486429 0.241450
0.721600 0.486712 0.246400
0.292638 0.587104 0.212776
0.307488 0.587104 0.212776
0.322338 0.587104 0.212776
0.337188 0.587104 0.212776
0.352038 0.587104 0.212776
0.366888 0.587104 0.212776
0.381738 0.587104 0.212776
0.396588 0.587104 0.212776
0.411438 0.587104 0.212776
0.426288 0.587104 0.212776
0.441138 0.587104 0.212776
0.455988 0.587104 0.212776
0.470838 0.587104 0.212776
0.485688 0.587104 0.212776
0.500538 0.587104 0.212776
0.515388 0.587104 0.212776
0.530238 0.587104 0.212776
0.545088 0.587104 0.212776
0.559938 0.587104 0.212776
0.574788 0.587104 0.212776
0.587104 0.584571 0.212776
0.587104 0.569721 0.212776
0.587104 0.554871 0.212776
0.587104 0.540021 0.212776
0.587104 0.525171 0.212776
0.587104 0.510321 0.212776
0.602800 0.506128 0.216700
