crates/agx-e2e/fixtures/looks/luts/nordic_fade.cube
TITLE "nordic_fade"
LUT_3D_SIZE 9
DOMAIN_MIN 0.0 0.0 0.0
DOMAIN_MAX 1.0 1.0 1.0
0.084647 0.074589 0.084647
0.163847 0.094389 0.104673
0.243047 0.114189 0.127221
0.322247 0.133989 0.154989
0.401447 0.153789 0.189391
0.480647 0.173589 0.230143
0.559847 0.193389 0.275186
0.639047 0.213189 0.320998
0.718247 0.232989 0.363253
0.102831 0.146904 0.102726
0.167200 0.151659 0.107800
0.246400 0.168444 0.127600
0.325600 0.179958 0.147400
0.404800 0.184937 0.167200
0.484000 0.187000 0.190164
0.563200 0.206800 0.234752
0.642400 0.226600 0.279645
0.721600 0.246400 0.320554
0.123682 0.222803 0.121701
0.183081 0.222803 0.121701
0.246400 0.225368 0.127600
0.325600 0.236881 0.147400
0.404800 0.241861 0.167200
0.484000 0.240760 0.187000
0.563200 0.235772 0.206800
0.642400 0.230479 0.226600
0.721600 0.246400 0.263629
0.149650 0.301068 0.141267
0.209050 0.301068 0.141267
0.268450 0.301068 0.141267
0.325600 0.295580 0.147400
0.404800 0.300560 0.167200
0.484000 0.299458 0.187000
0.563200 0.294470 0.206800
0.642400 0.289178 0.226600
0.721600 0.287869 0.246400
0.182598 0.381122 0.161280
0.241998 0.381122 0.161280
0.301398 0.381122 0.161280
0.360798 0.381122 0.161280
0.404800 0.360601 0.167200
0.484000 0.359499 0.187000
0.563200 0.354511 0.206800
0.642400 0.349219 0.226600
0.721600 0.347910 0.246400
0.222853 0.462622 0.181656
0.282253 0.462622 0.181656
0.341653 0.462622 0.181656
0.401052 0.462622 0.181656
0.460453 0.462622 0.181656
0.484000 0.420624 0.187000
0.563200 0.415636 0.206800
0.642400 0.410344 0.226600
0.721600 0.409035 0.246400
0.268705 0.545341 0.202335
0.328105 0.545341 0.202335
0.387505 0.545341 0.202335
0.446905 0.545341 0.202335
0.506305 0.545341 0.202335
0.545341 0.524977 0.202335
0.563200 0.477675 0.206800
0.642400 0.472383 0.226600
0.721600 0.471074 0.246400
0.316451 0.629114 0.223278
0.375851 0.629114 0.223278
0.435251 0.629114 0.223278
0.494651 0.629114 0.223278
0.554051 0.629114 0.223278
0.613451 0.629114 0.223278
0.629114 0.585377 0.223278
0.642400 0.535212 0.226600
0.721600 0.533904 0.246400
0.361009 0.713818 0.244454
0.420409 0.713818 0.244454
0.479809 0.713818 0.244454
0.539209 0.713818 0.244454
0.598609 0.713818 0.244454
0.658009 0.713818 0.244454
0.713818 0.710226 0.244454
0.713818 0.650826 0.244454
0.721600 0.597432 0.246400
0.104221 0.094389 0.163847
0.163621 0.094389 0.163847
0.243047 0.114189 0.186621
0.322247 0.133989 0.214389
0.401447 0.153789 0.248790
0.480647 0.173589 0.289543
0.559847 0.193389 0.334586
0.639047 0.213189 0.380399
0.718247 0.232989 0.422653
0.107800 0.152298 0.167200
0.181611 0.166704 0.181926
0.261126 0.186504 0.205800
0.340326 0.206304 0.234793
0.419526 0.226104 0.269813
0.498726 0.245904 0.309729
0.577926 0.265704 0.351852
0.657126 0.285504 0.392458
0.736326 0.305304 0.427563
0.121701 0.222803 0.179120
0.203108 0.242603 0.200901
0.266200 0.244629 0.206800
0.345400 0.255082 0.226600
0.424600 0.259697 0.246400
0.503800 0.266200 0.272585
0.583000 0.286000 0.313743
0.662200 0.305800 0.352847
0.741400 0.325600 0.386060
0.141267 0.301068 0.192284
0.230151 0.320868 0.220467
0.289551 0.320868 0.220467
0.345400 0.313780 0.226600
0.424600 0.318395 0.246400
0.503800 0.318514 0.266200
0.583000 0.316956 0.286000
0.662200 0.317452 0.305800
0.741400 0.325600 0.327361
0.161280 0.381122 0.199363
0.263782 0.400922 0.240480
0.323182 0.400922 0.240480
0.382582 0.400922 0.240480
0.424600 0.378436 0.246400
0.503800 0.378554 0.266200
0.583000 0.376996 0.286000
0.662200 0.377493 0.305800
0.741400 0.383880 0.325600
0.181656 0.462622 0.199859
0.303325 0.482422 0.260856
0.362725 0.482422 0.260856
0.422125 0.482422 0.260856
0.481525 0.482422 0.260856
0.503800 0.439680 0.266200
0.583000 0.438122 0.286000
0.662200 0.438618 0.305800
0.741400 0.445006 0.325600
0.209305 0.545341 0.202335
0.346203 0.565141 0.281535
0.405603 0.565141 0.281535
0.465003 0.565141 0.281535
0.524403 0.565141 0.281535
0.565141 0.546479 0.281535
0.583000 0.500161 0.286000
0.662200 0.500657 0.305800
0.741400 0.507044 0.325600
0.257051 0.629114 0.223278
0.388301 0.648914 0.302478
0.447701 0.648914 0.302478
0.507101 0.648914 0.302478
0.566501 0.648914 0.302478
0.625901 0.648914 0.302478
0.648914 0.612527 0.302478
0.662200 0.563487 0.305800
0.741400 0.569874 0.325600
0.301609 0.713818 0.244454
0.424855 0.733618 0.323654
0.484255 0.733618 0.323654
0.543655 0.733618 0.323654
0.603055 0.733618 0.323654
0.662455 0.733618 0.323654
0.721855 0.733618 0.323654
0.733618 0.685981 0.323654
0.741400 0.633402 0.325600
0.121273 0.114189 0.243047
0.180673 0.114189 0.243047
0.240073 0.114189 0.243047
0.322247 0.133989 0.273789
0.401447 0.153789 0.308191
0.480647 0.173589 0.348943
0.559847 0.193389 0.393986
0.639047 0.213189 0.439799
0.718247 0.232989 0.482053
0.127600 0.175112 0.246400
0.197653 0.186504 0.261126
0.257053 0.186504 0.261126
0.340326 0.206304 0.294193
0.419526 0.226104 0.329213
0.498726 0.245904 0.369128
0.577926 0.265704 0.411252
0.657126 0.285504 0.451858
0.736326 0.305304 0.486963
0.127600 0.232036 0.246400
0.206800 0.252376 0.266200
0.278384 0.262403 0.280101
0.359301 0.282203 0.311102
0.438501 0.302003 0.345707
0.517701 0.321803 0.383770
0.596901 0.341603 0.422199
0.676101 0.361403 0.457350
0.755301 0.381203 0.485866
0.141267 0.301068 0.251684
0.220467 0.320868 0.270183
0.305600 0.340668 0.299667
0.365200 0.337332 0.305800
0.444400 0.342557 0.325600
0.523600 0.345400 0.346066
0.602800 0.365200 0.383365
0.682000 0.385000 0.416972
0.761200 0.404800 0.443764
0.161280 0.381122 0.258763
0.240480 0.400922 0.276579
0.338927 0.420722 0.319680
0.398327 0.420722 0.319680
0.444400 0.402598 0.325600
0.523600 0.404774 0.345400
0.602800 0.407076 0.365200
0.682000 0.413069 0.385000
0.761200 0.425877 0.404800
0.181656 0.462622 0.259259
0.260856 0.482422 0.277786
0.376832 0.502222 0.340056
0.436232 0.502222 0.340056
0.495632 0.502222 0.340056
0.523600 0.465900 0.345400
0.602800 0.468201 0.365200
0.682000 0.474194 0.385000
0.761200 0.487002 0.404800
0.202335 0.545341 0.254765
0.286803 0.565141 0.281535
0.416151 0.584941 0.360735
0.475551 0.584941 0.360735
0.534951 0.584941 0.360735
0.584941 0.575531 0.360735
0.602800 0.530240 0.365200
0.682000 0.536233 0.385000
0.761200 0.549041 0.404800
0.223278 0.629114 0.248906
0.328901 0.648914 0.302478
0.452737 0.668714 0.381678
0.512137 0.668714 0.381678
0.571537 0.668714 0.381678
0.630937 0.668714 0.381678
0.668714 0.647091 0.381678
0.682000 0.599063 0.385000
0.761200 0.611871 0.404800
0.244454 0.713818 0.246700
0.365455 0.733618 0.323654
0.482500 0.753418 0.402854
0.541900 0.753418 0.402854
0.601300 0.753418 0.402854
0.660700 0.753418 0.402854
0.720100 0.753418 0.402854
0.753418 0.727336 0.402854
0.761200 0.675398 0.404800
0.133989 0.134872 0.322247
0.192506 0.133989 0.322247
0.251906 0.133989 0.322247
0.311306 0.133989 0.322247
0.401447 0.153789 0.367591
0.480647 0.173589 0.408343
0.559847 0.193389 0.453385
0.639047 0.213189 0.499198
0.718247 0.232989 0.541453
0.147400 0.203199 0.325600
0.208259 0.206304 0.340326
0.267659 0.206304 0.340326
0.327059 0.206304 0.340326
0.419526 0.226104 0.388613
0.498726 0.245904 0.428528
0.577926 0.265704 0.470652
0.657126 0.285504 0.511258
0.736326 0.305304 0.546363
0.147400 0.260123 0.325600
0.226600 0.281523 0.345400
0.288700 0.282203 0.359301
0.348100 0.282203 0.359301
0.438501 0.302003 0.405107
0.517701 0.321803 0.443170
0.596901 0.341603 0.481599
0.676101 0.361403 0.516749
0.755301 0.381203 0.545266
0.147400 0.318822 0.325600
0.226600 0.340221 0.345400
0.305800 0.356269 0.365200
0.375371 0.360468 0.378867
0.458067 0.380268 0.416222
0.537267 0.400068 0.452250
0.616467 0.419868 0.487167
0.695667 0.439668 0.517653
0.774867 0.459468 0.541169
0.161280 0.381122 0.318163
0.240480 0.400922 0.335979
0.319680 0.420722 0.359834
0.408289 0.440522 0.398880
0.464200 0.432552 0.404800
0.543400 0.436659 0.424600
0.622600 0.444400 0.446542
0.701800 0.464200 0.475868
0.781000 0.484000 0.498256
0.181656 0.462622 0.318659
0.260856 0.482422 0.337186
0.340056 0.502222 0.362679
0.444607 0.522022 0.419256
0.504007 0.522022 0.419256
0.543400 0.497784 0.424600
0.622600 0.503383 0.444400
0.701800 0.513657 0.464200
0.781000 0.530869 0.484000
0.202335 0.545341 0.314165
0.281535 0.565141 0.335668
0.360735 0.584941 0.364719
0.480820 0.604741 0.439935
0.540220 0.604741 0.439935
0.599620 0.604741 0.439935
0.622600 0.565422 0.444400
0.701800 0.575696 0.464200
0.781000 0.592908 0.484000
0.223278 0.629114 0.308306
0.302478 0.648914 0.335456
0.393337 0.668714 0.381678
0.513030 0.688514 0.460878
0.572430 0.688514 0.460878
0.631830 0.688514 0.460878
0.688514 0.685798 0.460878
0.701800 0.638526 0.464200
0.781000 0.655738 0.484000
0.244454 0.713818 0.306099
0.323654 0.733618 0.341254
0.423100 0.753418 0.402854
0.538039 0.773218 0.482054
0.597439 0.773218 0.482054
0.656839 0.773218 0.482054
0.716239 0.773218 0.482054
0.773218 0.770796 0.482054
0.781000 0.719266 0.484000
0.153789 0.169274 0.401447
0.197704 0.153789 0.401447
0.257104 0.153789 0.401447
0.316504 0.153789 0.401447
0.375904 0.153789 0.401447
0.480647 0.173589 0.467743
0.559847 0.193389 0.512786
0.639047 0.213189 0.558599
0.718247 0.232989 0.600853
0.167200 0.237819 0.404800
0.226104 0.239370 0.419526
0.272239 0.226104 0.419526
0.331639 0.226104 0.419526
0.391039 0.226104 0.419526
0.498726 0.245904 0.487929
0.577926 0.265704 0.530052
0.657126 0.285504 0.570658
0.736326 0.305304 0.605763
0.167200 0.294743 0.404800
0.246400 0.316508 0.424600
0.302003 0.310311 0.438501
0.353095 0.302003 0.438501
0.412495 0.302003 0.438501
0.517701 0.321803 0.502571
0.596901 0.341603 0.540999
0.676101 0.361403 0.576149
0.755301 0.381203 0.604666
0.167200 0.353442 0.404800
0.246400 0.375206 0.424600
0.325600 0.390644 0.444400
0.381112 0.380268 0.458067
0.440512 0.380268 0.458067
0.537267 0.400068 0.511650
0.616467 0.419868 0.546567
0.695667 0.439668 0.577053
0.774867 0.459468 0.600569
0.167200 0.404800 0.396118
0.246400 0.424600 0.413953
0.325600 0.444400 0.438115
0.404800 0.460330 0.464200
0.473705 0.460322 0.478080
0.557280 0.480122 0.517066
0.636480 0.499922 0.549429
0.715680 0.519722 0.576728
0.794881 0.539522 0.597332
0.181656 0.462622 0.378059
0.260856 0.482422 0.396586
0.340056 0.502222 0.422079
0.419256 0.522022 0.453304
0.509230 0.541822 0.498456
0.563200 0.532572 0.503800
0.642400 0.540312 0.523600
0.721600 0.553228 0.543400
0.800800 0.572682 0.563200
0.202335 0.545341 0.373565
0.281535 0.565141 0.395068
0.360735 0.584941 0.424119
0.439935 0.604741 0.458450
0.543445 0.624541 0.519135
0.602845 0.624541 0.519135
0.642400 0.602351 0.523600
0.721600 0.615267 0.543400
0.800800 0.634721 0.563200
0.223278 0.629114 0.367706
0.302478 0.648914 0.394856
0.381678 0.668714 0.429420
0.460878 0.688514 0.468127
0.572901 0.708314 0.540079
0.632301 0.708314 0.540079
0.691701 0.708314 0.540079
0.721600 0.678097 0.543400
0.800800 0.697551 0.563200
0.244454 0.713818 0.365500
0.323654 0.733618 0.400654
0.402854 0.753418 0.442009
0.482054 0.773218 0.485470
0.595399 0.793018 0.561254
0.654799 0.793018 0.561254
0.714199 0.793018 0.561254
0.773599 0.793018 0.561254
0.800800 0.761079 0.563200
0.173589 0.210026 0.480647
0.196552 0.173589 0.480647
0.255952 0.173589 0.480647
0.315352 0.173589 0.480647
0.374752 0.173589 0.480647
0.434152 0.173589 0.480647
0.547509 0.193389 0.559847
0.639047 0.213189 0.617999
0.718247 0.232989 0.660253
0.187000 0.278521 0.484000
0.245904 0.279285 0.498726
0.271924 0.245904 0.498726
0.331324 0.245904 0.498726
0.390724 0.245904 0.498726
0.450124 0.245904 0.498726
0.566401 0.265704 0.577926
0.657126 0.285504 0.630058
0.736326 0.305304 0.665163
0.187000 0.335445 0.484000
0.266200 0.355989 0.503800
0.321803 0.348375 0.517701
0.354631 0.321803 0.517701
0.414031 0.321803 0.517701
0.473431 0.321803 0.517701
0.593402 0.341603 0.596901
0.676101 0.361403 0.635549
0.755301 0.381203 0.664066
0.187000 0.394143 0.484000
0.266200 0.414688 0.503800
0.345400 0.428068 0.523600
0.400068 0.415452 0.537267
0.444084 0.400068 0.537267
0.503484 0.400068 0.537267
0.616467 0.419868 0.605967
0.695667 0.439668 0.636453
0.774867 0.459468 0.659969
0.187000 0.454184 0.484000
0.266200 0.474729 0.503800
0.345400 0.488108 0.523600
0.424600 0.495824 0.543400
0.480122 0.481549 0.557280
0.538095 0.480122 0.557280
0.636480 0.499922 0.608829
0.715680 0.519722 0.636128
0.794881 0.539522 0.656732
0.187000 0.484000 0.452691
0.266200 0.503800 0.471746
0.345400 0.523600 0.497966
0.424600 0.543400 0.529850
0.503800 0.561761 0.563200
0.573940 0.561622 0.577656
0.656856 0.581422 0.612479
0.736056 0.601222 0.638219
0.815256 0.621022 0.657888
0.202335 0.545341 0.432965
0.281535 0.565141 0.454468
0.360735 0.584941 0.483519
0.439935 0.604741 0.517850
0.519135 0.624541 0.554226
0.607417 0.644341 0.598335
0.662200 0.637626 0.602800
0.741400 0.651663 0.622600
0.820600 0.671586 0.642400
0.223278 0.629114 0.427106
0.302478 0.648914 0.454256
0.381678 0.668714 0.488820
0.460878 0.688514 0.527527
0.540079 0.708314 0.566656
0.635673 0.728114 0.619278
0.695073 0.728114 0.619278
0.741400 0.714493 0.622600
0.820600 0.734415 0.642400
0.244454 0.713818 0.424899
0.323654 0.733618 0.460054
0.402854 0.753418 0.501409
0.482054 0.773218 0.544870
0.561254 0.793018 0.586510
0.657525 0.812818 0.640454
0.716925 0.812818 0.640454
0.776325 0.812818 0.640454
0.820600 0.797943 0.642400
0.193389 0.255069 0.559847
0.193389 0.195669 0.559847
0.250509 0.193389 0.559847
0.309909 0.193389 0.559847
0.369309 0.193389 0.559847
0.428709 0.193389 0.559847
0.488109 0.193389 0.559847
0.600696 0.213189 0.639047
0.716841 0.232989 0.718247
0.206800 0.323109 0.563200
0.265704 0.321408 0.577926
0.269400 0.265704 0.577926
0.328801 0.265704 0.577926
0.388201 0.265704 0.577926
0.447601 0.265704 0.577926
0.507001 0.265704 0.577926
0.624794 0.285504 0.657126
0.736326 0.305304 0.724563
0.206800 0.380033 0.563200
0.286000 0.397147 0.583000
0.341603 0.386803 0.596901
0.355802 0.341603 0.596901
0.415202 0.341603 0.596901
0.474602 0.341603 0.596901
0.534002 0.341603 0.596901
0.657252 0.361403 0.676101
0.755301 0.381203 0.723466
0.206800 0.438732 0.563200
0.286000 0.455846 0.583000
0.365200 0.465367 0.602800
0.419868 0.450369 0.616467
0.448767 0.419868 0.616467
0.508167 0.419868 0.616467
0.567567 0.419868 0.616467
0.695481 0.439668 0.695667
0.774867 0.459468 0.719369
0.206800 0.498772 0.563200
0.286000 0.515886 0.583000
0.365200 0.525407 0.602800
0.444400 0.529825 0.622600
0.499922 0.513912 0.636480
0.545332 0.499922 0.636480
0.604732 0.499922 0.636480
0.715680 0.519722 0.695528
0.794881 0.539522 0.716132
0.206800 0.559897 0.563200
0.286000 0.577012 0.583000
0.365200 0.586533 0.602800
0.444400 0.590950 0.622600
0.523600 0.593622 0.642400
0.582433 0.581422 0.656856
0.641833 0.581422 0.656856
0.736056 0.601222 0.697619
0.815256 0.621022 0.717288
0.206800 0.563200 0.504464
0.286000 0.583000 0.526949
0.365200 0.602800 0.557028
0.444400 0.622600 0.592211
0.523600 0.642400 0.629139
0.602800 0.659985 0.662200
0.675481 0.664141 0.677535
0.756735 0.683941 0.704987
0.835935 0.703741 0.725044
0.223278 0.629114 0.486506
0.302478 0.648914 0.513656
0.381678 0.668714 0.548220
0.460878 0.688514 0.586927
0.540079 0.708314 0.626056
0.619278 0.728114 0.662283
0.703538 0.747914 0.698478
0.761200 0.745629 0.701800
0.840400 0.765008 0.721600
0.244454 0.713818 0.484299
0.323654 0.733618 0.519454
0.402854 0.753418 0.560809
0.482054 0.773218 0.604270
0.561254 0.793018 0.645910
0.640454 0.812818 0.682783
0.725825 0.832618 0.719654
0.785225 0.832618 0.719654
0.840400 0.828536 0.721600
0.213189 0.300882 0.639047
0.213189 0.241482 0.639047
0.244296 0.213189 0.639047
0.303696 0.213189 0.639047
0.363096 0.213189 0.639047
0.422496 0.213189 0.639047
0.481896 0.213189 0.639047
0.541296 0.213189 0.639047
0.657441 0.232989 0.718247
0.226600 0.368001 0.642400
0.285504 0.362014 0.657126
0.285504 0.302614 0.657126
0.327794 0.285504 0.657126
0.387195 0.285504 0.657126
0.446594 0.285504 0.657126
0.505995 0.285504 0.657126
0.565395 0.285504 0.657126
0.688689 0.305304 0.736326
0.226600 0.424925 0.642400
0.305800 0.436251 0.662200
0.361403 0.421954 0.676101
0.361403 0.362554 0.676101
0.419652 0.361403 0.676101
0.479052 0.361403 0.676101
0.538452 0.361403 0.676101
0.597852 0.361403 0.676101
0.727736 0.381203 0.755301
0.226600 0.483624 0.642400
0.305800 0.494950 0.662200
0.385000 0.498973 0.682000
0.439668 0.480855 0.695667
0.457881 0.439668 0.695667
0.517281 0.439668 0.695667
0.576681 0.439668 0.695667
0.636081 0.439668 0.695667
0.770965 0.459468 0.774867
0.226600 0.543665 0.642400
0.305800 0.554990 0.662200
0.385000 0.559014 0.682000
0.464200 0.559151 0.701800
0.519722 0.541211 0.715680
0.557633 0.519722 0.715680
0.617033 0.519722 0.715680
0.676432 0.519722 0.715680
0.794881 0.539522 0.775532
0.226600 0.604790 0.642400
0.305800 0.616116 0.662200
0.385000 0.620139 0.682000
0.464200 0.620277 0.701800
0.543400 0.620305 0.721600
0.601222 0.606153 0.736056
0.655692 0.601222 0.736056
0.715092 0.601222 0.736056
0.815256 0.621022 0.776688
0.226600 0.642400 0.617971
0.305800 0.662200 0.646245
0.385000 0.682000 0.681822
0.464200 0.682316 0.701800
0.543400 0.682344 0.721600
0.622600 0.685548 0.741400
0.689683 0.683941 0.756735
0.749083 0.683941 0.756735
0.835935 0.703741 0.784444
0.226600 0.642400 0.555142
0.305800 0.662200 0.583416
0.385000 0.682000 0.618992
0.464200 0.701800 0.658455
0.543400 0.721600 0.698026
0.622600 0.741400 0.734422
0.701800 0.756842 0.761200
0.777106 0.767714 0.777678
0.856878 0.787514 0.799048
0.244454 0.713818 0.543700
0.323654 0.733618 0.578854
0.402854 0.753418 0.620209
0.482054 0.773218 0.663670
0.561254 0.793018 0.705310
0.640454 0.812818 0.742183
0.719654 0.832618 0.772883
0.799964 0.852418 0.798854
0.860200 0.853284 0.800800
0.232989 0.343136 0.718247
0.232989 0.283736 0.718247
0.241641 0.232989 0.718247
0.301041 0.232989 0.718247
0.360441 0.232989 0.718247
0.419841 0.232989 0.718247
0.479242 0.232989 0.718247
0.538641 0.232989 0.718247
0.598041 0.232989 0.718247
0.246400 0.408910 0.721600
0.305304 0.397120 0.736326
0.305304 0.337720 0.736326
0.332289 0.305304 0.736326
0.391689 0.305304 0.736326
0.451089 0.305304 0.736326
0.510489 0.305304 0.736326
0.569889 0.305304 0.736326
0.629289 0.305304 0.736326
0.246400 0.465834 0.721600
0.325600 0.469464 0.741400
0.381203 0.450471 0.755301
0.381203 0.391070 0.755301
0.430736 0.381203 0.755301
0.490136 0.381203 0.755301
0.549536 0.381203 0.755301
0.608935 0.381203 0.755301
0.668336 0.381203 0.755301
0.246400 0.524532 0.721600
0.325600 0.528162 0.741400
0.404800 0.525766 0.761200
0.459468 0.504371 0.774867
0.473965 0.459468 0.774867
0.533365 0.459468 0.774867
0.592765 0.459468 0.774867
0.652165 0.459468 0.774867
0.711565 0.459468 0.774867
0.246400 0.584573 0.721600
0.325600 0.588203 0.741400
0.404800 0.585806 0.761200
0.484000 0.581539 0.781000
0.539522 0.561815 0.794881
0.576629 0.539522 0.794881
0.636029 0.539522 0.794881
0.695429 0.539522 0.794881
0.754829 0.539522 0.794881
0.246400 0.645698 0.721600
0.325600 0.649328 0.741400
0.404800 0.646932 0.761200
0.484000 0.642664 0.781000
0.563200 0.640452 0.800800
0.621022 0.625821 0.815256
0.675624 0.621022 0.815256
0.735024 0.621022 0.815256
0.794424 0.621022 0.815256
0.246400 0.707737 0.721600
0.325600 0.711367 0.741400
0.404800 0.708971 0.761200
0.484000 0.704703 0.781000
0.563200 0.702491 0.800800
0.642400 0.705226 0.820600
0.709227 0.703741 0.835935
0.768627 0.703741 0.835935
0.828027 0.703741 0.835935
0.246400 0.721600 0.672633
0.325600 0.741400 0.708603
0.404800 0.761200 0.750600
0.484000 0.767533 0.781000
0.563200 0.765320 0.800800
0.642400 0.768056 0.820600
0.721600 0.777063 0.840400
0.795909 0.787514 0.856878
0.855309 0.787514 0.856878
0.246400 0.721600 0.609105
0.325600 0.741400 0.645075
0.404800 0.761200 0.687072
0.484000 0.781000 0.730939
0.563200 0.800800 0.772752
0.642400 0.820600 0.809617
0.721600 0.840400 0.840209
0.800800 0.855442 0.860200
0.878041 0.872218 0.878054
