crates/agx-e2e/fixtures/looks/luts/portra_400.cube
TITLE "portra_400"
LUT_3D_SIZE 9
DOMAIN_MIN 0.0 0.0 0.0
DOMAIN_MAX 1.0 1.0 1.0
0.020880 0.011728 0.037072
0.136279 0.018060 0.043404
0.249648 0.025297 0.050641
0.360192 0.032353 0.057697
0.469669 0.039341 0.064685
0.580695 0.046427 0.071771
0.696553 0.053823 0.079167
0.821200 0.061779 0.087123
0.940600 0.069400 0.094744
0.027141 0.126008 0.043333
0.138007 0.127807 0.045132
0.251376 0.135044 0.052369
0.361920 0.142100 0.059425
0.471397 0.149088 0.066413
0.582423 0.156174 0.073499
0.698281 0.163570 0.080895
0.822928 0.171526 0.088851
0.942328 0.179147 0.096472
0.034308 0.238289 0.050500
0.144478 0.239393 0.051604
0.251376 0.240158 0.052369
0.361920 0.247214 0.059425
0.471397 0.254202 0.066413
0.582423 0.261288 0.073499
0.698281 0.268684 0.080895
0.822928 0.276640 0.088851
0.942328 0.284261 0.096472
0.041296 0.347771 0.057488
0.151466 0.348875 0.058592
0.257600 0.348875 0.058592
0.361920 0.349707 0.059425
0.471397 0.356695 0.066413
0.582423 0.363782 0.073499
0.698281 0.371177 0.080895
0.822928 0.379133 0.088851
0.942328 0.386755 0.096472
0.048217 0.456197 0.064409
0.158387 0.457301 0.065513
0.264521 0.457301 0.065513
0.368008 0.457301 0.065513
0.471397 0.458201 0.066413
0.582423 0.465287 0.073499
0.698281 0.472683 0.080895
0.822928 0.480639 0.088851
0.942328 0.488260 0.096472
0.055236 0.566157 0.071427
0.165406 0.567261 0.072532
0.271539 0.567261 0.072532
0.375027 0.567261 0.072532
0.477516 0.567261 0.072532
0.582423 0.568228 0.073499
0.698281 0.575624 0.080895
0.822928 0.583580 0.088851
0.942328 0.591201 0.096472
0.062560 0.680902 0.078752
0.172730 0.682006 0.079856
0.278863 0.682006 0.079856
0.382351 0.682006 0.079856
0.484841 0.682006 0.079856
0.588780 0.682006 0.079856
0.698281 0.683045 0.080895
0.822928 0.691001 0.088851
0.942328 0.698622 0.096472
0.070439 0.804351 0.086631
0.180610 0.805455 0.087735
0.286743 0.805455 0.087735
0.390231 0.805455 0.087735
0.492720 0.805455 0.087735
0.596659 0.805455 0.087735
0.705122 0.805455 0.087735
0.822928 0.806570 0.088851
0.942328 0.814191 0.096472
0.079176 0.941224 0.095368
0.189346 0.942328 0.096472
0.295480 0.942328 0.096472
0.398967 0.942328 0.096472
0.501457 0.942328 0.096472
0.605396 0.942328 0.096472
0.713859 0.942328 0.096472
0.830549 0.942328 0.096472
0.942328 0.942328 0.096472
0.027807 0.018656 0.145603
0.136874 0.018656 0.145603
0.249648 0.025297 0.152244
0.360192 0.032353 0.159300
0.469669 0.039341 0.166288
0.580695 0.046427 0.173375
0.696553 0.053823 0.180770
0.821200 0.061779 0.188726
0.940600 0.069400 0.196348
0.028431 0.127299 0.146227
0.144239 0.134039 0.152968
0.257013 0.140681 0.159609
0.367557 0.147737 0.166665
0.477034 0.154725 0.173653
0.588060 0.161811 0.180740
0.703918 0.169206 0.188135
0.828564 0.177163 0.196091
0.947965 0.184784 0.203712
0.034308 0.238289 0.152103
0.150811 0.245725 0.159540
0.258304 0.247085 0.160900
0.368847 0.254141 0.167956
0.478325 0.261129 0.174943
0.589351 0.268216 0.182030
0.705209 0.275611 0.189425
0.829855 0.283567 0.197381
0.949256 0.291188 0.205003
0.041296 0.347771 0.159091
0.157799 0.355207 0.166528
0.264527 0.355802 0.167123
0.368847 0.356635 0.167956
0.478325 0.363623 0.174943
0.589351 0.370709 0.182030
0.705209 0.378105 0.189425
0.829855 0.386061 0.197381
0.949256 0.393682 0.205003
0.048217 0.456197 0.166012
0.164720 0.463633 0.173448
0.271448 0.464228 0.174044
0.374936 0.464228 0.174044
0.478325 0.465128 0.174943
0.589351 0.472215 0.182030
0.705209 0.479610 0.189425
0.829855 0.487566 0.197381
0.949256 0.495187 0.205003
0.055236 0.566157 0.173031
0.171738 0.573593 0.180467
0.278467 0.574188 0.181062
0.381954 0.574188 0.181062
0.484444 0.574188 0.181062
0.589351 0.575156 0.182030
0.705209 0.582551 0.189425
0.829855 0.590507 0.197381
0.949256 0.598129 0.205003
0.062560 0.680902 0.180355
0.179063 0.688338 0.187791
0.285791 0.688933 0.188387
0.389279 0.688933 0.188387
0.491768 0.688933 0.188387
0.595707 0.688933 0.188387
0.705209 0.689972 0.189425
0.829855 0.697928 0.197381
0.949256 0.705550 0.205003
0.070439 0.804351 0.188235
0.186942 0.811787 0.195671
0.293671 0.812382 0.196266
0.397158 0.812382 0.196266
0.499648 0.812382 0.196266
0.603587 0.812382 0.196266
0.712050 0.812382 0.196266
0.829855 0.813498 0.197381
0.949256 0.821119 0.205003
0.079176 0.941224 0.196971
0.195679 0.948660 0.204408
0.302407 0.949256 0.205003
0.405895 0.949256 0.205003
0.508384 0.949256 0.205003
0.612324 0.949256 0.205003
0.720786 0.949256 0.205003
0.837476 0.949256 0.205003
0.949256 0.949256 0.205003
0.034549 0.025397 0.251215
0.143615 0.025397 0.251215
0.249748 0.025397 0.251215
0.360192 0.032353 0.258171
0.469669 0.039341 0.265159
0.580695 0.046427 0.272246
0.696553 0.053823 0.279641
0.821200 0.061779 0.287597
0.940600 0.069400 0.295219
0.035173 0.134040 0.251839
0.150980 0.140781 0.258580
0.257113 0.140781 0.258580
0.367557 0.147737 0.265536
0.477034 0.154725 0.272524
0.588060 0.161811 0.279611
0.703918 0.169206 0.287006
0.828564 0.177163 0.294962
0.947965 0.184784 0.302583
0.035173 0.239154 0.251839
0.151676 0.246590 0.259275
0.264280 0.253061 0.265747
0.374724 0.260017 0.272703
0.484201 0.267005 0.279691
0.595227 0.274092 0.286777
0.711085 0.281487 0.294173
0.835731 0.289444 0.302129
0.955132 0.297065 0.309750
0.041296 0.347771 0.257962
0.157799 0.355207 0.265399
0.271168 0.362443 0.272635
0.375589 0.363376 0.273568
0.485066 0.370364 0.280555
0.596092 0.377451 0.287642
0.711950 0.384846 0.295037
0.836596 0.392802 0.302993
0.955997 0.400423 0.310615
0.048217 0.456197 0.264883
0.164720 0.463633 0.272319
0.278089 0.470870 0.279556
0.381677 0.470969 0.279656
0.485066 0.471869 0.280555
0.596092 0.478956 0.287642
0.711950 0.486351 0.295037
0.836596 0.494307 0.302993
0.955997 0.501929 0.310615
0.055236 0.566157 0.271902
0.171738 0.573593 0.279338
0.285108 0.580829 0.286574
0.388696 0.580929 0.286674
0.491185 0.580929 0.286674
0.596092 0.581897 0.287642
0.711950 0.589292 0.295037
0.836596 0.597248 0.302993
0.955997 0.604870 0.310615
0.062560 0.680902 0.279226
0.179063 0.688338 0.286662
0.292432 0.695574 0.293899
0.396020 0.695674 0.293999
0.498509 0.695674 0.293999
0.602449 0.695674 0.293999
0.711950 0.696713 0.295037
0.836596 0.704669 0.302993
0.955997 0.712291 0.310615
0.070439 0.804351 0.287106
0.186942 0.811787 0.294542
0.300312 0.819024 0.301778
0.403899 0.819124 0.301878
0.506389 0.819124 0.301878
0.610328 0.819124 0.301878
0.718791 0.819124 0.301878
0.836596 0.820239 0.302993
0.955997 0.827860 0.310615
0.079176 0.941224 0.295842
0.195679 0.948660 0.303279
0.309048 0.955897 0.310515
0.412636 0.955997 0.310615
0.515126 0.955997 0.310615
0.619065 0.955997 0.310615
0.727528 0.955997 0.310615
0.844218 0.955997 0.310615
0.955997 0.955997 0.310615
0.041122 0.031970 0.354194
0.150188 0.031970 0.354194
0.256322 0.031970 0.354194
0.360192 0.032353 0.354577
0.469669 0.039341 0.361565
0.580695 0.046427 0.368652
0.696553 0.053823 0.376047
0.821200 0.061779 0.384003
0.940600 0.069400 0.391624
0.041746 0.140613 0.354818
0.157553 0.147354 0.361559
0.263687 0.147354 0.361559
0.367557 0.147737 0.361942
0.477034 0.154725 0.368930
0.588060 0.161811 0.376017
0.703918 0.169206 0.383412
0.828564 0.177163 0.391368
0.947965 0.184784 0.398989
0.041746 0.245727 0.354818
0.158249 0.253163 0.362255
0.270853 0.259635 0.368726
0.374724 0.260017 0.369109
0.484201 0.267005 0.376097
0.595227 0.274092 0.383183
0.711085 0.281487 0.390579
0.835731 0.289444 0.398535
0.955132 0.297065 0.406156
0.041746 0.348220 0.354818
0.158249 0.355657 0.362255
0.271618 0.362893 0.369491
0.381712 0.369499 0.376097
0.491189 0.376487 0.383085
0.602215 0.383574 0.390172
0.718073 0.390969 0.397567
0.842719 0.398925 0.405523
0.962120 0.406547 0.413144
0.048217 0.456197 0.361289
0.164720 0.463633 0.368725
0.278089 0.470870 0.375962
0.388250 0.477543 0.382635
0.491639 0.478442 0.383535
0.602665 0.485529 0.390622
0.718523 0.492924 0.398017
0.843169 0.500880 0.405973
0.962570 0.508502 0.413594
0.055236 0.566157 0.368308
0.171738 0.573593 0.375744
0.285108 0.580829 0.382981
0.395269 0.587502 0.389654
0.497758 0.587502 0.389654
0.602665 0.588470 0.390622
0.718523 0.595865 0.398017
0.843169 0.603822 0.405973
0.962570 0.611443 0.413594
0.062560 0.680902 0.375632
0.179063 0.688338 0.383068
0.292432 0.695574 0.390305
0.402593 0.702248 0.396978
0.505082 0.702248 0.396978
0.609022 0.702248 0.396978
0.718523 0.703286 0.398017
0.843169 0.711243 0.405973
0.962570 0.718864 0.413594
0.070439 0.804351 0.383512
0.186942 0.811787 0.390948
0.300312 0.819024 0.398184
0.410473 0.825697 0.404858
0.512962 0.825697 0.404858
0.616901 0.825697 0.404858
0.725364 0.825697 0.404858
0.843169 0.826812 0.405973
0.962570 0.834433 0.413594
0.079176 0.941224 0.392248
0.195679 0.948660 0.399685
0.309048 0.955897 0.406921
0.419209 0.962570 0.413594
0.521699 0.962570 0.413594
0.625638 0.962570 0.413594
0.734101 0.962570 0.413594
0.850791 0.962570 0.413594
0.962570 0.962570 0.413594
0.047632 0.038480 0.456180
0.156698 0.038480 0.456180
0.262831 0.038480 0.456180
0.366319 0.038480 0.456180
0.469669 0.039341 0.457042
0.580695 0.046427 0.464128
0.696553 0.053823 0.471523
0.821200 0.061779 0.479480
0.940600 0.069400 0.487101
0.048256 0.147123 0.456804
0.164063 0.153864 0.463545
0.270196 0.153864 0.463545
0.373684 0.153864 0.463545
0.477034 0.154725 0.464406
0.588060 0.161811 0.471493
0.703918 0.169206 0.478888
0.828564 0.177163 0.486845
0.947965 0.184784 0.494466
0.048256 0.252237 0.456804
0.164758 0.259673 0.464241
0.277363 0.266144 0.470712
0.380851 0.266144 0.470712
0.484201 0.267005 0.471573
0.595227 0.274092 0.478660
0.711085 0.281487 0.486055
0.835731 0.289444 0.494011
0.955132 0.297065 0.501633
0.048256 0.354730 0.456804
0.164758 0.362167 0.464241
0.278128 0.369403 0.471477
0.387839 0.375626 0.477700
0.491189 0.376487 0.478561
0.602215 0.383574 0.485648
0.718073 0.390969 0.493043
0.842719 0.398925 0.501000
0.962120 0.406547 0.508621
0.048256 0.456236 0.456804
0.164758 0.463672 0.464241
0.278128 0.470908 0.471477
0.388672 0.477964 0.478533
0.498110 0.484913 0.485482
0.609136 0.492000 0.492569
0.724994 0.499395 0.499964
0.849640 0.507352 0.507921
0.969041 0.514973 0.515542
0.055236 0.566157 0.463784
0.171738 0.573593 0.471221
0.285108 0.580829 0.478457
0.395651 0.587885 0.485513
0.504268 0.594012 0.491640
0.609175 0.594980 0.492608
0.725033 0.602375 0.500003
0.849679 0.610331 0.507959
0.969080 0.617953 0.515581
0.062560 0.680902 0.471108
0.179063 0.688338 0.478545
0.292432 0.695574 0.485781
0.402976 0.702630 0.492837
0.511592 0.708757 0.498964
0.615531 0.708757 0.498964
0.725033 0.709796 0.500003
0.849679 0.717752 0.507959
0.969080 0.725374 0.515581
0.070439 0.804351 0.478988
0.186942 0.811787 0.486425
0.300312 0.819024 0.493661
0.410855 0.826080 0.500717
0.519472 0.832206 0.506844
0.623411 0.832206 0.506844
0.731874 0.832206 0.506844
0.849679 0.833322 0.507959
0.969080 0.840943 0.515581
0.079176 0.941224 0.487725
0.195679 0.948660 0.495161
0.309048 0.955897 0.502398
0.419592 0.962953 0.509453
0.528209 0.969080 0.515581
0.632148 0.969080 0.515581
0.740611 0.969080 0.515581
0.857301 0.969080 0.515581
0.969080 0.969080 0.515581
0.054233 0.045081 0.559609
0.163300 0.045081 0.559609
0.269433 0.045081 0.559609
0.372921 0.045081 0.559609
0.475410 0.045081 0.559609
0.580695 0.046427 0.560955
0.696553 0.053823 0.568350
0.821200 0.061779 0.576306
0.940600 0.069400 0.583928
0.054857 0.153724 0.560233
0.170665 0.160465 0.566974
0.276798 0.160465 0.566974
0.380286 0.160465 0.566974
0.482775 0.160465 0.566974
0.588060 0.161811 0.568320
0.703918 0.169206 0.575715
0.828564 0.177163 0.583672
0.947965 0.184784 0.591293
0.054857 0.258838 0.560233
0.171360 0.266275 0.567670
0.283965 0.272746 0.574141
0.387452 0.272746 0.574141
0.489942 0.272746 0.574141
0.595227 0.274092 0.575487
0.711085 0.281487 0.582882
0.835731 0.289444 0.590839
0.955132 0.297065 0.598459
0.054857 0.361332 0.560233
0.171360 0.368769 0.567670
0.284730 0.376005 0.574906
0.394441 0.382228 0.581129
0.496930 0.382228 0.581129
0.602215 0.383574 0.582475
0.718073 0.390969 0.589871
0.842719 0.398925 0.597826
0.962120 0.406547 0.605448
0.054857 0.462837 0.560233
0.171360 0.470274 0.567670
0.284730 0.477510 0.574906
0.395273 0.484566 0.581962
0.503851 0.490654 0.588050
0.609136 0.492000 0.589396
0.724994 0.499395 0.596791
0.849640 0.507352 0.604747
0.969041 0.514973 0.612369
0.055236 0.566157 0.560611
0.171738 0.573593 0.568048
0.285108 0.580829 0.575284
0.395651 0.587885 0.582340
0.505129 0.594873 0.589328
0.615777 0.601582 0.596037
0.731635 0.608977 0.603432
0.856281 0.616933 0.611388
0.975681 0.624555 0.619009
0.062560 0.680902 0.567936
0.179063 0.688338 0.575372
0.292432 0.695574 0.582608
0.402976 0.702630 0.589664
0.512453 0.709618 0.596652
0.622133 0.715359 0.602393
0.731635 0.716398 0.603432
0.856281 0.724354 0.611388
0.975681 0.731976 0.619009
0.070439 0.804351 0.575815
0.186942 0.811787 0.583252
0.300312 0.819024 0.590488
0.410855 0.826080 0.597544
0.520333 0.833067 0.604532
0.630013 0.838808 0.610273
0.738476 0.838808 0.610273
0.856281 0.839924 0.611388
0.975681 0.847545 0.619009
0.079176 0.941224 0.584552
0.195679 0.948660 0.591988
0.309048 0.955897 0.599224
0.419592 0.962953 0.606280
0.529069 0.969941 0.613268
0.638750 0.975681 0.619009
0.747212 0.975681 0.619009
0.863902 0.975681 0.619009
0.975681 0.975681 0.619009
0.061123 0.051971 0.667539
0.170189 0.051971 0.667539
0.276322 0.051971 0.667539
0.379810 0.051971 0.667539
0.482299 0.051971 0.667539
0.586239 0.051971 0.667539
0.696553 0.053823 0.669391
0.821200 0.061779 0.677348
0.940600 0.069400 0.684969
0.061747 0.160614 0.668163
0.177554 0.167354 0.674904
0.283687 0.167354 0.674904
0.387175 0.167354 0.674904
0.489664 0.167354 0.674904
0.593604 0.167354 0.674904
0.703918 0.169206 0.676756
0.828564 0.177163 0.684713
0.947965 0.184784 0.692334
0.061747 0.265727 0.668163
0.178249 0.273164 0.675600
0.290854 0.279635 0.682071
0.394342 0.279635 0.682071
0.496831 0.279635 0.682071
0.600770 0.279635 0.682071
0.711085 0.281487 0.683923
0.835731 0.289444 0.691879
0.955132 0.297065 0.699501
0.061747 0.368221 0.668163
0.178249 0.375658 0.675600
0.291619 0.382894 0.682836
0.401330 0.389117 0.689059
0.503820 0.389117 0.689059
0.607759 0.389117 0.689059
0.718073 0.390969 0.690911
0.842719 0.398925 0.698868
0.962120 0.406547 0.706489
0.061747 0.469727 0.668163
0.178249 0.477163 0.675600
0.291619 0.484399 0.682836
0.402163 0.491455 0.689892
0.510740 0.497543 0.695980
0.614680 0.497543 0.695980
0.724994 0.499395 0.697832
0.849640 0.507352 0.705788
0.969041 0.514973 0.713410
0.061747 0.572668 0.668163
0.178249 0.580104 0.675600
0.291619 0.587340 0.682836
0.402163 0.594396 0.689892
0.511640 0.601384 0.696880
0.621698 0.607503 0.702999
0.732013 0.609355 0.704851
0.856659 0.617311 0.712807
0.976059 0.624932 0.720428
0.062560 0.680902 0.668976
0.179063 0.688338 0.676413
0.292432 0.695574 0.683649
0.402976 0.702630 0.690705
0.512453 0.709618 0.697693
0.623479 0.716705 0.704780
0.738524 0.723287 0.711362
0.863170 0.731243 0.719318
0.982571 0.738865 0.726939
0.070439 0.804351 0.676856
0.186942 0.811787 0.684293
0.300312 0.819024 0.691529
0.410855 0.826080 0.698585
0.520333 0.833067 0.705573
0.631359 0.840154 0.712659
0.745365 0.845697 0.718203
0.863170 0.846813 0.719318
0.982571 0.854434 0.726939
0.079176 0.941224 0.685593
0.195679 0.948660 0.693029
0.309048 0.955897 0.700265
0.419592 0.962953 0.707321
0.529069 0.969941 0.714309
0.640096 0.977027 0.721396
0.754101 0.982571 0.726939
0.870791 0.982571 0.726939
0.982571 0.982571 0.726939
0.068534 0.059382 0.783656
0.177601 0.059382 0.783656
0.283734 0.059382 0.783656
0.387222 0.059382 0.783656
0.489711 0.059382 0.783656
0.593651 0.059382 0.783656
0.702113 0.059382 0.783656
0.821200 0.061779 0.786053
0.940600 0.069400 0.793674
0.069158 0.168025 0.784280
0.184966 0.174766 0.791021
0.291099 0.174766 0.791021
0.394586 0.174766 0.791021
0.497076 0.174766 0.791021
0.601015 0.174766 0.791021
0.709478 0.174766 0.791021
0.828564 0.177163 0.793418
0.947965 0.184784 0.801039
0.069158 0.273139 0.784280
0.185661 0.280576 0.791717
0.298266 0.287047 0.798188
0.401754 0.287047 0.798188
0.504243 0.287047 0.798188
0.608182 0.287047 0.798188
0.716645 0.287047 0.798188
0.835731 0.289444 0.800585
0.955132 0.297065 0.808206
0.069158 0.375633 0.784280
0.185661 0.383069 0.791717
0.299031 0.390306 0.798953
0.408742 0.396529 0.805176
0.511231 0.396529 0.805176
0.615170 0.396529 0.805176
0.723633 0.396529 0.805176
0.842719 0.398925 0.807572
0.962120 0.406547 0.815194
0.069158 0.477139 0.784280
0.185661 0.484575 0.791717
0.299031 0.491811 0.798953
0.409574 0.498867 0.806009
0.518152 0.504955 0.812097
0.622091 0.504955 0.812097
0.730554 0.504955 0.812097
0.849640 0.507352 0.814493
0.969041 0.514973 0.822115
0.069158 0.580079 0.784280
0.185661 0.587515 0.791717
0.299031 0.594752 0.798953
0.409574 0.601808 0.806009
0.519052 0.608796 0.812997
0.629110 0.614915 0.819116
0.737573 0.614915 0.819116
0.856659 0.617311 0.821512
0.976059 0.624932 0.829134
0.069158 0.687500 0.784280
0.185661 0.694937 0.791717
0.299031 0.702173 0.798953
0.409574 0.709229 0.806009
0.519052 0.716217 0.812997
0.630078 0.723304 0.820084
0.744897 0.729660 0.826440
0.863983 0.732056 0.828836
0.983384 0.739678 0.836458
0.070439 0.804351 0.785561
0.186942 0.811787 0.792998
0.300312 0.819024 0.800234
0.410855 0.826080 0.807290
0.520333 0.833067 0.814278
0.631359 0.840154 0.821365
0.747217 0.847549 0.828760
0.870582 0.854224 0.835435
0.989982 0.861846 0.843056
0.079176 0.941224 0.794298
0.195679 0.948660 0.801734
0.309048 0.955897 0.808971
0.419592 0.962953 0.816027
0.529069 0.969941 0.823015
0.640096 0.977027 0.830101
0.755953 0.984423 0.837497
0.878203 0.989982 0.843056
0.989982 0.989982 0.843056
0.076752 0.067600 0.912400
0.185818 0.067600 0.912400
0.291952 0.067600 0.912400
0.395439 0.067600 0.912400
0.497929 0.067600 0.912400
0.601868 0.067600 0.912400
0.710331 0.067600 0.912400
0.827021 0.067600 0.912400
0.940600 0.069400 0.914201
0.077376 0.176243 0.913024
0.193183 0.182984 0.919765
0.299317 0.182984 0.919765
0.402804 0.182984 0.919765
0.505294 0.182984 0.919765
0.609233 0.182984 0.919765
0.717696 0.182984 0.919765
0.834386 0.182984 0.919765
0.947965 0.184784 0.921565
0.077376 0.281357 0.913024
0.193879 0.288793 0.920460
0.306483 0.295265 0.926932
0.409971 0.295265 0.926932
0.512461 0.295265 0.926932
0.616400 0.295265 0.926932
0.724863 0.295265 0.926932
0.841553 0.295265 0.926932
0.955132 0.297065 0.928732
0.077376 0.383851 0.913024
0.193879 0.391287 0.920460
0.307248 0.398523 0.927697
0.416960 0.404747 0.933920
0.519449 0.404747 0.933920
0.623388 0.404747 0.933920
0.731851 0.404747 0.933920
0.848541 0.404747 0.933920
0.962120 0.406547 0.935720
0.077376 0.485356 0.913024
0.193879 0.492792 0.920460
0.307248 0.500029 0.927697
0.417792 0.507085 0.934753
0.526370 0.513173 0.940841
0.630309 0.513173 0.940841
0.738771 0.513173 0.940841
0.855462 0.513173 0.940841
0.969041 0.514973 0.942641
0.077376 0.588297 0.913024
0.193879 0.595734 0.920460
0.307248 0.602970 0.927697
0.417792 0.610026 0.934753
0.527269 0.617014 0.941741
0.637328 0.623132 0.947860
0.745790 0.623132 0.947860
0.862480 0.623132 0.947860
0.976059 0.624932 0.949660
0.077376 0.695718 0.913024
0.193879 0.703155 0.920460
0.307248 0.710391 0.927697
0.417792 0.717447 0.934753
0.527269 0.724435 0.941741
0.638296 0.731522 0.948827
0.753115 0.737878 0.955184
0.869805 0.737878 0.955184
0.983384 0.739678 0.956984
0.077376 0.811287 0.913024
0.193879 0.818724 0.920460
0.307248 0.825960 0.927697
0.417792 0.833016 0.934753
0.527269 0.840004 0.941741
0.638296 0.847091 0.948827
0.754153 0.854486 0.956223
0.877684 0.861327 0.963063
0.991263 0.863127 0.964864
0.079176 0.941224 0.914824
0.195679 0.948660 0.922260
0.309048 0.955897 0.929497
0.419592 0.962953 0.936553
0.529069 0.969941 0.943541
0.640096 0.977027 0.950627
0.755953 0.984423 0.958023
0.880599 0.992379 0.965979
0.998200 0.998200 0.971800
