crates/agx-e2e/fixtures/looks/luts/portra_400.cube
TITLE "portra_400"
LUT_3D_SIZE 33
DOMAIN_MIN 0.0 0.0 0.0
DOMAIN_MAX 1.0 1.0 1.0
0.020880 0.011728 0.037072
0.049114 0.012497 0.037841
0.078344 0.014362 0.039706
0.107409 0.016218 0.041562
0.136279 0.018060 0.043404
0.164938 0.019890 0.045234
0.193382 0.021705 0.047049
0.221615 0.023507 0.048851
0.249648 0.025297 0.050641
0.277498 0.027074 0.052418
0.305187 0.028842 0.054186
0.332742 0.030601 0.055945
0.360192 0.032353 0.057697
0.387571 0.034100 0.059444
0.414917 0.035846 0.061190
0.442269 0.037592 0.062936
0.469669 0.039341 0.064685
0.497164 0.041096 0.066440
0.524799 0.042859 0.068203
0.552625 0.044636 0.069980
0.580695 0.046427 0.071771
0.609065 0.048238 0.073582
0.637790 0.050072 0.075416
0.666932 0.051932 0.077276
0.696553 0.053823 0.079167
0.726720 0.055748 0.081092
0.757501 0.057713 0.083057
0.788969 0.059721 0.085066
0.821200 0.061779 0.087123
0.854272 0.063890 0.089234
0.888270 0.066060 0.091404
0.923281 0.068295 0.093639
0.940600 0.069400 0.094744
0.021631 0.039681 0.037823
0.050842 0.041427 0.039569
0.080072 0.043292 0.041434
0.109137 0.045148 0.043290
0.138007 0.046990 0.045132
0.166666 0.048820 0.046962
0.195110 0.050635 0.048777
0.223343 0.052437 0.050579
0.251376 0.054227 0.052369
0.279226 0.056004 0.054146
0.306915 0.057772 0.055914
0.334470 0.059531 0.057673
0.361920 0.061283 0.059425
0.389299 0.063030 0.061172
0.416645 0.064776 0.062918
0.443997 0.066522 0.064664
0.471397 0.068271 0.066413
0.498892 0.070026 0.068168
0.526527 0.071789 0.069932
0.554353 0.073566 0.071708
0.582423 0.075357 0.073499
0.610793 0.077168 0.075310
0.639518 0.079002 0.077144
0.668660 0.080862 0.079004
0.698281 0.082753 0.080895
0.728448 0.084678 0.082820
0.759229 0.086643 0.084785
0.790697 0.088651 0.086793
0.822928 0.090709 0.088851
0.856000 0.092820 0.090962
0.889998 0.094990 0.093132
0.925009 0.097225 0.095367
0.942328 0.098330 0.096472
0.023478 0.068629 0.039670
0.052048 0.069733 0.040774
0.080072 0.070393 0.041434
0.109137 0.072248 0.043290
0.138007 0.074091 0.045132
0.166666 0.075920 0.046962
0.195110 0.077736 0.048777
0.223343 0.079538 0.050579
0.251376 0.081327 0.052369
0.279226 0.083105 0.054146
0.306915 0.084873 0.055914
0.334470 0.086631 0.057673
0.361920 0.088383 0.059425
0.389299 0.090131 0.061172
0.416645 0.091877 0.062918
0.443997 0.093622 0.064664
0.471397 0.095371 0.066413
0.498892 0.097126 0.068168
0.526527 0.098890 0.069932
0.554353 0.100666 0.071708
0.582423 0.102458 0.073499
0.610793 0.104269 0.075310
0.639518 0.106102 0.077144
0.668660 0.107963 0.079004
0.698281 0.109853 0.080895
0.728448 0.111779 0.082820
0.759229 0.113744 0.084785
0.790697 0.115752 0.086793
0.822928 0.117809 0.088851
0.856000 0.119920 0.090962
0.889998 0.122091 0.093132
0.925009 0.124325 0.095367
0.942328 0.125431 0.096472
0.025316 0.097415 0.041508
0.053886 0.098519 0.042612
0.081249 0.098519 0.042612
0.109137 0.099197 0.043290
0.138007 0.101040 0.045132
0.166666 0.102869 0.046962
0.195110 0.104685 0.048777
0.223343 0.106487 0.050579
0.251376 0.108276 0.052369
0.279226 0.110054 0.054146
0.306915 0.111821 0.055914
0.334470 0.113580 0.057673
0.361920 0.115332 0.059425
0.389299 0.117080 0.061172
0.416645 0.118825 0.062918
0.443997 0.120571 0.064664
0.471397 0.122320 0.066413
0.498892 0.124075 0.068168
0.526527 0.125839 0.069932
0.554353 0.127615 0.071708
0.582423 0.129407 0.073499
0.610793 0.131217 0.075310
0.639518 0.133051 0.077144
0.668660 0.134911 0.079004
0.698281 0.136802 0.080895
0.728448 0.138727 0.082820
0.759229 0.140692 0.084785
0.790697 0.142701 0.086793
0.822928 0.144758 0.088851
0.856000 0.146869 0.090962
0.889998 0.149039 0.093132
0.925009 0.151274 0.095367
0.942328 0.152379 0.096472
0.027141 0.126008 0.043333
0.055711 0.127112 0.044437
0.083074 0.127112 0.044437
0.110284 0.127112 0.044437
0.138007 0.127807 0.045132
0.166666 0.129637 0.046962
0.195110 0.131452 0.048777
0.223343 0.133254 0.050579
0.251376 0.135044 0.052369
0.279226 0.136821 0.054146
0.306915 0.138589 0.055914
0.334470 0.140348 0.057673
0.361920 0.142100 0.059425
0.389299 0.143847 0.061172
0.416645 0.145593 0.062918
0.443997 0.147339 0.064664
0.471397 0.149088 0.066413
0.498892 0.150843 0.068168
0.526527 0.152607 0.069932
0.554353 0.154383 0.071708
0.582423 0.156174 0.073499
0.610793 0.157985 0.075310
0.639518 0.159819 0.077144
0.668660 0.161679 0.079004
0.698281 0.163570 0.080895
0.728448 0.165495 0.082820
0.759229 0.167460 0.084785
0.790697 0.169468 0.086793
0.822928 0.171526 0.088851
0.856000 0.173637 0.090962
0.889998 0.175807 0.093132
0.925009 0.178042 0.095367
0.942328 0.179147 0.096472
0.028953 0.154392 0.045145
0.057522 0.155496 0.046249
0.084886 0.155496 0.046249
0.112096 0.155496 0.046249
0.139123 0.155496 0.046249
0.166666 0.156209 0.046962
0.195110 0.158025 0.048777
0.223343 0.159827 0.050579
0.251376 0.161616 0.052369
0.279226 0.163394 0.054146
0.306915 0.165161 0.055914
0.334470 0.166920 0.057673
0.361920 0.168672 0.059425
0.389299 0.170420 0.061172
0.416645 0.172165 0.062918
0.443997 0.173911 0.064664
0.471397 0.175660 0.066413
0.498892 0.177415 0.068168
0.526527 0.179179 0.069932
0.554353 0.180955 0.071708
0.582423 0.182747 0.073499
0.610793 0.184558 0.075310
0.639518 0.186391 0.077144
0.668660 0.188251 0.079004
0.698281 0.190142 0.080895
0.728448 0.192068 0.082820
0.759229 0.194032 0.084785
0.790697 0.196041 0.086793
0.822928 0.198098 0.088851
0.856000 0.200209 0.090962
0.889998 0.202379 0.093132
0.925009 0.204614 0.095367
0.942328 0.205719 0.096472
0.030751 0.182563 0.046943
0.059321 0.183667 0.048047
0.086684 0.183667 0.048047
0.113894 0.183667 0.048047
0.140921 0.183667 0.048047
0.167751 0.183667 0.048047
0.195110 0.184398 0.048777
0.223343 0.186200 0.050579
0.251376 0.187989 0.052369
0.279226 0.189767 0.054146
0.306915 0.191534 0.055914
0.334470 0.193293 0.057673
0.361920 0.195045 0.059425
0.389299 0.196793 0.061172
0.416645 0.198538 0.062918
0.443997 0.200284 0.064664
0.471397 0.202033 0.066413
0.498892 0.203788 0.068168
0.526527 0.205552 0.069932
0.554353 0.207328 0.071708
0.582423 0.209120 0.073499
0.610793 0.210930 0.075310
0.639518 0.212764 0.077144
0.668660 0.214624 0.079004
0.698281 0.216515 0.080895
0.728448 0.218440 0.082820
0.759229 0.220405 0.084785
0.790697 0.222414 0.086793
0.822928 0.224471 0.088851
0.856000 0.226582 0.090962
0.889998 0.228752 0.093132
0.925009 0.230987 0.095367
0.942328 0.232092 0.096472
0.032536 0.210525 0.048728
0.061105 0.211629 0.049832
0.088469 0.211629 0.049832
0.115679 0.211629 0.049832
0.142706 0.211629 0.049832
0.169536 0.211629 0.049832
0.196165 0.211629 0.049832
0.223343 0.212377 0.050579
0.251376 0.214166 0.052369
0.279226 0.215944 0.054146
0.306915 0.217711 0.055914
0.334470 0.219470 0.057673
0.361920 0.221222 0.059425
0.389299 0.222970 0.061172
0.416645 0.224715 0.062918
0.443997 0.226461 0.064664
0.471397 0.228210 0.066413
0.498892 0.229965 0.068168
0.526527 0.231729 0.069932
0.554353 0.233505 0.071708
0.582423 0.235297 0.073499
0.610793 0.237108 0.075310
0.639518 0.238941 0.077144
0.668660 0.240801 0.079004
0.698281 0.242692 0.080895
0.728448 0.244617 0.082820
0.759229 0.246582 0.084785
0.790697 0.248591 0.086793
0.822928 0.250648 0.088851
0.856000 0.252759 0.090962
0.889998 0.254929 0.093132
0.925009 0.257164 0.095367
0.942328 0.258269 0.096472
0.034308 0.238289 0.050500
0.062878 0.239393 0.051604
0.090241 0.239393 0.051604
0.117451 0.239393 0.051604
0.144478 0.239393 0.051604
0.171308 0.239393 0.051604
0.197937 0.239393 0.051604
0.224368 0.239393 0.051604
0.251376 0.240158 0.052369
0.279226 0.241935 0.054146
0.306915 0.243703 0.055914
0.334470 0.245462 0.057673
0.361920 0.247214 0.059425
0.389299 0.248961 0.061172
0.416645 0.250707 0.062918
0.443997 0.252453 0.064664
0.471397 0.254202 0.066413
0.498892 0.255957 0.068168
0.526527 0.257720 0.069932
0.554353 0.259497 0.071708
0.582423 0.261288 0.073499
0.610793 0.263099 0.075310
0.639518 0.264933 0.077144
0.668660 0.266793 0.079004
0.698281 0.268684 0.080895
0.728448 0.270609 0.082820
0.759229 0.272574 0.084785
0.790697 0.274582 0.086793
0.822928 0.276640 0.088851
0.856000 0.278751 0.090962
0.889998 0.280921 0.093132
0.925009 0.283156 0.095367
0.942328 0.284261 0.096472
0.036068 0.265871 0.052260
0.064638 0.266975 0.053364
0.092002 0.266975 0.053364
0.119212 0.266975 0.053364
0.146239 0.266975 0.053364
0.173069 0.266975 0.053364
0.199697 0.266975 0.053364
0.226128 0.266975 0.053364
0.252372 0.266975 0.053364
0.279226 0.267757 0.054146
0.306915 0.269525 0.055914
0.334470 0.271283 0.057673
0.361920 0.273036 0.059425
0.389299 0.274783 0.061172
0.416645 0.276529 0.062918
0.443997 0.278275 0.064664
0.471397 0.280024 0.066413
0.498892 0.281778 0.068168
0.526527 0.283542 0.069932
0.554353 0.285319 0.071708
0.582423 0.287110 0.073499
0.610793 0.288921 0.075310
0.639518 0.290755 0.077144
0.668660 0.292615 0.079004
0.698281 0.294505 0.080895
0.728448 0.296431 0.082820
0.759229 0.298396 0.084785
0.790697 0.300404 0.086793
0.822928 0.302462 0.088851
0.856000 0.304573 0.090962
0.889998 0.306743 0.093132
0.925009 0.308978 0.095367
0.942328 0.310083 0.096472
0.037819 0.293294 0.054011
0.066389 0.294398 0.055115
0.093752 0.294398 0.055115
0.120962 0.294398 0.055115
0.147989 0.294398 0.055115
0.174819 0.294398 0.055115
0.201448 0.294398 0.055115
0.227879 0.294398 0.055115
0.254123 0.294398 0.055115
0.280195 0.294398 0.055115
0.306915 0.295197 0.055914
0.334470 0.296956 0.057673
0.361920 0.298708 0.059425
0.389299 0.300456 0.061172
0.416645 0.302201 0.062918
0.443997 0.303947 0.064664
0.471397 0.305696 0.066413
0.498892 0.307451 0.068168
0.526527 0.309215 0.069932
0.554353 0.310991 0.071708
0.582423 0.312783 0.073499
0.610793 0.314594 0.075310
0.639518 0.316427 0.077144
0.668660 0.318287 0.079004
0.698281 0.320178 0.080895
0.728448 0.322104 0.082820
0.759229 0.324068 0.084785
0.790697 0.326077 0.086793
0.822928 0.328134 0.088851
0.856000 0.330245 0.090962
0.889998 0.332415 0.093132
0.925009 0.334650 0.095367
0.942328 0.335756 0.096472
0.039561 0.320584 0.055753
0.068130 0.321688 0.056857
0.095494 0.321688 0.056857
0.122704 0.321688 0.056857
0.149731 0.321688 0.056857
0.176561 0.321688 0.056857
0.203190 0.321688 0.056857
0.229621 0.321688 0.056857
0.255864 0.321688 0.056857
0.281937 0.321688 0.056857
0.307858 0.321688 0.056857
0.334470 0.322504 0.057673
0.361920 0.324256 0.059425
0.389299 0.326004 0.061172
0.416645 0.327749 0.062918
0.443997 0.329495 0.064664
0.471397 0.331244 0.066413
0.498892 0.332999 0.068168
0.526527 0.334763 0.069932
0.554353 0.336539 0.071708
0.582423 0.338331 0.073499
0.610793 0.340142 0.075310
0.639518 0.341975 0.077144
0.668660 0.343835 0.079004
0.698281 0.345726 0.080895
0.728448 0.347652 0.082820
0.759229 0.349616 0.084785
0.790697 0.351625 0.086793
0.822928 0.353682 0.088851
0.856000 0.355793 0.090962
0.889998 0.357963 0.093132
0.925009 0.360198 0.095367
0.942328 0.361303 0.096472
0.041296 0.347771 0.057488
0.069866 0.348875 0.058592
0.097229 0.348875 0.058592
0.124439 0.348875 0.058592
0.151466 0.348875 0.058592
0.178297 0.348875 0.058592
0.204925 0.348875 0.058592
0.231356 0.348875 0.058592
0.257600 0.348875 0.058592
0.283672 0.348875 0.058592
0.309594 0.348875 0.058592
0.335389 0.348875 0.058592
0.361920 0.349707 0.059425
0.389299 0.351455 0.061172
0.416645 0.353200 0.062918
0.443997 0.354946 0.064664
0.471397 0.356695 0.066413
0.498892 0.358450 0.068168
0.526527 0.360214 0.069932
0.554353 0.361990 0.071708
0.582423 0.363782 0.073499
0.610793 0.365593 0.075310
0.639518 0.367426 0.077144
0.668660 0.369286 0.079004
0.698281 0.371177 0.080895
0.728448 0.373103 0.082820
0.759229 0.375068 0.084785
0.790697 0.377076 0.086793
0.822928 0.379133 0.088851
0.856000 0.381244 0.090962
0.889998 0.383414 0.093132
0.925009 0.385649 0.095367
0.942328 0.386755 0.096472
0.043027 0.374887 0.059219
0.071597 0.375991 0.060323
0.098960 0.375991 0.060323
0.126170 0.375991 0.060323
0.153197 0.375991 0.060323
0.180027 0.375991 0.060323
0.206656 0.375991 0.060323
0.233087 0.375991 0.060323
0.259331 0.375991 0.060323
0.285403 0.375991 0.060323
0.311325 0.375991 0.060323
0.337120 0.375991 0.060323
0.362818 0.375991 0.060323
0.389299 0.376841 0.061172
0.416645 0.378586 0.062918
0.443997 0.380332 0.064664
0.471397 0.382081 0.066413
0.498892 0.383836 0.068168
0.526527 0.385600 0.069932
0.554353 0.387376 0.071708
0.582423 0.389168 0.073499
0.610793 0.390979 0.075310
0.639518 0.392812 0.077144
0.668660 0.394672 0.079004
0.698281 0.396563 0.080895
0.728448 0.398488 0.082820
0.759229 0.400453 0.084785
0.790697 0.402462 0.086793
0.822928 0.404519 0.088851
0.856000 0.406630 0.090962
0.889998 0.408800 0.093132
0.925009 0.411035 0.095367
0.942328 0.412140 0.096472
0.044756 0.401970 0.060947
0.073325 0.403074 0.062052
0.100689 0.403074 0.062052
0.127899 0.403074 0.062052
0.154926 0.403074 0.062052
0.181756 0.403074 0.062052
0.208385 0.403074 0.062052
0.234816 0.403074 0.062052
0.261059 0.403074 0.062052
0.287132 0.403074 0.062052
0.313053 0.403074 0.062052
0.338849 0.403074 0.062052
0.364547 0.403074 0.062052
0.390179 0.403074 0.062052
0.416645 0.403941 0.062918
0.443997 0.405686 0.064664
0.471397 0.407435 0.066413
0.498892 0.409190 0.068168
0.526527 0.410954 0.069932
0.554353 0.412730 0.071708
0.582423 0.414522 0.073499
0.610793 0.416333 0.075310
0.639518 0.418167 0.077144
0.668660 0.420027 0.079004
0.698281 0.421917 0.080895
0.728448 0.423843 0.082820
0.759229 0.425808 0.084785
0.790697 0.427816 0.086793
0.822928 0.429874 0.088851
0.856000 0.431985 0.090962
0.889998 0.434155 0.093132
0.925009 0.436389 0.095367
0.942328 0.437495 0.096472
0.046485 0.429060 0.062677
0.075055 0.430164 0.063781
0.102418 0.430164 0.063781
0.129628 0.430164 0.063781
0.156655 0.430164 0.063781
0.183485 0.430164 0.063781
0.210114 0.430164 0.063781
0.236545 0.430164 0.063781
0.262788 0.430164 0.063781
0.288861 0.430164 0.063781
0.314782 0.430164 0.063781
0.340578 0.430164 0.063781
0.366276 0.430164 0.063781
0.391908 0.430164 0.063781
0.417508 0.430164 0.063781
0.443997 0.431047 0.064664
0.471397 0.432795 0.066413
0.498892 0.434550 0.068168
0.526527 0.436314 0.069932
0.554353 0.438091 0.071708
0.582423 0.439882 0.073499
0.610793 0.441693 0.075310
0.639518 0.443527 0.077144
0.668660 0.445387 0.079004
0.698281 0.447277 0.080895
0.728448 0.449203 0.082820
0.759229 0.451168 0.084785
0.790697 0.453176 0.086793
0.822928 0.455234 0.088851
0.856000 0.457345 0.090962
0.889998 0.459515 0.093132
0.925009 0.461749 0.095367
0.942328 0.462855 0.096472
0.048217 0.456197 0.064409
0.076787 0.457301 0.065513
0.104150 0.457301 0.065513
0.131360 0.457301 0.065513
0.158387 0.457301 0.065513
0.185217 0.457301 0.065513
0.211846 0.457301 0.065513
0.238277 0.457301 0.065513
0.264521 0.457301 0.065513
0.290593 0.457301 0.065513
0.316515 0.457301 0.065513
0.342310 0.457301 0.065513
0.368008 0.457301 0.065513
0.393640 0.457301 0.065513
0.419240 0.457301 0.065513
0.444846 0.457301 0.065513
0.471397 0.458201 0.066413
0.498892 0.459956 0.068168
0.526527 0.461719 0.069932
0.554353 0.463496 0.071708
0.582423 0.465287 0.073499
0.610793 0.467098 0.075310
0.639518 0.468932 0.077144
0.668660 0.470792 0.079004
0.698281 0.472683 0.080895
0.728448 0.474608 0.082820
0.759229 0.476573 0.084785
0.790697 0.478581 0.086793
0.822928 0.480639 0.088851
0.856000 0.482750 0.090962
0.889998 0.484920 0.093132
0.925009 0.487155 0.095367
0.942328 0.488260 0.096472
0.049955 0.483427 0.066147
0.078525 0.484531 0.067251
0.105888 0.484531 0.067251
0.133098 0.484531 0.067251
0.160125 0.484531 0.067251
0.186955 0.484531 0.067251
0.213584 0.484531 0.067251
0.240015 0.484531 0.067251
0.266259 0.484531 0.067251
0.292331 0.484531 0.067251
0.318253 0.484531 0.067251
0.344048 0.484531 0.067251
0.369746 0.484531 0.067251
0.395378 0.484531 0.067251
0.420978 0.484531 0.067251
0.446584 0.484531 0.067251
0.472236 0.484531 0.067251
0.498892 0.485447 0.068168
0.526527 0.487211 0.069932
0.554353 0.488988 0.071708
0.582423 0.490779 0.073499
0.610793 0.492590 0.075310
0.639518 0.494424 0.077144
0.668660 0.496284 0.079004
0.698281 0.498174 0.080895
0.728448 0.500100 0.082820
0.759229 0.502065 0.084785
0.790697 0.504073 0.086793
0.822928 0.506131 0.088851
0.856000 0.508242 0.090962
0.889998 0.510412 0.093132
0.925009 0.512646 0.095367
0.942328 0.513752 0.096472
0.051702 0.510797 0.067894
0.080272 0.511901 0.068998
0.107635 0.511901 0.068998
0.134845 0.511901 0.068998
0.161872 0.511901 0.068998
0.188702 0.511901 0.068998
0.215331 0.511901 0.068998
0.241762 0.511901 0.068998
0.268006 0.511901 0.068998
0.294078 0.511901 0.068998
0.320000 0.511901 0.068998
0.345795 0.511901 0.068998
0.371493 0.511901 0.068998
0.397125 0.511901 0.068998
0.422725 0.511901 0.068998
0.448331 0.511901 0.068998
0.473983 0.511901 0.068998
0.499722 0.511901 0.068998
0.526527 0.512834 0.069932
0.554353 0.514610 0.071708
0.582423 0.516402 0.073499
0.610793 0.518213 0.075310
0.639518 0.520046 0.077144
0.668660 0.521906 0.079004
0.698281 0.523797 0.080895
0.728448 0.525723 0.082820
0.759229 0.527687 0.084785
0.790697 0.529696 0.086793
0.822928 0.531753 0.088851
0.856000 0.533864 0.090962
0.889998 0.536034 0.093132
0.925009 0.538269 0.095367
0.942328 0.539375 0.096472
0.053461 0.538356 0.069653
0.082031 0.539460 0.070757
0.109394 0.539460 0.070757
0.136604 0.539460 0.070757
0.163632 0.539460 0.070757
0.190461 0.539460 0.070757
0.217090 0.539460 0.070757
0.243521 0.539460 0.070757
0.269765 0.539460 0.070757
0.295837 0.539460 0.070757
0.321759 0.539460 0.070757
0.347554 0.539460 0.070757
0.373252 0.539460 0.070757
0.398884 0.539460 0.070757
0.424485 0.539460 0.070757
0.450091 0.539460 0.070757
0.475742 0.539460 0.070757
0.501481 0.539460 0.070757
0.527352 0.539460 0.070757
0.554353 0.540410 0.071708
0.582423 0.542202 0.073499
0.610793 0.544013 0.075310
0.639518 0.545847 0.077144
0.668660 0.547707 0.079004
0.698281 0.549597 0.080895
0.728448 0.551523 0.082820
0.759229 0.553488 0.084785
0.790697 0.555496 0.086793
0.822928 0.557554 0.088851
0.856000 0.559665 0.090962
0.889998 0.561835 0.093132
0.925009 0.564069 0.095367
0.942328 0.565175 0.096472
0.055236 0.566157 0.071427
0.083805 0.567261 0.072532
0.111169 0.567261 0.072532
0.138379 0.567261 0.072532
0.165406 0.567261 0.072532
0.192236 0.567261 0.072532
0.218865 0.567261 0.072532
0.245296 0.567261 0.072532
0.271539 0.567261 0.072532
0.297612 0.567261 0.072532
0.323533 0.567261 0.072532
0.349329 0.567261 0.072532
0.375027 0.567261 0.072532
0.400659 0.567261 0.072532
0.426259 0.567261 0.072532
0.451865 0.567261 0.072532
0.477516 0.567261 0.072532
0.503255 0.567261 0.072532
0.529127 0.567261 0.072532
0.555177 0.567261 0.072532
0.582423 0.568228 0.073499
0.610793 0.570039 0.075310
0.639518 0.571873 0.077144
0.668660 0.573733 0.079004
0.698281 0.575624 0.080895
0.728448 0.577549 0.082820
0.759229 0.579514 0.084785
0.790697 0.581522 0.086793
0.822928 0.583580 0.088851
0.856000 0.585691 0.090962
0.889998 0.587861 0.093132
0.925009 0.590096 0.095367
0.942328 0.591201 0.096472
0.057029 0.594253 0.073221
0.085599 0.595357 0.074325
0.112962 0.595357 0.074325
0.140172 0.595357 0.074325
0.167199 0.595357 0.074325
0.194029 0.595357 0.074325
0.220658 0.595357 0.074325
0.247089 0.595357 0.074325
0.273333 0.595357 0.074325
0.299405 0.595357 0.074325
0.325327 0.595357 0.074325
0.351122 0.595357 0.074325
0.376820 0.595357 0.074325
0.402452 0.595357 0.074325
0.428052 0.595357 0.074325
0.453658 0.595357 0.074325
0.479310 0.595357 0.074325
0.505049 0.595357 0.074325
0.530920 0.595357 0.074325
0.556971 0.595357 0.074325
0.583249 0.595357 0.074325
0.610793 0.596342 0.075310
0.639518 0.598176 0.077144
0.668660 0.600036 0.079004
0.698281 0.601927 0.080895
0.728448 0.603852 0.082820
0.759229 0.605817 0.084785
0.790697 0.607826 0.086793
0.822928 0.609883 0.088851
0.856000 0.611994 0.090962
0.889998 0.614164 0.093132
0.925009 0.616399 0.095367
0.942328 0.617504 0.096472
0.058845 0.622703 0.075037
0.087415 0.623807 0.076141
0.114778 0.623807 0.076141
0.141988 0.623807 0.076141
0.169015 0.623807 0.076141
0.195846 0.623807 0.076141
0.222474 0.623807 0.076141
0.248905 0.623807 0.076141
0.275149 0.623807 0.076141
0.301221 0.623807 0.076141
0.327143 0.623807 0.076141
0.352938 0.623807 0.076141
0.378636 0.623807 0.076141
0.404268 0.623807 0.076141
0.429868 0.623807 0.076141
0.455474 0.623807 0.076141
0.481126 0.623807 0.076141
0.506865 0.623807 0.076141
0.532736 0.623807 0.076141
0.558787 0.623807 0.076141
0.585065 0.623807 0.076141
0.611623 0.623807 0.076141
0.639518 0.624810 0.077144
0.668660 0.626670 0.079004
0.698281 0.628560 0.080895
0.728448 0.630486 0.082820
0.759229 0.632451 0.084785
0.790697 0.634459 0.086793
0.822928 0.636517 0.088851
0.856000 0.638627 0.090962
0.889998 0.640798 0.093132
0.925009 0.643032 0.095367
0.942328 0.644138 0.096472
0.060687 0.651565 0.076879
0.089257 0.652669 0.077983
0.116621 0.652669 0.077983
0.143830 0.652669 0.077983
0.170858 0.652669 0.077983
0.197688 0.652669 0.077983
0.224316 0.652669 0.077983
0.250747 0.652669 0.077983
0.276991 0.652669 0.077983
0.303063 0.652669 0.077983
0.328985 0.652669 0.077983
0.354780 0.652669 0.077983
0.380478 0.652669 0.077983
0.406110 0.652669 0.077983
0.431711 0.652669 0.077983
0.457317 0.652669 0.077983
0.482968 0.652669 0.077983
0.508707 0.652669 0.077983
0.534578 0.652669 0.077983
0.560629 0.652669 0.077983
0.586907 0.652669 0.077983
0.613466 0.652669 0.077983
0.640357 0.652669 0.077983
0.668660 0.653690 0.079004
0.698281 0.655580 0.080895
0.728448 0.657506 0.082820
0.759229 0.659470 0.084785
0.790697 0.661479 0.086793
0.822928 0.663536 0.088851
0.856000 0.665647 0.090962
0.889998 0.667817 0.093132
0.925009 0.670052 0.095367
0.942328 0.671158 0.096472
0.062560 0.680902 0.078752
0.091129 0.682006 0.079856
0.118493 0.682006 0.079856
0.145703 0.682006 0.079856
0.172730 0.682006 0.079856
0.199560 0.682006 0.079856
0.226189 0.682006 0.079856
0.252620 0.682006 0.079856
0.278863 0.682006 0.079856
0.304936 0.682006 0.079856
0.330857 0.682006 0.079856
0.356653 0.682006 0.079856
0.382351 0.682006 0.079856
0.407983 0.682006 0.079856
0.433583 0.682006 0.079856
0.459189 0.682006 0.079856
0.484841 0.682006 0.079856
0.510580 0.682006 0.079856
0.536451 0.682006 0.079856
0.562501 0.682006 0.079856
0.588780 0.682006 0.079856
0.615338 0.682006 0.079856
0.642230 0.682006 0.079856
0.669512 0.682006 0.079856
0.698281 0.683045 0.080895
0.728448 0.684970 0.082820
0.759229 0.686935 0.084785
0.790697 0.688944 0.086793
0.822928 0.691001 0.088851
0.856000 0.693112 0.090962
0.889998 0.695282 0.093132
0.925009 0.697517 0.095367
0.942328 0.698622 0.096472
0.064467 0.710779 0.080659
0.093037 0.711883 0.081763
0.120400 0.711883 0.081763
0.147610 0.711883 0.081763
0.174637 0.711883 0.081763
0.201467 0.711883 0.081763
0.228096 0.711883 0.081763
0.254527 0.711883 0.081763
0.280771 0.711883 0.081763
0.306843 0.711883 0.081763
0.332764 0.711883 0.081763
0.358560 0.711883 0.081763
0.384258 0.711883 0.081763
0.409890 0.711883 0.081763
0.435490 0.711883 0.081763
0.461096 0.711883 0.081763
0.486748 0.711883 0.081763
0.512487 0.711883 0.081763
0.538358 0.711883 0.081763
0.564408 0.711883 0.081763
0.590687 0.711883 0.081763
0.617245 0.711883 0.081763
0.644137 0.711883 0.081763
0.671419 0.711883 0.081763
0.699150 0.711883 0.081763
0.728448 0.712940 0.082820
0.759229 0.714905 0.084785
0.790697 0.716914 0.086793
0.822928 0.718971 0.088851
0.856000 0.721082 0.090962
0.889998 0.723252 0.093132
0.925009 0.725487 0.095367
0.942328 0.726592 0.096472
0.066413 0.741264 0.082605
0.094983 0.742368 0.083709
0.122346 0.742368 0.083709
0.149556 0.742368 0.083709
0.176583 0.742368 0.083709
0.203413 0.742368 0.083709
0.230042 0.742368 0.083709
0.256473 0.742368 0.083709
0.282716 0.742368 0.083709
0.308789 0.742368 0.083709
0.334710 0.742368 0.083709
0.360506 0.742368 0.083709
0.386204 0.742368 0.083709
0.411836 0.742368 0.083709
0.437436 0.742368 0.083709
0.463042 0.742368 0.083709
0.488694 0.742368 0.083709
0.514433 0.742368 0.083709
0.540304 0.742368 0.083709
0.566354 0.742368 0.083709
0.592633 0.742368 0.083709
0.619191 0.742368 0.083709
0.646083 0.742368 0.083709
0.673365 0.742368 0.083709
0.701096 0.742368 0.083709
0.729337 0.742368 0.083709
0.759229 0.743445 0.084785
