crates/agx-e2e/fixtures/looks/luts/portra_400.cube
TITLE "portra_400"
LUT_3D_SIZE 5
DOMAIN_MIN 0.0 0.0 0.0
DOMAIN_MAX 1.0 1.0 1.0
0.020880 0.011728 0.037072
0.249648 0.025297 0.050641
0.469669 0.039341 0.064685
0.696553 0.053823 0.079167
0.940600 0.069400 0.094744
0.034308 0.238289 0.050500
0.251376 0.240158 0.052369
0.471397 0.254202 0.066413
0.698281 0.268684 0.080895
0.942328 0.284261 0.096472
0.048217 0.456197 0.064409
0.264521 0.457301 0.065513
0.471397 0.458201 0.066413
0.698281 0.472683 0.080895
0.942328 0.488260 0.096472
0.062560 0.680902 0.078752
0.278863 0.682006 0.079856
0.484841 0.682006 0.079856
0.698281 0.683045 0.080895
0.942328 0.698622 0.096472
0.079176 0.941224 0.095368
0.295480 0.942328 0.096472
0.501457 0.942328 0.096472
0.713859 0.942328 0.096472
0.942328 0.942328 0.096472
0.034549 0.025397 0.251215
0.249748 0.025397 0.251215
0.469669 0.039341 0.265159
0.696553 0.053823 0.279641
0.940600 0.069400 0.295219
0.035173 0.239154 0.251839
0.264280 0.253061 0.265747
0.484201 0.267005 0.279691
0.711085 0.281487 0.294173
0.955132 0.297065 0.309750
0.048217 0.456197 0.264883
0.278089 0.470870 0.279556
0.485066 0.471869 0.280555
0.711950 0.486351 0.295037
0.955997 0.501929 0.310615
0.062560 0.680902 0.279226
0.292432 0.695574 0.293899
0.498509 0.695674 0.293999
0.711950 0.696713 0.295037
0.955997 0.712291 0.310615
0.079176 0.941224 0.295842
0.309048 0.955897 0.310515
0.515126 0.955997 0.310615
0.727528 0.955997 0.310615
0.955997 0.955997 0.310615
0.047632 0.038480 0.456180
0.262831 0.038480 0.456180
0.469669 0.039341 0.457042
0.696553 0.053823 0.471523
0.940600 0.069400 0.487101
0.048256 0.252237 0.456804
0.277363 0.266144 0.470712
0.484201 0.267005 0.471573
0.711085 0.281487 0.486055
0.955132 0.297065 0.501633
0.048256 0.456236 0.456804
0.278128 0.470908 0.471477
0.498110 0.484913 0.485482
0.724994 0.499395 0.499964
0.969041 0.514973 0.515542
0.062560 0.680902 0.471108
0.292432 0.695574 0.485781
0.511592 0.708757 0.498964
0.725033 0.709796 0.500003
0.969080 0.725374 0.515581
0.079176 0.941224 0.487725
0.309048 0.955897 0.502398
0.528209 0.969080 0.515581
0.740611 0.969080 0.515581
0.969080 0.969080 0.515581
0.061123 0.051971 0.667539
0.276322 0.051971 0.667539
0.482299 0.051971 0.667539
0.696553 0.053823 0.669391
0.940600 0.069400 0.684969
0.061747 0.265727 0.668163
0.290854 0.279635 0.682071
0.496831 0.279635 0.682071
0.711085 0.281487 0.683923
0.955132 0.297065 0.699501
0.061747 0.469727 0.668163
0.291619 0.484399 0.682836
0.510740 0.497543 0.695980
0.724994 0.499395 0.697832
0.969041 0.514973 0.713410
0.062560 0.680902 0.668976
0.292432 0.695574 0.683649
0.512453 0.709618 0.697693
0.738524 0.723287 0.711362
0.982571 0.738865 0.726939
0.079176 0.941224 0.685593
0.309048 0.955897 0.700265
0.529069 0.969941 0.714309
0.754101 0.982571 0.726939
0.982571 0.982571 0.726939
0.076752 0.067600 0.912400
0.291952 0.067600 0.912400
0.497929 0.067600 0.912400
0.710331 0.067600 0.912400
0.940600 0.069400 0.914201
0.077376 0.281357 0.913024
0.306483 0.295265 0.926932
0.512461 0.295265 0.926932
0.724863 0.295265 0.926932
0.955132 0.297065 0.928732
0.077376 0.485356 0.913024
0.307248 0.500029 0.927697
0.526370 0.513173 0.940841
0.738771 0.513173 0.940841
0.969041 0.514973 0.942641
0.077376 0.695718 0.913024
0.307248 0.710391 0.927697
0.527269 0.724435 0.941741
0.753115 0.737878 0.955184
0.983384 0.739678 0.956984
0.079176 0.941224 0.914824
0.309048 0.955897 0.929497
0.529069 0.969941 0.943541
0.755953 0.984423 0.958023
0.998200 0.998200 0.971800
