crates/agx-e2e/fixtures/looks/luts/tmax_100.cube
TITLE "tmax_100"
LUT_3D_SIZE 9
DOMAIN_MIN 0.0 0.0 0.0
DOMAIN_MAX 1.0 1.0 1.0
0.014400 0.015600 0.016800
0.028283 0.029465 0.030665
0.052159 0.053312 0.054512
0.081944 0.083061 0.084261
0.116366 0.117441 0.118641
0.151057 0.152088 0.153288
0.181652 0.182646 0.183846
0.206833 0.207797 0.208997
0.221898 0.222842 0.224042
0.061102 0.062244 0.063444
0.074984 0.076110 0.077310
0.098861 0.099957 0.101157
0.128646 0.129705 0.130905
0.163068 0.164085 0.165285
0.197758 0.198733 0.199933
0.228353 0.229290 0.230490
0.253535 0.254441 0.255641
0.268599 0.269487 0.270687
0.141423 0.142467 0.143667
0.155306 0.156333 0.157533
0.179182 0.180180 0.181380
0.208968 0.209928 0.211128
0.243390 0.244308 0.245508
0.278080 0.278956 0.280156
0.308675 0.309513 0.310713
0.333857 0.334664 0.335864
0.348921 0.349710 0.350910
0.241623 0.242544 0.243744
0.255505 0.256409 0.257609
0.279382 0.280256 0.281456
0.309167 0.310005 0.311205
0.343589 0.344385 0.345585
0.378279 0.379032 0.380232
0.408874 0.409589 0.410789
0.434056 0.434740 0.435940
0.449120 0.449786 0.450986
0.357422 0.358200 0.359400
0.371304 0.372065 0.373265
0.395181 0.395912 0.397112
0.424966 0.425661 0.426861
0.459388 0.460041 0.461241
0.494078 0.494688 0.495888
0.524673 0.525246 0.526446
0.549855 0.550397 0.551597
0.564919 0.565442 0.566642
0.474121 0.474756 0.475956
0.488004 0.488622 0.489822
0.511880 0.512469 0.513669
0.541665 0.542217 0.543417
0.576088 0.576597 0.577797
0.610778 0.611244 0.612445
0.641373 0.641802 0.643002
0.666555 0.666953 0.668153
0.681619 0.681998 0.683198
0.577045 0.577553 0.578753
0.590927 0.591419 0.592619
0.614804 0.615266 0.616466
0.644589 0.645014 0.646214
0.679011 0.679394 0.680594
0.713701 0.714042 0.715242
0.744296 0.744599 0.745799
0.769478 0.769750 0.770950
0.784543 0.784796 0.785996
0.661758 0.662162 0.663362
0.675640 0.676027 0.677227
0.699517 0.699874 0.701074
0.729302 0.729623 0.730823
0.763724 0.764003 0.765203
0.798414 0.798650 0.799850
0.829009 0.829208 0.830408
0.854191 0.854358 0.855558
0.869255 0.869404 0.870604
0.712435 0.712777 0.713977
0.726318 0.726642 0.727842
0.750194 0.750489 0.751689
0.779979 0.780238 0.781438
0.814402 0.814618 0.815818
0.849092 0.849265 0.850465
0.879687 0.879823 0.881023
0.904868 0.904974 0.906174
0.919933 0.920019 0.921219
0.019115 0.020309 0.021509
0.032997 0.034174 0.035374
0.056873 0.058021 0.059221
0.086659 0.087770 0.088970
0.121081 0.122150 0.123350
0.155771 0.156797 0.157997
0.186366 0.187355 0.188555
0.211548 0.212505 0.213705
0.226612 0.227551 0.228751
0.065816 0.066953 0.068153
0.079699 0.080819 0.082019
0.103575 0.104666 0.105866
0.133361 0.134414 0.135614
0.167783 0.168794 0.169994
0.202473 0.203442 0.204642
0.233068 0.233999 0.235199
0.258250 0.259150 0.260350
0.273314 0.274196 0.275396
0.146138 0.147176 0.148376
0.160020 0.161041 0.162241
0.183897 0.184888 0.186088
0.213682 0.214637 0.215837
0.248104 0.249017 0.250217
0.282794 0.283664 0.284864
0.313389 0.314222 0.315422
0.338571 0.339373 0.340573
0.353636 0.354418 0.355618
0.246337 0.247252 0.248452
0.260220 0.261118 0.262318
0.284096 0.284965 0.286165
0.313882 0.314713 0.315913
0.348304 0.349093 0.350293
0.382994 0.383741 0.384941
0.413589 0.414298 0.415498
0.438771 0.439449 0.440649
0.453835 0.454495 0.455695
0.362136 0.362909 0.364109
0.376019 0.376774 0.377974
0.399895 0.400621 0.401821
0.429680 0.430370 0.431570
0.464103 0.464750 0.465950
0.498793 0.499397 0.500597
0.529388 0.529955 0.531155
0.554569 0.555105 0.556305
0.569634 0.570151 0.571351
0.478836 0.479465 0.480665
0.492718 0.493330 0.494530
0.516595 0.517177 0.518377
0.546380 0.546926 0.548126
0.580802 0.581306 0.582506
0.615492 0.615953 0.617153
0.646087 0.646511 0.647711
0.671269 0.671661 0.672861
0.686333 0.686707 0.687907
0.581760 0.582262 0.583462
0.595642 0.596127 0.597327
0.619518 0.619974 0.621174
0.649304 0.649723 0.650923
0.683726 0.684103 0.685303
0.718416 0.718750 0.719950
0.749011 0.749308 0.750508
0.774193 0.774459 0.775659
0.789257 0.789504 0.790704
0.666472 0.666870 0.668070
0.680355 0.680736 0.681936
0.704231 0.704583 0.705783
0.734016 0.734332 0.735532
0.768439 0.768712 0.769912
0.803129 0.803359 0.804559
0.833724 0.833916 0.835116
0.858905 0.859067 0.860267
0.873970 0.874113 0.875313
0.717150 0.717486 0.718686
0.731032 0.731351 0.732551
0.754909 0.755198 0.756398
0.784694 0.784947 0.786147
0.819116 0.819327 0.820527
0.853806 0.853974 0.855174
0.884401 0.884532 0.885732
0.909583 0.909682 0.910882
0.924647 0.924728 0.925928
0.027223 0.028407 0.029607
0.041106 0.042273 0.043473
0.064982 0.066120 0.067320
0.094767 0.095868 0.097068
0.129190 0.130248 0.131448
0.163880 0.164896 0.166096
0.194475 0.195453 0.196653
0.219656 0.220604 0.221804
0.234721 0.235650 0.236850
0.073925 0.075052 0.076252
0.087807 0.088917 0.090117
0.111684 0.112764 0.113964
0.141469 0.142513 0.143713
0.175891 0.176893 0.178093
0.210581 0.211540 0.212740
0.241176 0.242098 0.243298
0.266358 0.267248 0.268448
0.281422 0.282294 0.283494
0.154246 0.155275 0.156475
0.168129 0.169140 0.170340
0.192005 0.192987 0.194187
0.221791 0.222736 0.223936
0.256213 0.257116 0.258316
0.290903 0.291763 0.292963
0.321498 0.322320 0.323520
0.346680 0.347471 0.348671
0.361744 0.362517 0.363717
0.254446 0.255351 0.256551
0.268329 0.269216 0.270416
0.292205 0.293063 0.294263
0.321990 0.322812 0.324012
0.356412 0.357192 0.358392
0.391102 0.391839 0.393039
0.421698 0.422397 0.423597
0.446879 0.447547 0.448747
0.461944 0.462593 0.463793
0.370245 0.371007 0.372207
0.384127 0.384873 0.386073
0.408004 0.408720 0.409920
0.437789 0.438468 0.439668
0.472211 0.472848 0.474048
0.506901 0.507496 0.508696
0.537496 0.538053 0.539253
0.562678 0.563204 0.564404
0.577742 0.578250 0.579450
0.486944 0.487563 0.488763
0.500827 0.501429 0.502629
0.524703 0.525276 0.526476
0.554489 0.555025 0.556224
0.588911 0.589404 0.590604
0.623601 0.624052 0.625252
0.654196 0.654609 0.655809
0.679378 0.679760 0.680960
0.694442 0.694806 0.696006
0.589868 0.590360 0.591560
0.603751 0.604226 0.605426
0.627627 0.628073 0.629273
0.657412 0.657822 0.659022
0.691834 0.692202 0.693402
0.726525 0.726849 0.728049
0.757120 0.757406 0.758606
0.782301 0.782557 0.783757
0.797366 0.797603 0.798803
0.674581 0.674969 0.676169
0.688463 0.688835 0.690035
0.712340 0.712681 0.713881
0.742125 0.742430 0.743630
0.776547 0.776810 0.778010
0.811237 0.811458 0.812657
0.841832 0.842015 0.843215
0.867014 0.867166 0.868366
0.882078 0.882212 0.883411
0.725258 0.725584 0.726784
0.739141 0.739450 0.740650
0.763017 0.763297 0.764497
0.792803 0.793045 0.794245
0.827225 0.827425 0.828625
0.861915 0.862073 0.863273
0.892510 0.892630 0.893830
0.917692 0.917781 0.918981
0.932756 0.932827 0.934027
0.037338 0.038510 0.039710
0.051221 0.052376 0.053576
0.075097 0.076223 0.077423
0.104882 0.105971 0.107171
0.139305 0.140351 0.141551
0.173995 0.174999 0.176199
0.204590 0.205556 0.206756
0.229772 0.230707 0.231907
0.244836 0.245753 0.246953
0.084040 0.085154 0.086354
0.097923 0.099020 0.100220
0.121799 0.122867 0.124067
0.151584 0.152616 0.153816
0.186007 0.186996 0.188196
0.220697 0.221643 0.222843
0.251292 0.252200 0.253400
0.276473 0.277351 0.278551
0.291538 0.292397 0.293597
0.164362 0.165377 0.166577
0.178244 0.179243 0.180443
0.202121 0.203090 0.204290
0.231906 0.232838 0.234038
0.266328 0.267218 0.268418
0.301018 0.301866 0.303066
0.331613 0.332423 0.333623
0.356795 0.357574 0.358774
0.371859 0.372620 0.373820
0.264561 0.265454 0.266654
0.278444 0.279319 0.280519
0.302320 0.303166 0.304366
0.332105 0.332915 0.334115
0.366528 0.367295 0.368495
0.401218 0.401942 0.403142
0.431813 0.432500 0.433700
0.456994 0.457650 0.458850
0.472059 0.472696 0.473896
0.380360 0.381110 0.382310
0.394243 0.394976 0.396176
0.418119 0.418823 0.420023
0.447904 0.448571 0.449771
0.482326 0.482951 0.484151
0.517017 0.517599 0.518799
0.547612 0.548156 0.549356
0.572793 0.573307 0.574507
0.587858 0.588353 0.589553
0.497060 0.497666 0.498866
0.510942 0.511532 0.512732
0.534819 0.535379 0.536579
0.564604 0.565127 0.566327
0.599026 0.599507 0.600707
0.633716 0.634155 0.635355
0.664311 0.664712 0.665912
0.689493 0.689863 0.691063
0.704557 0.704909 0.706109
0.599983 0.600463 0.601663
0.613866 0.614329 0.615529
0.637742 0.638176 0.639376
0.667527 0.667924 0.669124
0.701950 0.702304 0.703504
0.736640 0.736952 0.738152
0.767235 0.767509 0.768709
0.792417 0.792660 0.793860
0.807481 0.807706 0.808906
0.684696 0.685072 0.686272
0.698578 0.698937 0.700137
0.722455 0.722784 0.723984
0.752240 0.752533 0.753733
0.786662 0.786913 0.788113
0.821352 0.821560 0.822760
0.851948 0.852118 0.853318
0.877129 0.877268 0.878469
0.892194 0.892314 0.893514
0.735374 0.735687 0.736887
0.749256 0.749553 0.750753
0.773132 0.773400 0.774600
0.802918 0.803148 0.804348
0.837340 0.837528 0.838728
0.872030 0.872176 0.873376
0.902625 0.902733 0.903933
0.927807 0.927884 0.929084
0.942871 0.942930 0.944130
0.049028 0.050186 0.051386
0.062911 0.064051 0.065251
0.086787 0.087898 0.089098
0.116572 0.117647 0.118847
0.150995 0.152027 0.153227
0.185685 0.186674 0.187874
0.216280 0.217232 0.218432
0.241462 0.242382 0.243582
0.256526 0.257428 0.258628
0.095730 0.096830 0.098030
0.109613 0.110696 0.111896
0.133489 0.134543 0.135743
0.163274 0.164291 0.165491
0.197697 0.198671 0.199871
0.232387 0.233319 0.234519
0.262982 0.263876 0.265076
0.288163 0.289027 0.290227
0.303228 0.304073 0.305273
0.176052 0.177053 0.178253
0.189934 0.190918 0.192118
0.213811 0.214765 0.215965
0.243596 0.244514 0.245714
0.278018 0.278894 0.280094
0.312708 0.313541 0.314741
0.343303 0.344099 0.345299
0.368485 0.369249 0.370450
0.383549 0.384295 0.385495
0.276251 0.277129 0.278329
0.290134 0.290995 0.292195
0.314010 0.314842 0.316042
0.343795 0.344590 0.345790
0.378218 0.378970 0.380170
0.412908 0.413618 0.414818
0.443503 0.444175 0.445375
0.468684 0.469326 0.470526
0.483749 0.484372 0.485572
0.392050 0.392786 0.393986
0.405933 0.406651 0.407851
0.429809 0.430498 0.431698
0.459594 0.460247 0.461447
0.494016 0.494627 0.495827
0.528706 0.529274 0.530474
0.559302 0.559832 0.561032
0.584483 0.584982 0.586182
0.599548 0.600028 0.601228
0.508750 0.509342 0.510542
0.522632 0.523207 0.524407
0.546508 0.547054 0.548254
0.576294 0.576803 0.578003
0.610716 0.611183 0.612383
0.645406 0.645830 0.647030
0.676001 0.676388 0.677588
0.701183 0.701538 0.702738
0.716247 0.716584 0.717784
0.611673 0.612139 0.613339
0.625556 0.626004 0.627204
0.649432 0.649851 0.651051
0.679217 0.679600 0.680800
0.713640 0.713980 0.715180
0.748330 0.748627 0.749827
0.778925 0.779185 0.780385
0.804106 0.804335 0.805535
0.819171 0.819381 0.820581
0.696386 0.696747 0.697947
0.710269 0.710613 0.711813
0.734145 0.734460 0.735660
0.763930 0.764209 0.765409
0.798352 0.798589 0.799788
0.833042 0.833236 0.834436
0.863638 0.863793 0.864993
0.888819 0.888944 0.890144
0.903884 0.903990 0.905190
0.747064 0.747363 0.748563
0.760946 0.761228 0.762428
0.784822 0.785075 0.786275
0.814608 0.814824 0.816024
0.849030 0.849204 0.850404
0.883720 0.883851 0.885051
0.914315 0.914409 0.915609
0.939497 0.939559 0.940759
0.954561 0.954605 0.955805
0.060809 0.061952 0.063152
0.074692 0.075818 0.077018
0.098568 0.099665 0.100865
0.128353 0.129413 0.130613
0.162776 0.163793 0.164993
0.197466 0.198441 0.199641
0.228061 0.228998 0.230198
0.253242 0.254149 0.255349
0.268307 0.269195 0.270395
0.107511 0.108597 0.109797
0.121394 0.122462 0.123662
0.145270 0.146309 0.147509
0.175055 0.176058 0.177258
0.209477 0.210438 0.211638
0.244168 0.245085 0.246285
0.274763 0.275642 0.276842
0.299944 0.300793 0.301993
0.315009 0.315839 0.317039
0.187833 0.188819 0.190019
0.201715 0.202685 0.203885
0.225592 0.226532 0.227732
0.255377 0.256280 0.257480
0.289799 0.290660 0.291860
0.324489 0.325308 0.326508
0.355084 0.355865 0.357065
0.380266 0.381016 0.382216
0.395330 0.396062 0.397262
0.288032 0.288896 0.290096
0.301915 0.302761 0.303961
0.325791 0.326608 0.327808
0.355576 0.356357 0.357557
0.389999 0.390737 0.391937
0.424689 0.425384 0.426584
0.455284 0.455942 0.457142
0.480465 0.481092 0.482292
0.495530 0.496138 0.497338
0.403831 0.404552 0.405752
0.417713 0.418418 0.419618
0.441590 0.442265 0.443465
0.471375 0.472013 0.473213
0.505797 0.506393 0.507593
0.540487 0.541041 0.542241
0.571082 0.571598 0.572798
0.596264 0.596749 0.597949
0.611328 0.611795 0.612995
0.520531 0.521108 0.522308
0.534413 0.534974 0.536174
0.558289 0.558821 0.560021
0.588075 0.588569 0.589769
0.622497 0.622949 0.624149
0.657187 0.657597 0.658797
0.687782 0.688154 0.689354
0.712964 0.713305 0.714505
0.728028 0.728351 0.729551
0.623454 0.623905 0.625105
0.637337 0.637771 0.638971
0.661213 0.661618 0.662818
0.690998 0.691366 0.692566
0.725421 0.725746 0.726946
0.760111 0.760394 0.761594
0.790706 0.790951 0.792151
0.815887 0.816102 0.817302
0.830952 0.831148 0.832348
0.708167 0.708514 0.709714
0.722049 0.722379 0.723579
0.745926 0.746226 0.747426
0.775711 0.775975 0.777175
0.810133 0.810355 0.811555
0.844823 0.845002 0.846202
0.875418 0.875560 0.876760
0.900600 0.900710 0.901910
0.915664 0.915756 0.916956
0.758844 0.759129 0.760329
0.772727 0.772995 0.774195
0.796603 0.796842 0.798042
0.826389 0.826590 0.827790
0.860811 0.860970 0.862170
0.895501 0.895618 0.896818
0.926096 0.926175 0.927375
0.951278 0.951326 0.952526
0.966342 0.966372 0.967572
0.071199 0.072330 0.073530
0.085082 0.086195 0.087395
0.108958 0.110042 0.111242
0.138744 0.139791 0.140991
0.173166 0.174171 0.175371
0.207856 0.208818 0.210018
0.238451 0.239376 0.240576
0.263633 0.264526 0.265726
0.278697 0.279572 0.280772
0.117901 0.118974 0.120174
0.131784 0.132839 0.134039
0.155660 0.156686 0.157886
0.185445 0.186435 0.187635
0.219868 0.220815 0.222015
0.254558 0.255462 0.256662
0.285153 0.286020 0.287220
0.310334 0.311171 0.312371
0.325399 0.326216 0.327416
0.198223 0.199197 0.200397
0.212105 0.213062 0.214262
0.235982 0.236909 0.238109
0.265767 0.266658 0.267858
0.300189 0.301038 0.302238
0.334879 0.335685 0.336885
0.365474 0.366243 0.367443
0.390656 0.391393 0.392593
0.405720 0.406439 0.407639
0.298422 0.299273 0.300473
0.312305 0.313139 0.314339
0.336181 0.336986 0.338186
0.365966 0.366734 0.367934
0.400389 0.401114 0.402314
0.435079 0.435762 0.436962
0.465674 0.466319 0.467519
0.490856 0.491470 0.492670
0.505920 0.506516 0.507716
0.414221 0.414930 0.416130
0.428104 0.428795 0.429995
0.451980 0.452642 0.453842
0.481765 0.482391 0.483591
0.516188 0.516771 0.517971
0.550878 0.551418 0.552618
0.581473 0.581975 0.583175
0.606654 0.607126 0.608326
0.621719 0.622172 0.623372
0.530921 0.531486 0.532686
0.544803 0.545351 0.546551
0.568680 0.569198 0.570398
0.598465 0.598947 0.600147
0.632887 0.633327 0.634527
0.667577 0.667974 0.669174
0.698172 0.698532 0.699732
0.723354 0.723682 0.724882
0.738418 0.738728 0.739928
0.633844 0.634283 0.635483
0.647727 0.648148 0.649348
0.671603 0.671995 0.673195
0.701389 0.701744 0.702944
0.735811 0.736124 0.737324
0.770501 0.770771 0.771971
0.801096 0.801329 0.802529
0.826278 0.826479 0.827679
0.841342 0.841525 0.842725
0.718557 0.718891 0.720091
0.732440 0.732757 0.733957
0.756316 0.756604 0.757804
0.786101 0.786352 0.787552
0.820524 0.820732 0.821932
0.855214 0.855380 0.856580
0.885809 0.885937 0.887137
0.910990 0.911088 0.912288
0.926055 0.926134 0.927334
0.769235 0.769507 0.770707
0.783117 0.783372 0.784572
0.806994 0.807219 0.808419
0.836779 0.836968 0.838168
0.871201 0.871348 0.872548
0.905891 0.905995 0.907195
0.936486 0.936552 0.937752
0.961668 0.961703 0.962903
0.976732 0.976749 0.977949
0.079751 0.080871 0.082071
0.093634 0.094736 0.095936
0.117510 0.118583 0.119783
0.147295 0.148332 0.149532
0.181718 0.182712 0.183912
0.216408 0.217359 0.218559
0.247003 0.247917 0.249117
0.272184 0.273068 0.274267
0.287249 0.288113 0.289313
0.126453 0.127515 0.128715
0.140336 0.141381 0.142581
0.164212 0.165228 0.166428
0.193997 0.194976 0.196176
0.228419 0.229356 0.230556
0.263110 0.264004 0.265204
0.293705 0.294561 0.295761
0.318886 0.319712 0.320912
0.333951 0.334758 0.335958
0.206775 0.207738 0.208938
0.220657 0.221604 0.222804
0.244534 0.245451 0.246651
0.274319 0.275199 0.276399
0.308741 0.309579 0.310779
0.343431 0.344227 0.345427
0.374026 0.374784 0.375984
0.399208 0.399935 0.401135
0.414272 0.414981 0.416181
0.306974 0.307814 0.309014
0.320857 0.321680 0.322880
0.344733 0.345527 0.346727
0.374518 0.375276 0.376476
0.408941 0.409655 0.410855
0.443631 0.444303 0.445503
0.474226 0.474860 0.476060
0.499407 0.500011 0.501211
0.514472 0.515057 0.516257
0.422773 0.423471 0.424671
0.436656 0.437336 0.438536
0.460532 0.461183 0.462383
0.490317 0.490932 0.492132
0.524739 0.525312 0.526512
0.559429 0.559959 0.561159
0.590025 0.590517 0.591717
0.615206 0.615667 0.616867
0.630270 0.630713 0.631913
0.539473 0.540027 0.541227
0.553355 0.553892 0.555092
0.577231 0.577739 0.578939
0.607017 0.607488 0.608688
0.641439 0.641868 0.643068
0.676129 0.676515 0.677715
0.706724 0.707073 0.708273
0.731906 0.732224 0.733424
0.746970 0.747269 0.748469
0.642396 0.642824 0.644024
0.656279 0.656690 0.657890
0.680155 0.680537 0.681737
0.709940 0.710285 0.711485
0.744363 0.744665 0.745865
0.779053 0.779312 0.780513
0.809648 0.809870 0.811070
0.834829 0.835021 0.836221
0.849894 0.850066 0.851267
0.727109 0.727433 0.728633
0.740991 0.741298 0.742498
0.764868 0.765145 0.766345
0.794653 0.794894 0.796094
0.829075 0.829274 0.830474
0.863765 0.863921 0.865121
0.894360 0.894479 0.895679
0.919542 0.919629 0.920829
0.934606 0.934675 0.935875
0.777786 0.778048 0.779248
0.791669 0.791913 0.793113
0.815545 0.815760 0.816960
0.845331 0.845509 0.846709
0.879753 0.879889 0.881089
0.914443 0.914536 0.915736
0.945038 0.945094 0.946294
0.970220 0.970244 0.971444
0.985284 0.985290 0.986490
0.084867 0.085981 0.087181
0.098750 0.099846 0.101046
0.122626 0.123693 0.124893
0.152411 0.153442 0.154642
0.186834 0.187822 0.189022
0.221524 0.222469 0.223669
0.252119 0.253026 0.254226
0.277300 0.278177 0.279377
0.292365 0.293223 0.294423
0.131569 0.132625 0.133825
0.145452 0.146490 0.147690
0.169328 0.170337 0.171537
0.199113 0.200086 0.201286
0.233535 0.234466 0.235666
0.268225 0.269113 0.270313
0.298821 0.299671 0.300871
0.324002 0.324822 0.326022
0.339067 0.339867 0.341067
0.211891 0.212848 0.214048
0.225773 0.226713 0.227913
0.249649 0.250560 0.251760
0.279435 0.280309 0.281509
0.313857 0.314689 0.315889
0.348547 0.349336 0.350536
0.379142 0.379894 0.381094
0.404324 0.405044 0.406244
0.419388 0.420090 0.421290
0.312090 0.312924 0.314124
0.325973 0.326790 0.327990
0.349849 0.350637 0.351837
0.379634 0.380385 0.381585
0.414057 0.414765 0.415965
0.448747 0.449413 0.450613
0.479342 0.479970 0.481170
0.504523 0.505121 0.506321
0.519588 0.520167 0.521367
0.427889 0.428581 0.429781
0.441771 0.442446 0.443646
0.465648 0.466293 0.467493
0.495433 0.496042 0.497242
0.529855 0.530422 0.531622
0.564545 0.565069 0.566269
0.595140 0.595626 0.596826
0.620322 0.620777 0.621977
0.635386 0.635823 0.637023
0.544588 0.545137 0.546337
0.558471 0.559002 0.560202
0.582347 0.582849 0.584049
0.612133 0.612598 0.613798
0.646555 0.646978 0.648178
0.681245 0.681625 0.682825
0.711840 0.712183 0.713383
0.737022 0.737333 0.738533
0.752086 0.752379 0.753579
0.647512 0.647934 0.649134
0.661395 0.661799 0.662999
0.685271 0.685646 0.686846
0.715056 0.715395 0.716595
0.749479 0.749775 0.750975
0.784169 0.784422 0.785622
0.814764 0.814980 0.816180
0.839945 0.840130 0.841330
0.855010 0.855176 0.856376
0.732225 0.732542 0.733742
0.746107 0.746408 0.747608
0.769984 0.770255 0.771455
0.799769 0.800003 0.801203
0.834191 0.834383 0.835583
0.868881 0.869031 0.870231
0.899476 0.899588 0.900788
0.924658 0.924739 0.925939
0.939722 0.939785 0.940985
0.782902 0.783158 0.784357
0.796785 0.797023 0.798223
0.820661 0.820870 0.822070
0.850447 0.850619 0.851819
0.884869 0.884999 0.886199
0.919559 0.919646 0.920846
0.950154 0.950203 0.951403
0.975336 0.975354 0.976554
0.990400 0.990400 0.991600
