crates/agx-e2e/fixtures/looks/luts/tmax_100.cube
TITLE "tmax_100"
LUT_3D_SIZE 33
DOMAIN_MIN 0.0 0.0 0.0
DOMAIN_MAX 1.0 1.0 1.0
0.014400 0.015600 0.016800
0.016262 0.017460 0.018660
0.019486 0.020680 0.021880
0.023553 0.024742 0.025942
0.028283 0.029465 0.030665
0.033570 0.034747 0.035947
0.039346 0.040515 0.041715
0.045555 0.046717 0.047917
0.052159 0.053312 0.054512
0.059123 0.060268 0.061468
0.066422 0.067558 0.068758
0.074035 0.075161 0.076361
0.081944 0.083061 0.084261
0.090138 0.091245 0.092445
0.098609 0.099705 0.100905
0.107352 0.108437 0.109637
0.116366 0.117441 0.118641
0.125398 0.126462 0.127662
0.134192 0.135245 0.136445
0.142746 0.143788 0.144988
0.151057 0.152088 0.153288
0.159116 0.160138 0.161338
0.166913 0.167926 0.169126
0.174432 0.175436 0.176636
0.181652 0.182646 0.183846
0.188543 0.189529 0.190729
0.195071 0.196049 0.197249
0.201188 0.202158 0.203358
0.206833 0.207797 0.208997
0.211922 0.212880 0.214080
0.216333 0.217284 0.218484
0.219853 0.220801 0.222001
0.221898 0.222842 0.224042
0.020664 0.021856 0.023056
0.022526 0.023716 0.024916
0.025750 0.026936 0.028136
0.029817 0.030998 0.032198
0.034547 0.035722 0.036922
0.039834 0.041003 0.042203
0.045610 0.046771 0.047971
0.051819 0.052973 0.054173
0.058423 0.059569 0.060769
0.065387 0.066525 0.067725
0.072686 0.073815 0.075015
0.080299 0.081418 0.082618
0.088208 0.089317 0.090517
0.096402 0.097502 0.098702
0.104873 0.105962 0.107162
0.113616 0.114694 0.115894
0.122631 0.123697 0.124897
0.131662 0.132718 0.133918
0.140456 0.141501 0.142701
0.149010 0.150045 0.151245
0.157321 0.158345 0.159545
0.165380 0.166395 0.167595
0.173177 0.174182 0.175382
0.180696 0.181692 0.182892
0.187916 0.188902 0.190102
0.194807 0.195785 0.196985
0.201335 0.202305 0.203505
0.207452 0.208415 0.209615
0.213097 0.214053 0.215253
0.218187 0.219136 0.220336
0.222597 0.223541 0.224741
0.226118 0.227057 0.228257
0.228162 0.229099 0.230299
0.031511 0.032690 0.033890
0.033373 0.034550 0.035750
0.036597 0.037770 0.038970
0.040664 0.041832 0.043032
0.045393 0.046555 0.047755
0.050681 0.051837 0.053037
0.056456 0.057605 0.058805
0.062666 0.063807 0.065007
0.069270 0.070402 0.071602
0.076234 0.077358 0.078558
0.083533 0.084648 0.085848
0.091146 0.092251 0.093451
0.099055 0.100151 0.101351
0.107249 0.108335 0.109535
0.115720 0.116795 0.117995
0.124463 0.125527 0.126727
0.133477 0.134531 0.135731
0.142509 0.143552 0.144752
0.151303 0.152334 0.153534
0.159857 0.160878 0.162078
0.168167 0.169178 0.170378
0.176227 0.177228 0.178428
0.184024 0.185016 0.186216
0.191543 0.192525 0.193725
0.198762 0.199736 0.200936
0.205654 0.206619 0.207819
0.212182 0.213138 0.214338
0.218299 0.219248 0.220448
0.223944 0.224886 0.226086
0.229033 0.229969 0.231169
0.233443 0.234374 0.235574
0.236964 0.237891 0.239091
0.239008 0.239932 0.241132
0.045192 0.046354 0.047554
0.047054 0.048214 0.049414
0.050278 0.051434 0.052634
0.054345 0.055496 0.056696
0.059074 0.060219 0.061419
0.064362 0.065501 0.066701
0.070137 0.071269 0.072469
0.076347 0.077471 0.078671
0.082951 0.084066 0.085266
0.089915 0.091022 0.092222
0.097214 0.098312 0.099512
0.104827 0.105915 0.107115
0.112736 0.113815 0.115015
0.120930 0.121999 0.123199
0.129401 0.130459 0.131659
0.138144 0.139191 0.140391
0.147158 0.148195 0.149395
0.156190 0.157216 0.158416
0.164984 0.165999 0.167199
0.173538 0.174542 0.175742
0.181848 0.182842 0.184042
0.189908 0.190892 0.192092
0.197705 0.198680 0.199880
0.205224 0.206190 0.207390
0.212443 0.213400 0.214600
0.219335 0.220283 0.221483
0.225863 0.226803 0.228003
0.231980 0.232912 0.234112
0.237625 0.238551 0.239751
0.242714 0.243634 0.244834
0.247124 0.248038 0.249238
0.250645 0.251555 0.252755
0.252689 0.253596 0.254796
0.061102 0.062244 0.063444
0.062964 0.064104 0.065304
0.066188 0.067324 0.068524
0.070255 0.071386 0.072586
0.074984 0.076110 0.077310
0.080272 0.081391 0.082591
0.086047 0.087159 0.088359
0.092257 0.093361 0.094561
0.098861 0.099957 0.101157
0.105825 0.106913 0.108113
0.113124 0.114203 0.115403
0.120737 0.121806 0.123006
0.128646 0.129705 0.130905
0.136840 0.137890 0.139090
0.145311 0.146350 0.147550
0.154054 0.155082 0.156282
0.163068 0.164085 0.165285
0.172100 0.173106 0.174306
0.180894 0.181889 0.183089
0.189448 0.190433 0.191633
0.197758 0.198733 0.199933
0.205818 0.206783 0.207983
0.213615 0.214570 0.215770
0.221134 0.222080 0.223280
0.228353 0.229290 0.230490
0.235245 0.236173 0.237373
0.241773 0.242693 0.243893
0.247890 0.248803 0.250003
0.253535 0.254441 0.255641
0.258624 0.259524 0.260724
0.263034 0.263929 0.265129
0.266555 0.267445 0.268645
0.268599 0.269487 0.270687
0.078890 0.080011 0.081211
0.080752 0.081871 0.083071
0.083977 0.085091 0.086291
0.088043 0.089153 0.090353
0.092773 0.093876 0.095076
0.098061 0.099158 0.100358
0.103836 0.104926 0.106126
0.110046 0.111128 0.112328
0.116649 0.117723 0.118923
0.123614 0.124679 0.125879
0.130913 0.131969 0.133169
0.138525 0.139572 0.140772
0.146434 0.147472 0.148672
0.154629 0.155656 0.156856
0.163099 0.164116 0.165316
0.171842 0.172848 0.174048
0.180857 0.181852 0.183052
0.189889 0.190873 0.192073
0.198682 0.199656 0.200856
0.207236 0.208199 0.209399
0.215547 0.216499 0.217699
0.223606 0.224549 0.225749
0.231404 0.232337 0.233537
0.238923 0.239847 0.241047
0.246142 0.247057 0.248257
0.253033 0.253940 0.255140
0.259561 0.260460 0.261660
0.265678 0.266569 0.267769
0.271323 0.272208 0.273408
0.276413 0.277291 0.278491
0.280823 0.281695 0.282895
0.284344 0.285212 0.286412
0.286388 0.287253 0.288453
0.098318 0.099415 0.100615
0.100180 0.101275 0.102475
0.103405 0.104495 0.105695
0.107471 0.108557 0.109757
0.112201 0.113281 0.114481
0.117489 0.118562 0.119762
0.123264 0.124330 0.125530
0.129474 0.130532 0.131732
0.136077 0.137128 0.138328
0.143042 0.144083 0.145283
0.150341 0.151374 0.152573
0.157953 0.158977 0.160177
0.165862 0.166876 0.168076
0.174057 0.175060 0.176260
0.182527 0.183520 0.184721
0.191270 0.192253 0.193453
0.200285 0.201256 0.202456
0.209317 0.210277 0.211477
0.218110 0.219060 0.220260
0.226664 0.227603 0.228803
0.234975 0.235904 0.237104
0.243034 0.243953 0.245153
0.250832 0.251741 0.252941
0.258351 0.259251 0.260451
0.265570 0.266461 0.267661
0.272461 0.273344 0.274544
0.278989 0.279864 0.281064
0.285106 0.285973 0.287173
0.290752 0.291612 0.292812
0.295841 0.296695 0.297895
0.300251 0.301099 0.302299
0.303772 0.304616 0.305816
0.305816 0.306658 0.307858
0.119209 0.120280 0.121480
0.121071 0.122140 0.123340
0.124295 0.125360 0.126560
0.128362 0.129422 0.130622
0.133091 0.134145 0.135345
0.138379 0.139427 0.140627
0.144154 0.145195 0.146395
0.150364 0.151397 0.152597
0.156968 0.157992 0.159192
0.163932 0.164948 0.166148
0.171231 0.172238 0.173438
0.178843 0.179841 0.181041
0.186753 0.187741 0.188941
0.194947 0.195925 0.197125
0.203418 0.204385 0.205585
0.212160 0.213117 0.214317
0.221175 0.222121 0.223321
0.230207 0.231142 0.232342
0.239001 0.239924 0.241124
0.247555 0.248468 0.249668
0.255865 0.256768 0.257968
0.263925 0.264818 0.266018
0.271722 0.272606 0.273806
0.279241 0.280115 0.281315
0.286460 0.287326 0.288526
0.293352 0.294209 0.295409
0.299879 0.300728 0.301928
0.305997 0.306838 0.308038
0.311642 0.312476 0.313676
0.316731 0.317559 0.318759
0.321141 0.321964 0.323164
0.324662 0.325481 0.326681
0.326706 0.327522 0.328722
0.141423 0.142467 0.143667
0.143285 0.144327 0.145527
0.146510 0.147547 0.148747
0.150577 0.151609 0.152809
0.155306 0.156333 0.157533
0.160594 0.161614 0.162814
0.166369 0.167382 0.168582
0.172579 0.173584 0.174784
0.179182 0.180180 0.181380
0.186147 0.187136 0.188336
0.193446 0.194426 0.195626
0.201058 0.202029 0.203229
0.208968 0.209928 0.211128
0.217162 0.218112 0.219312
0.225632 0.226573 0.227773
0.234375 0.235305 0.236505
0.243390 0.244308 0.245508
0.252422 0.253329 0.254529
0.261215 0.262112 0.263312
0.269769 0.270655 0.271855
0.278080 0.278956 0.280156
0.286139 0.287005 0.288205
0.293937 0.294793 0.295993
0.301456 0.302303 0.303503
0.308675 0.309513 0.310713
0.315566 0.316396 0.317596
0.322094 0.322916 0.324116
0.328211 0.329026 0.330225
0.333857 0.334664 0.335864
0.338946 0.339747 0.340947
0.343356 0.344151 0.345351
0.346877 0.347668 0.348868
0.348921 0.349710 0.350910
0.164852 0.165867 0.167067
0.166714 0.167727 0.168927
0.169939 0.170947 0.172147
0.174005 0.175009 0.176209
0.178735 0.179733 0.180933
0.184023 0.185014 0.186214
0.189798 0.190782 0.191982
0.196008 0.196984 0.198184
0.202611 0.203580 0.204780
0.209576 0.210536 0.211736
0.216875 0.217826 0.219026
0.224487 0.225429 0.226629
0.232396 0.233328 0.234528
0.240591 0.241512 0.242712
0.249061 0.249973 0.251173
0.257804 0.258705 0.259905
0.266819 0.267708 0.268908
0.275851 0.276729 0.277929
0.284644 0.285512 0.286712
0.293198 0.294055 0.295255
0.301509 0.302356 0.303556
0.309568 0.310405 0.311605
0.317366 0.318193 0.319393
0.324885 0.325703 0.326903
0.332104 0.332913 0.334113
0.338995 0.339796 0.340996
0.345523 0.346316 0.347516
0.351640 0.352426 0.353626
0.357285 0.358064 0.359264
0.362375 0.363147 0.364347
0.366785 0.367552 0.368752
0.370306 0.371068 0.372268
0.372350 0.373110 0.374310
0.189406 0.190391 0.191591
0.191269 0.192251 0.193451
0.194493 0.195471 0.196671
0.198560 0.199533 0.200733
0.203289 0.204257 0.205457
0.208577 0.209538 0.210738
0.214352 0.215306 0.216506
0.220562 0.221508 0.222708
0.227165 0.228104 0.229304
0.234130 0.235060 0.236260
0.241429 0.242350 0.243550
0.249041 0.249953 0.251153
0.256951 0.257852 0.259052
0.265145 0.266037 0.267237
0.273615 0.274497 0.275697
0.282358 0.283229 0.284429
0.291373 0.292232 0.293432
0.300405 0.301253 0.302453
0.309198 0.310036 0.311236
0.317752 0.318580 0.319780
0.326063 0.326880 0.328080
0.334123 0.334930 0.336130
0.341920 0.342717 0.343917
0.349439 0.350227 0.351427
0.356658 0.357437 0.358637
0.363550 0.364320 0.365520
0.370077 0.370840 0.372040
0.376194 0.376950 0.378150
0.381840 0.382588 0.383788
0.386929 0.387671 0.388871
0.391339 0.392076 0.393276
0.394860 0.395592 0.396792
0.396904 0.397634 0.398834
0.215015 0.215969 0.217169
0.216877 0.217828 0.219028
0.220102 0.221049 0.222249
0.224168 0.225110 0.226310
0.228898 0.229834 0.231034
0.234186 0.235115 0.236315
0.239961 0.240883 0.242083
0.246171 0.247086 0.248286
0.252774 0.253681 0.254881
0.259739 0.260637 0.261837
0.267038 0.267927 0.269127
0.274650 0.275530 0.276730
0.282559 0.283430 0.284630
0.290753 0.291614 0.292814
0.299224 0.300074 0.301274
0.307967 0.308806 0.310006
0.316982 0.317810 0.319010
0.326014 0.326830 0.328030
0.334807 0.335613 0.336813
0.343361 0.344157 0.345357
0.351672 0.352457 0.353657
0.359731 0.360507 0.361707
0.367529 0.368294 0.369494
0.375048 0.375804 0.377004
0.382267 0.383014 0.384214
0.389158 0.389897 0.391097
0.395686 0.396417 0.397617
0.401803 0.402527 0.403727
0.407448 0.408165 0.409365
0.412538 0.413248 0.414448
0.416948 0.417653 0.418853
0.420469 0.421169 0.422369
0.422513 0.423211 0.424411
0.241623 0.242544 0.243744
0.243485 0.244403 0.245603
0.246709 0.247624 0.248824
0.250776 0.251685 0.252885
0.255505 0.256409 0.257609
0.260793 0.261690 0.262890
0.266568 0.267458 0.268658
0.272778 0.273661 0.274861
0.279382 0.280256 0.281456
0.286346 0.287212 0.288412
0.293645 0.294502 0.295702
0.301258 0.302105 0.303305
0.309167 0.310005 0.311205
0.317361 0.318189 0.319389
0.325832 0.326649 0.327849
0.334575 0.335381 0.336581
0.343589 0.344385 0.345585
0.352621 0.353405 0.354605
0.361415 0.362188 0.363388
0.369969 0.370732 0.371932
0.378279 0.379032 0.380232
0.386339 0.387082 0.388282
0.394136 0.394869 0.396069
0.401655 0.402379 0.403579
0.408874 0.409589 0.410789
0.415766 0.416472 0.417672
0.422294 0.422992 0.424192
0.428411 0.429102 0.430302
0.434056 0.434740 0.435940
0.439145 0.439823 0.441023
0.443555 0.444228 0.445428
0.447076 0.447744 0.448944
0.449120 0.449786 0.450986
0.269188 0.270075 0.271275
0.271051 0.271935 0.273135
0.274275 0.275155 0.276355
0.278342 0.279217 0.280417
0.283071 0.283941 0.285141
0.288359 0.289222 0.290422
0.294134 0.294990 0.296190
0.300344 0.301192 0.302392
0.306947 0.307788 0.308988
0.313912 0.314744 0.315944
0.321211 0.322034 0.323234
0.328823 0.329637 0.330837
0.336733 0.337536 0.338736
0.344927 0.345720 0.346920
0.353397 0.354181 0.355381
0.362140 0.362913 0.364113
0.371155 0.371916 0.373116
0.380187 0.380937 0.382137
0.388980 0.389720 0.390920
0.397534 0.398263 0.399463
0.405845 0.406564 0.407764
0.413905 0.414613 0.415813
0.421702 0.422401 0.423601
0.429221 0.429911 0.431111
0.436440 0.437121 0.438321
0.443332 0.444004 0.445204
0.449859 0.450524 0.451724
0.455976 0.456634 0.457834
0.461622 0.462272 0.463472
0.466711 0.467355 0.468555
0.471121 0.471759 0.472960
0.474642 0.475276 0.476476
0.476686 0.477318 0.478518
0.297684 0.298536 0.299736
0.299546 0.300396 0.301596
0.302770 0.303616 0.304816
0.306837 0.307678 0.308878
0.311567 0.312401 0.313601
0.316855 0.317683 0.318883
0.322630 0.323451 0.324651
0.328840 0.329653 0.330853
0.335443 0.336248 0.337448
0.342408 0.343204 0.344404
0.349707 0.350494 0.351694
0.357319 0.358097 0.359297
0.365228 0.365997 0.367197
0.373423 0.374181 0.375381
0.381893 0.382641 0.383841
0.390636 0.391373 0.392573
0.399651 0.400377 0.401577
0.408683 0.409398 0.410598
0.417476 0.418181 0.419381
0.426030 0.426724 0.427924
0.434341 0.435024 0.436224
0.442400 0.443074 0.444274
0.450198 0.450862 0.452062
0.457717 0.458371 0.459571
0.464936 0.465582 0.466782
0.471827 0.472465 0.473665
0.478355 0.478985 0.480184
0.484472 0.485094 0.486294
0.490117 0.490732 0.491932
0.495207 0.495816 0.497016
0.499617 0.500220 0.501420
0.503138 0.503737 0.504937
0.505182 0.505778 0.506978
0.327096 0.327911 0.329111
0.328958 0.329771 0.330971
0.332182 0.332991 0.334191
0.336249 0.337053 0.338253
0.340978 0.341777 0.342977
0.346266 0.347058 0.348258
0.352041 0.352826 0.354026
0.358251 0.359028 0.360228
0.364855 0.365624 0.366824
0.371819 0.372580 0.373780
0.379118 0.379870 0.381070
0.386730 0.387473 0.388673
0.394640 0.395372 0.396572
0.402834 0.403556 0.404756
0.411305 0.412017 0.413217
0.420047 0.420749 0.421949
0.429062 0.429752 0.430952
0.438094 0.438773 0.439973
0.446888 0.447556 0.448756
0.455442 0.456099 0.457299
0.463752 0.464400 0.465600
0.471812 0.472449 0.473649
0.479609 0.480237 0.481437
0.487128 0.487747 0.488947
0.494347 0.494957 0.496157
0.501239 0.501840 0.503040
0.507766 0.508360 0.509560
0.513884 0.514470 0.515670
0.519529 0.520108 0.521308
0.524618 0.525191 0.526391
0.529028 0.529595 0.530795
0.532549 0.533112 0.534312
0.534593 0.535154 0.536354
0.357422 0.358200 0.359400
0.359284 0.360060 0.361260
0.362508 0.363280 0.364480
0.366575 0.367342 0.368542
0.371304 0.372065 0.373265
0.376592 0.377347 0.378547
0.382367 0.383115 0.384315
0.388577 0.389317 0.390517
0.395181 0.395912 0.397112
0.402145 0.402868 0.404068
0.409444 0.410158 0.411358
0.417057 0.417761 0.418961
0.424966 0.425661 0.426861
0.433160 0.433845 0.435045
0.441631 0.442305 0.443505
0.450373 0.451037 0.452237
0.459388 0.460041 0.461241
0.468420 0.469062 0.470262
0.477214 0.477845 0.479045
0.485768 0.486388 0.487588
0.494078 0.494688 0.495888
0.502138 0.502738 0.503938
0.509935 0.510526 0.511726
0.517454 0.518036 0.519236
0.524673 0.525246 0.526446
0.531565 0.532129 0.533329
0.538092 0.538649 0.539849
0.544210 0.544758 0.545958
0.549855 0.550397 0.551597
0.554944 0.555480 0.556680
0.559354 0.559884 0.561084
0.562875 0.563401 0.564601
0.564919 0.565442 0.566642
0.387806 0.388547 0.389747
0.389668 0.390406 0.391606
0.392892 0.393627 0.394827
0.396959 0.397689 0.398889
0.401688 0.402412 0.403612
0.406976 0.407693 0.408893
0.412751 0.413462 0.414662
0.418961 0.419664 0.420864
0.425565 0.426259 0.427459
0.432529 0.433215 0.434415
0.439828 0.440505 0.441705
0.447441 0.448108 0.449308
0.455350 0.456008 0.457208
0.463544 0.464192 0.465392
0.472015 0.472652 0.473852
0.480758 0.481384 0.482584
0.489772 0.490388 0.491588
0.498804 0.499409 0.500609
0.507598 0.508191 0.509391
0.516152 0.516735 0.517935
0.524462 0.525035 0.526235
0.532522 0.533085 0.534285
0.540319 0.540873 0.542073
0.547838 0.548382 0.549582
0.555057 0.555593 0.556793
0.561949 0.562476 0.563676
0.568477 0.568995 0.570195
0.574594 0.575105 0.576305
0.580239 0.580743 0.581943
0.585328 0.585826 0.587026
0.589738 0.590231 0.591431
0.593259 0.593748 0.594948
0.595303 0.595789 0.596989
0.417388 0.418092 0.419292
0.419250 0.419952 0.421152
0.422474 0.423172 0.424372
0.426541 0.427234 0.428434
0.431270 0.431958 0.433158
0.436558 0.437239 0.438439
0.442333 0.443007 0.444207
0.448543 0.449209 0.450409
0.455147 0.455805 0.457005
0.462111 0.462761 0.463961
0.469410 0.470051 0.471251
0.477023 0.477654 0.478854
0.484932 0.485553 0.486753
0.493126 0.493737 0.494937
0.501597 0.502198 0.503398
0.510339 0.510930 0.512130
0.519354 0.519933 0.521133
0.528386 0.528954 0.530154
0.537180 0.537737 0.538937
0.545734 0.546280 0.547480
0.554044 0.554581 0.555781
0.562104 0.562630 0.563830
0.569901 0.570418 0.571618
0.577420 0.577928 0.579128
0.584639 0.585138 0.586338
0.591531 0.592021 0.593221
0.598059 0.598541 0.599741
0.604176 0.604651 0.605851
0.609821 0.610289 0.611489
0.614910 0.615372 0.616572
0.619320 0.619777 0.620977
0.622841 0.623293 0.624493
0.624885 0.625335 0.626535
0.446164 0.446833 0.448033
0.448026 0.448693 0.449893
0.451250 0.451913 0.453113
0.455317 0.455975 0.457175
0.460047 0.460699 0.461899
0.465334 0.465980 0.467180
0.471110 0.471748 0.472948
0.477320 0.477950 0.479150
0.483923 0.484546 0.485746
0.490887 0.491502 0.492702
0.498186 0.498792 0.499992
0.505799 0.506395 0.507595
0.513708 0.514294 0.515494
0.521902 0.522478 0.523678
0.530373 0.530939 0.532139
0.539116 0.539671 0.540871
0.548131 0.548674 0.549874
0.557163 0.557695 0.558895
0.565956 0.566478 0.567678
0.574510 0.575021 0.576221
0.582821 0.583322 0.584522
0.590880 0.591371 0.592571
0.598677 0.599159 0.600359
0.606196 0.606669 0.607869
0.613416 0.613879 0.615079
0.620307 0.620762 0.621962
0.626835 0.627282 0.628482
0.632952 0.633392 0.634592
0.638597 0.639030 0.640230
0.643687 0.644113 0.645313
0.648097 0.648517 0.649718
0.651618 0.652034 0.653234
0.653662 0.654076 0.655276
0.474121 0.474756 0.475956
0.475983 0.476616 0.477816
0.479208 0.479836 0.481036
0.483274 0.483898 0.485098
0.488004 0.488622 0.489822
0.493292 0.493903 0.495103
0.499067 0.499671 0.500871
0.505277 0.505873 0.507073
0.511880 0.512469 0.513669
0.518845 0.519424 0.520624
0.526144 0.526714 0.527914
0.533756 0.534317 0.535517
0.541665 0.542217 0.543417
0.549860 0.550401 0.551601
0.558330 0.558861 0.560061
0.567073 0.567593 0.568793
0.576088 0.576597 0.577797
0.585120 0.585618 0.586818
0.593913 0.594401 0.595601
0.602467 0.602944 0.604144
0.610778 0.611244 0.612445
0.618837 0.619294 0.620494
0.626635 0.627082 0.628282
0.634154 0.634592 0.635792
0.641373 0.641802 0.643002
0.648264 0.648685 0.649885
0.654792 0.655205 0.656405
0.660909 0.661314 0.662514
0.666555 0.666953 0.668153
0.671644 0.672036 0.673236
0.676054 0.676440 0.677640
0.679575 0.679957 0.681157
0.681619 0.681998 0.683198
0.501234 0.501836 0.503036
0.503096 0.503696 0.504896
0.506321 0.506916 0.508116
0.510387 0.510978 0.512178
0.515117 0.515701 0.516901
0.520405 0.520983 0.522183
0.526180 0.526751 0.527951
0.532390 0.532953 0.534153
0.538993 0.539548 0.540748
0.545958 0.546504 0.547704
0.553257 0.553794 0.554994
0.560869 0.561397 0.562597
0.568779 0.569297 0.570497
0.576973 0.577481 0.578681
0.585443 0.585941 0.587141
0.594186 0.594673 0.595873
0.603201 0.603677 0.604877
0.612233 0.612698 0.613898
0.621026 0.621480 0.622680
0.629580 0.630024 0.631224
0.637891 0.638324 0.639524
0.645950 0.646374 0.647574
0.653748 0.654162 0.655362
0.661267 0.661671 0.662871
0.668486 0.668882 0.670082
0.675377 0.675765 0.676965
0.681905 0.682284 0.683484
0.688022 0.688394 0.689594
0.693668 0.694032 0.695232
0.698757 0.699115 0.700315
0.703167 0.703520 0.704720
0.706688 0.707037 0.708237
0.708732 0.709078 0.710278
0.527465 0.528034 0.529234
0.529327 0.529894 0.531094
0.532551 0.533114 0.534314
0.536618 0.537176 0.538376
0.541347 0.541900 0.543100
0.546635 0.547181 0.548381
0.552410 0.552949 0.554149
0.558620 0.559151 0.560351
0.565224 0.565747 0.566947
0.572188 0.572702 0.573902
0.579487 0.579992 0.581192
0.587100 0.587595 0.588795
0.595009 0.595495 0.596695
0.603203 0.603679 0.604879
0.611674 0.612139 0.613339
0.620417 0.620871 0.622072
0.629431 0.629875 0.631075
0.638463 0.638896 0.640096
0.647257 0.647679 0.648879
0.655811 0.656222 0.657422
0.664121 0.664523 0.665723
0.672181 0.672572 0.673772
0.679978 0.680360 0.681560
0.687497 0.687870 0.689070
0.694716 0.695080 0.696280
0.701608 0.701963 0.703163
0.708136 0.708483 0.709683
0.714253 0.714592 0.715792
0.719898 0.720231 0.721431
0.724987 0.725314 0.726514
0.729397 0.729718 0.730918
0.732918 0.733235 0.734435
0.734962 0.735277 0.736477
0.552759 0.553297 0.554497
0.554621 0.555157 0.556357
0.557845 0.558377 0.559577
0.561912 0.562439 0.563639
0.566642 0.567163 0.568363
0.571929 0.572444 0.573644
0.577705 0.578212 0.579412
0.583914 0.584414 0.585614
0.590518 0.591010 0.592210
0.597482 0.597965 0.599165
0.604781 0.605255 0.606456
0.612394 0.612859 0.614059
0.620303 0.620758 0.621958
0.628497 0.628942 0.630142
0.636968 0.637402 0.638602
0.645711 0.646135 0.647335
0.654725 0.655138 0.656338
0.663757 0.664159 0.665359
0.672551 0.672942 0.674142
0.681105 0.681485 0.682685
0.689416 0.689786 0.690986
0.697475 0.697835 0.699035
0.705272 0.705623 0.706823
0.712791 0.713133 0.714333
0.720011 0.720343 0.721543
0.726902 0.727226 0.728426
0.733430 0.733746 0.734946
0.739547 0.739855 0.741055
0.745192 0.745494 0.746694
0.750282 0.750577 0.751777
0.754692 0.754981 0.756181
0.758213 0.758498 0.759698
0.760257 0.760540 0.761740
0.577045 0.577553 0.578753
0.578907 0.579413 0.580613
0.582131 0.582633 0.583833
0.586198 0.586695 0.587895
0.590927 0.591419 0.592619
0.596215 0.596700 0.597900
0.601990 0.602468 0.603668
0.608200 0.608670 0.609870
0.614804 0.615266 0.616466
0.621768 0.622221 0.623421
0.629067 0.629511 0.630711
0.636680 0.637115 0.638315
0.644589 0.645014 0.646214
0.652783 0.653198 0.654398
0.661254 0.661659 0.662859
0.669997 0.670391 0.671591
0.679011 0.679394 0.680594
0.688043 0.688415 0.689615
0.696837 0.697198 0.698398
0.705391 0.705741 0.706941
0.713701 0.714042 0.715242
0.721761 0.722091 0.723291
0.729558 0.729879 0.731079
0.737077 0.737389 0.738589
0.744296 0.744599 0.745799
0.751188 0.751482 0.752682
0.757716 0.758002 0.759202
0.763833 0.764111 0.765311
0.769478 0.769750 0.770950
0.774567 0.774833 0.776033
0.778977 0.779237 0.780437
0.782498 0.782754 0.783954
0.784543 0.784796 0.785996
0.600228 0.600708 0.601908
0.602090 0.602568 0.603768
0.605315 0.605788 0.606988
0.609381 0.609850 0.611050
0.614111 0.614573 0.615773
0.619399 0.619855 0.621055
0.625174 0.625623 0.626823
0.631384 0.631825 0.633025
0.637987 0.638420 0.639620
0.644952 0.645376 0.646576
0.652251 0.652666 0.653866
0.659863 0.660269 0.661470
0.667772 0.668169 0.669369
0.675967 0.676353 0.677553
0.684437 0.684813 0.686013
0.693180 0.693546 0.694746
0.702195 0.702549 0.703749
0.711227 0.711570 0.712770
0.720020 0.720353 0.721553
0.728574 0.728896 0.730096
0.736885 0.737197 0.738397
0.744944 0.745246 0.746446
0.752742 0.753034 0.754234
0.760261 0.760544 0.761744
0.767480 0.767754 0.768954
0.774371 0.774637 0.775837
0.780899 0.781157 0.782357
0.787016 0.787266 0.788466
0.792661 0.792905 0.794105
0.797751 0.797988 0.799188
0.802161 0.802392 0.803592
0.805682 0.805909 0.807109
0.807726 0.807950 0.809150
0.622188 0.622641 0.623841
0.624050 0.624500 0.625700
0.627274 0.627721 0.628921
0.631341 0.631783 0.632983
0.636071 0.636506 0.637706
0.641358 0.641788 0.642987
0.647134 0.647556 0.648756
0.653343 0.653758 0.654958
0.659947 0.660353 0.661553
0.666911 0.667309 0.668509
0.674210 0.674599 0.675799
0.681823 0.682202 0.683402
0.689732 0.690102 0.691302
0.697926 0.698286 0.699486
0.706397 0.706746 0.707946
0.715140 0.715478 0.716678
0.724154 0.724482 0.725682
0.733186 0.733503 0.734703
0.741980 0.742285 0.743485
0.750534 0.750829 0.752029
0.758844 0.759129 0.760329
0.766904 0.767179 0.768379
0.774701 0.774967 0.776167
0.782220 0.782476 0.783676
0.789440 0.789687 0.790887
0.796331 0.796570 0.797770
0.802859 0.803089 0.804289
0.808976 0.809199 0.810399
