crates/agx-e2e/fixtures/looks/luts/tmax_100.cube
TITLE "tmax_100"
LUT_3D_SIZE 5
DOMAIN_MIN 0.0 0.0 0.0
DOMAIN_MAX 1.0 1.0 1.0
0.014400 0.015600 0.016800
0.052159 0.053312 0.054512
0.116366 0.117441 0.118641
0.181652 0.182646 0.183846
0.221898 0.222842 0.224042
0.141423 0.142467 0.143667
0.179182 0.180180 0.181380
0.243390 0.244308 0.245508
0.308675 0.309513 0.310713
0.348921 0.349710 0.350910
0.357422 0.358200 0.359400
0.395181 0.395912 0.397112
0.459388 0.460041 0.461241
0.524673 0.525246 0.526446
0.564919 0.565442 0.566642
0.577045 0.577553 0.578753
0.614804 0.615266 0.616466
0.679011 0.679394 0.680594
0.744296 0.744599 0.745799
0.784543 0.784796 0.785996
0.712435 0.712777 0.713977
0.750194 0.750489 0.751689
0.814402 0.814618 0.815818
0.879687 0.879823 0.881023
0.919933 0.920019 0.921219
0.027223 0.028407 0.029607
0.064982 0.066120 0.067320
0.129190 0.130248 0.131448
0.194475 0.195453 0.196653
0.234721 0.235650 0.236850
0.154246 0.155275 0.156475
0.192005 0.192987 0.194187
0.256213 0.257116 0.258316
0.321498 0.322320 0.323520
0.361744 0.362517 0.363717
0.370245 0.371007 0.372207
0.408004 0.408720 0.409920
0.472211 0.472848 0.474048
0.537496 0.538053 0.539253
0.577742 0.578250 0.579450
0.589868 0.590360 0.591560
0.627627 0.628073 0.629273
0.691834 0.692202 0.693402
0.757120 0.757406 0.758606
0.797366 0.797603 0.798803
0.725258 0.725584 0.726784
0.763017 0.763297 0.764497
0.827225 0.827425 0.828625
0.892510 0.892630 0.893830
0.932756 0.932827 0.934027
0.049028 0.050186 0.051386
0.086787 0.087898 0.089098
0.150995 0.152027 0.153227
0.216280 0.217232 0.218432
0.256526 0.257428 0.258628
0.176052 0.177053 0.178253
0.213811 0.214765 0.215965
0.278018 0.278894 0.280094
0.343303 0.344099 0.345299
0.383549 0.384295 0.385495
0.392050 0.392786 0.393986
0.429809 0.430498 0.431698
0.494016 0.494627 0.495827
0.559302 0.559832 0.561032
0.599548 0.600028 0.601228
0.611673 0.612139 0.613339
0.649432 0.649851 0.651051
0.713640 0.713980 0.715180
0.778925 0.779185 0.780385
0.819171 0.819381 0.820581
0.747064 0.747363 0.748563
0.784822 0.785075 0.786275
0.849030 0.849204 0.850404
0.914315 0.914409 0.915609
0.954561 0.954605 0.955805
0.071199 0.072330 0.073530
0.108958 0.110042 0.111242
0.173166 0.174171 0.175371
0.238451 0.239376 0.240576
0.278697 0.279572 0.280772
0.198223 0.199197 0.200397
0.235982 0.236909 0.238109
0.300189 0.301038 0.302238
0.365474 0.366243 0.367443
0.405720 0.406439 0.407639
0.414221 0.414930 0.416130
0.451980 0.452642 0.453842
0.516188 0.516771 0.517971
0.581473 0.581975 0.583175
0.621719 0.622172 0.623372
0.633844 0.634283 0.635483
0.671603 0.671995 0.673195
0.735811 0.736124 0.737324
0.801096 0.801329 0.802529
0.841342 0.841525 0.842725
0.769235 0.769507 0.770707
0.806994 0.807219 0.808419
0.871201 0.871348 0.872548
0.936486 0.936552 0.937752
0.976732 0.976749 0.977949
0.084867 0.085981 0.087181
0.122626 0.123693 0.124893
0.186834 0.187822 0.189022
0.252119 0.253026 0.254226
0.292365 0.293223 0.294423
0.211891 0.212848 0.214048
0.249649 0.250560 0.251760
0.313857 0.314689 0.315889
0.379142 0.379894 0.381094
0.419388 0.420090 0.421290
0.427889 0.428581 0.429781
0.465648 0.466293 0.467493
0.529855 0.530422 0.531622
0.595140 0.595626 0.596826
0.635386 0.635823 0.637023
0.647512 0.647934 0.649134
0.685271 0.685646 0.686846
0.749479 0.749775 0.750975
0.814764 0.814980 0.816180
0.855010 0.855176 0.856376
0.782902 0.783158 0.784357
0.820661 0.820870 0.822070
0.884869 0.884999 0.886199
0.950154 0.950203 0.951403
0.990400 0.990400 0.991600
